; Generated with MatterSlice 1.0
; filamentDiameter = 1.75
; extrusionWidth = 0.5
; firstLayerExtrusionWidth = 0.65
; layerThickness = 0.3
; firstLayerThickness = 0.3
; automatic settings before start_gcode
G21 ; set units to millimeters
M107 ; fan off
M190 S60 ; wait for bed temperature to be reached
M104 T0 S210 ; start heating extruder 1
M109 T0 S210 ; wait for extruder 1
T0 ; set the active extruder to 0
; settings from start_gcode
G28
; automatic settings after start_gcode
T0 ; set the active extruder to 0
G90 ; use absolute coordinates
G92 E0 ; reset the expected extruder position
M82 ; use absolute distance for extrusion
; Layer count: 254
; Layer Change GCode
; LAYER:0
M400
M107
G0 F12000 X42.074 Y42.074 Z0.8
; TYPE:SKIRT
G1 Z0.3
G1 F6000 E0
G1 F900 X-42.073 Y42.074 E6.82193
G1 X-42.073 Y-42.073 E13.64386
G1 X42.074 Y-42.073 E20.46579
G1 X42.074 Y42.074 E27.28772
G0 F12000 X41.424 Y41.424
G1 F900 X-41.423 Y41.424 E34.00426
G1 X-41.423 Y-41.423 E40.72079
G1 X41.424 Y-41.423 E47.43733
G1 X41.424 Y41.424 E54.15387
G1 F6000 E51.65387
G0 F900 X41.424 Y31.424
G1 Z0.8
G0 F12000 X38.099 Y39.599
G0 X38.099 Y38.099
G0 X37.124 Y37.124
G0 X-37.123 Y37.124
G0 X-37.773 Y37.774
; TYPE:WALL-OUTER
G1 Z0.3
G1 F6000 E54.15387
G1 F900 X-37.773 Y-37.773 E60.27858
G1 X37.774 Y-37.773 E66.4033
G1 X37.774 Y37.774 E72.52801
G1 X-37.773 Y37.774 E78.65273
G0 F12000 X-37.123 Y37.124
; TYPE:WALL-INNER
G1 F900 X-37.123 Y-37.123 E84.67205
G1 X37.124 Y-37.123 E90.69137
G1 X37.124 Y37.124 E96.71069
G1 X-37.123 Y37.124 E102.73001
G0 F12000 X-36.473 Y36.474
G1 F900 X-36.473 Y-36.473 E108.64394
G1 X36.474 Y-36.473 E114.55787
G1 X36.474 Y36.474 E120.4718
G1 X-36.473 Y36.474 E126.38573
G0 F12000 X-36.073 Y35.75
; TYPE:BOTTOM-FILL
G1 F900 X36.074 Y35.75 E132.2348
G0 F12000 X36.074 Y35.1
G1 F900 X-36.073 Y35.1 E138.08387
G0 F12000 X-36.073 Y34.45
G1 F900 X36.074 Y34.45 E143.93294
G0 F12000 X36.074 Y33.8
G1 F900 X-36.073 Y33.8 E149.78201
G0 F12000 X-36.073 Y33.15
G1 F900 X36.074 Y33.15 E155.63108
G0 F12000 X36.074 Y32.499
G1 F900 X-36.073 Y32.5 E161.48015
G0 F12000 X-36.073 Y31.85
G1 F900 X36.074 Y31.849 E167.32923
G0 F12000 X36.074 Y31.199
G1 F900 X-36.073 Y31.2 E173.1783
G0 F12000 X-36.073 Y30.55
G1 F900 X36.074 Y30.549 E179.02737
G0 F12000 X36.074 Y29.899
G1 F900 X-36.073 Y29.9 E184.87644
G0 F12000 X-36.073 Y29.25
G1 F900 X36.074 Y29.249 E190.72551
G0 F12000 X36.074 Y28.599
G1 F900 X-36.073 Y28.6 E196.57458
G0 F12000 X-36.073 Y27.95
G1 F900 X36.074 Y27.949 E202.42365
G0 F12000 X36.074 Y27.299
G1 F900 X-36.073 Y27.3 E208.27272
G0 F12000 X-36.073 Y26.65
G1 F900 X36.074 Y26.649 E214.1218
G0 F12000 X36.074 Y25.999
G1 F900 X-36.073 Y26 E219.97087
G0 F12000 X-36.073 Y25.35
G1 F900 X36.074 Y25.349 E225.81994
G0 F12000 X36.074 Y24.699
G1 F900 X-36.073 Y24.7 E231.66901
G0 F12000 X-36.073 Y24.05
G1 F900 X36.074 Y24.049 E237.51808
G0 F12000 X36.074 Y23.399
G1 F900 X-36.073 Y23.4 E243.36715
G0 F12000 X-36.073 Y22.75
G1 F900 X36.074 Y22.749 E249.21622
G0 F12000 X36.074 Y22.099
G1 F900 X-36.073 Y22.1 E255.06529
G0 F12000 X-36.073 Y21.45
G1 F900 X36.074 Y21.449 E260.91437
G0 F12000 X36.074 Y20.799
G1 F900 X-36.073 Y20.8 E266.76344
G0 F12000 X-36.073 Y20.15
G1 F900 X36.074 Y20.149 E272.61251
G0 F12000 X36.074 Y19.499
G1 F900 X-36.073 Y19.5 E278.46158
G0 F12000 X-36.073 Y18.85
G1 F900 X36.074 Y18.849 E284.31065
G0 F12000 X36.074 Y18.199
G1 F900 X-36.073 Y18.2 E290.15972
G0 F12000 X-36.073 Y17.55
G1 F900 X36.074 Y17.549 E296.00879
G0 F12000 X36.074 Y16.899
G1 F900 X-36.073 Y16.9 E301.85786
G0 F12000 X-36.073 Y16.25
G1 F900 X36.074 Y16.249 E307.70694
G0 F12000 X36.074 Y15.599
G1 F900 X-36.073 Y15.6 E313.55601
G0 F12000 X-36.073 Y14.95
G1 F900 X36.074 Y14.949 E319.40508
G0 F12000 X36.074 Y14.299
G1 F900 X-36.073 Y14.3 E325.25415
G0 F12000 X-36.073 Y13.65
G1 F900 X36.074 Y13.649 E331.10322
G0 F12000 X36.074 Y12.999
G1 F900 X-36.073 Y13 E336.95229
G0 F12000 X-36.073 Y12.35
G1 F900 X36.074 Y12.349 E342.80136
G0 F12000 X36.074 Y11.699
G1 F900 X-36.073 Y11.7 E348.65043
G0 F12000 X-36.073 Y11.05
G1 F900 X36.074 Y11.049 E354.49951
G0 F12000 X36.074 Y10.399
G1 F900 X-36.073 Y10.4 E360.34858
G0 F12000 X-36.073 Y9.75
G1 F900 X36.074 Y9.749 E366.19765
G0 F12000 X36.074 Y9.099
G1 F900 X-36.073 Y9.1 E372.04672
G0 F12000 X-36.073 Y8.45
G1 F900 X36.074 Y8.449 E377.89579
G0 F12000 X36.074 Y7.799
G1 F900 X-36.073 Y7.8 E383.74486
G0 F12000 X-36.073 Y7.15
G1 F900 X36.074 Y7.149 E389.59393
G0 F12000 X36.074 Y6.499
G1 F900 X-36.073 Y6.5 E395.443
G0 F12000 X-36.073 Y5.85
G1 F900 X36.074 Y5.849 E401.29208
G0 F12000 X36.074 Y5.199
G1 F900 X-36.073 Y5.2 E407.14115
G0 F12000 X-36.073 Y4.55
G1 F900 X36.074 Y4.549 E412.99022
G0 F12000 X36.074 Y3.899
G1 F900 X-36.073 Y3.9 E418.83929
G0 F12000 X-36.073 Y3.25
G1 F900 X36.074 Y3.249 E424.68836
G0 F12000 X36.074 Y2.599
G1 F900 X-36.073 Y2.6 E430.53743
G0 F12000 X-36.073 Y1.95
G1 F900 X36.074 Y1.949 E436.3865
G0 F12000 X36.074 Y1.299
G1 F900 X-36.073 Y1.3 E442.23557
G0 F12000 X-36.073 Y0.65
G1 F900 X36.074 Y0.649 E448.08464
G0 F12000 X36.074 Y0
G1 F900 X-36.073 Y0 E453.93372
G0 F12000 X-36.073 Y-0.649
G1 F900 X36.074 Y-0.65 E459.78279
G0 F12000 X36.074 Y-1.3
G1 F900 X-36.073 Y-1.299 E465.63186
G0 F12000 X-36.073 Y-1.949
G1 F900 X36.074 Y-1.95 E471.48093
G0 F12000 X36.074 Y-2.6
G1 F900 X-36.073 Y-2.599 E477.33
G0 F12000 X-36.073 Y-3.249
G1 F900 X36.074 Y-3.25 E483.17907
G0 F12000 X36.074 Y-3.9
G1 F900 X-36.073 Y-3.899 E489.02814
G0 F12000 X-36.073 Y-4.549
G1 F900 X36.074 Y-4.55 E494.87721
G0 F12000 X36.074 Y-5.2
G1 F900 X-36.073 Y-5.199 E500.72629
G0 F12000 X-36.073 Y-5.849
G1 F900 X36.074 Y-5.85 E506.57536
G0 F12000 X36.074 Y-6.5
G1 F900 X-36.073 Y-6.499 E512.42443
G0 F12000 X-36.073 Y-7.149
G1 F900 X36.074 Y-7.15 E518.2735
G0 F12000 X36.074 Y-7.8
G1 F900 X-36.073 Y-7.799 E524.12257
G0 F12000 X-36.073 Y-8.449
G1 F900 X36.074 Y-8.45 E529.97164
G0 F12000 X36.074 Y-9.1
G1 F900 X-36.073 Y-9.099 E535.82071
G0 F12000 X-36.073 Y-9.749
G1 F900 X36.074 Y-9.75 E541.66978
G0 F12000 X36.074 Y-10.4
G1 F900 X-36.073 Y-10.399 E547.51886
G0 F12000 X-36.073 Y-11.049
G1 F900 X36.074 Y-11.05 E553.36793
G0 F12000 X36.074 Y-11.7
G1 F900 X-36.073 Y-11.699 E559.217
G0 F12000 X-36.073 Y-12.349
G1 F900 X36.074 Y-12.35 E565.06607
G0 F12000 X36.074 Y-13
G1 F900 X-36.073 Y-12.999 E570.91514
G0 F12000 X-36.073 Y-13.649
G1 F900 X36.074 Y-13.65 E576.76421
G0 F12000 X36.074 Y-14.3
G1 F900 X-36.073 Y-14.299 E582.61328
G0 F12000 X-36.073 Y-14.949
G1 F900 X36.074 Y-14.95 E588.46235
G0 F12000 X36.074 Y-15.6
G1 F900 X-36.073 Y-15.599 E594.31143
G0 F12000 X-36.073 Y-16.249
G1 F900 X36.074 Y-16.25 E600.1605
G0 F12000 X36.074 Y-16.9
G1 F900 X-36.073 Y-16.899 E606.00957
G0 F12000 X-36.073 Y-17.549
G1 F900 X36.074 Y-17.55 E611.85864
G0 F12000 X36.074 Y-18.2
G1 F900 X-36.073 Y-18.199 E617.70771
G0 F12000 X-36.073 Y-18.849
G1 F900 X36.074 Y-18.85 E623.55678
G0 F12000 X36.074 Y-19.5
G1 F900 X-36.073 Y-19.499 E629.40585
G0 F12000 X-36.073 Y-20.149
G1 F900 X36.074 Y-20.15 E635.25492
G0 F12000 X36.074 Y-20.8
G1 F900 X-36.073 Y-20.799 E641.104
G0 F12000 X-36.073 Y-21.449
G1 F900 X36.074 Y-21.45 E646.95307
G0 F12000 X36.074 Y-22.1
G1 F900 X-36.073 Y-22.099 E652.80214
G0 F12000 X-36.073 Y-22.749
G1 F900 X36.074 Y-22.75 E658.65121
G0 F12000 X36.074 Y-23.4
G1 F900 X-36.073 Y-23.399 E664.50028
G0 F12000 X-36.073 Y-24.049
G1 F900 X36.074 Y-24.05 E670.34935
G0 F12000 X36.074 Y-24.7
G1 F900 X-36.073 Y-24.699 E676.19842
G0 F12000 X-36.073 Y-25.349
G1 F900 X36.074 Y-25.35 E682.04749
G0 F12000 X36.074 Y-26
G1 F900 X-36.073 Y-25.999 E687.89657
G0 F12000 X-36.073 Y-26.649
G1 F900 X36.074 Y-26.65 E693.74564
G0 F12000 X36.074 Y-27.3
G1 F900 X-36.073 Y-27.299 E699.59471
G0 F12000 X-36.073 Y-27.949
G1 F900 X36.074 Y-27.95 E705.44378
G0 F12000 X36.074 Y-28.6
G1 F900 X-36.073 Y-28.599 E711.29285
G0 F12000 X-36.073 Y-29.249
G1 F900 X36.074 Y-29.25 E717.14192
G0 F12000 X36.074 Y-29.9
G1 F900 X-36.073 Y-29.899 E722.99099
G0 F12000 X-36.073 Y-30.549
G1 F900 X36.074 Y-30.55 E728.84006
G0 F12000 X36.074 Y-31.2
G1 F900 X-36.073 Y-31.199 E734.68913
G0 F12000 X-36.073 Y-31.849
G1 F900 X36.074 Y-31.85 E740.53821
G0 F12000 X36.074 Y-32.5
G1 F900 X-36.073 Y-32.499 E746.38728
G0 F12000 X-36.073 Y-33.15
G1 F900 X36.074 Y-33.15 E752.23635
G0 F12000 X36.074 Y-33.8
G1 F900 X-36.073 Y-33.8 E758.08542
G0 F12000 X-36.073 Y-34.45
G1 F900 X36.074 Y-34.45 E763.93449
G0 F12000 X36.074 Y-35.1
G1 F900 X-36.073 Y-35.1 E769.78356
G0 F12000 X-36.073 Y-35.75
G1 F900 X36.074 Y-35.75 E775.63263
; Layer Change GCode
; LAYER:1
G1 F6000 E773.13263
G0 F900 X26.074 Y-35.75
G1 Z0.8
G0 F12000 X36.074 Y-35.75 Z1.1
G0 X-37.348 Y37.349
G0 X-37.848 Y37.849
G0 X-37.348 Y37.349
G0 X-36.848 Y36.849
; TYPE:WALL-INNER
G1 Z0.6
G1 F6000 E775.63263
G1 F2400 X-36.848 Y-36.848 E780.22858
G1 X36.849 Y-36.848 E784.82453
G1 X36.849 Y36.849 E789.42048
G1 X-36.848 Y36.849 E794.01642
G0 F12000 X-37.348 Y37.349
G1 F2400 X-37.348 Y-37.348 E798.67474
G1 X37.349 Y-37.348 E803.33305
G1 X37.349 Y37.349 E807.99136
G1 X-37.348 Y37.349 E812.64967
G0 F12000 X-37.848 Y37.849
; TYPE:WALL-OUTER
G1 F1800 X-37.848 Y-37.848 E817.37034
G1 X37.849 Y-37.848 E822.09101
G1 X37.849 Y37.849 E826.81169
G1 X-37.848 Y37.849 E831.53236
G0 F12000 X-37.348 Y37.349
G0 X-36.499 Y36.598
; TYPE:FILL
G1 F2400 X-36.5 Y-36.597 E836.097
G0 F12000 X-36 Y-36.597
G1 F2400 X-35.999 Y36.598 E840.66164
G0 F12000 X-35.499 Y36.598
G1 F2400 X-35.5 Y-36.597 E845.22629
G0 F12000 X-35 Y-36.597
G1 F2400 X-34.999 Y36.598 E849.79093
G0 F12000 X-34.499 Y36.598
G1 F2400 X-34.5 Y-36.597 E854.35557
G0 F12000 X-34 Y-36.597
G1 F2400 X-33.999 Y36.598 E858.92021
G0 F12000 X-33.499 Y36.598
G1 F2400 X-33.5 Y-36.597 E863.48485
G0 F12000 X-33 Y-36.597
G1 F2400 X-32.999 Y36.598 E868.04949
G0 F12000 X-32.499 Y36.598
G1 F2400 X-32.5 Y-36.597 E872.61414
G0 F12000 X-32 Y-36.597
G1 F2400 X-31.999 Y36.598 E877.17878
G0 F12000 X-31.499 Y36.598
G1 F2400 X-31.5 Y-36.597 E881.74342
G0 F12000 X-31 Y-36.597
G1 F2400 X-30.999 Y36.598 E886.30806
G0 F12000 X-30.499 Y36.598
G1 F2400 X-30.5 Y-36.597 E890.8727
G0 F12000 X-30 Y-36.597
G1 F2400 X-29.999 Y36.598 E895.43734
G0 F12000 X-29.499 Y36.598
G1 F2400 X-29.5 Y-36.598 E900.00205
G0 F12000 X-29 Y-36.598
G1 F2400 X-28.999 Y36.598 E904.56675
G0 F12000 X-28.499 Y36.598
G1 F2400 X-28.5 Y-36.598 E909.13146
G0 F12000 X-28 Y-36.598
G1 F2400 X-27.999 Y36.598 E913.69616
G0 F12000 X-27.499 Y36.598
G1 F2400 X-27.5 Y-36.598 E918.26086
G0 F12000 X-27 Y-36.598
G1 F2400 X-26.999 Y36.598 E922.82557
G0 F12000 X-26.499 Y36.598
G1 F2400 X-26.5 Y-36.598 E927.39027
G0 F12000 X-26 Y-36.598
G1 F2400 X-25.999 Y36.598 E931.95498
G0 F12000 X-25.499 Y36.598
G1 F2400 X-25.5 Y-36.598 E936.51968
G0 F12000 X-25 Y-36.598
G1 F2400 X-24.999 Y36.598 E941.08439
G0 F12000 X-24.499 Y36.598
G1 F2400 X-24.5 Y-36.598 E945.64909
G0 F12000 X-24 Y-36.598
G1 F2400 X-23.999 Y36.598 E950.21379
G0 F12000 X-23.499 Y36.598
G1 F2400 X-23.5 Y-36.598 E954.7785
G0 F12000 X-23 Y-36.598
G1 F2400 X-22.999 Y36.598 E959.3432
G0 F12000 X-22.499 Y36.598
G1 F2400 X-22.5 Y-36.598 E963.90791
G0 F12000 X-22 Y-36.598
G1 F2400 X-21.999 Y36.598 E968.47261
G0 F12000 X-21.499 Y36.598
G1 F2400 X-21.5 Y-36.598 E973.03731
G0 F12000 X-21 Y-36.598
G1 F2400 X-20.999 Y36.598 E977.60202
G0 F12000 X-20.499 Y36.598
G1 F2400 X-20.5 Y-36.598 E982.16672
G0 F12000 X-20 Y-36.598
G1 F2400 X-19.999 Y36.598 E986.73143
G0 F12000 X-19.499 Y36.598
G1 F2400 X-19.5 Y-36.598 E991.29613
G0 F12000 X-19 Y-36.598
G1 F2400 X-18.999 Y36.598 E995.86083
G0 F12000 X-18.499 Y36.598
G1 F2400 X-18.5 Y-36.598 E1000.42554
G0 F12000 X-18 Y-36.598
G1 F2400 X-17.999 Y36.598 E1004.99024
G0 F12000 X-17.499 Y36.598
G1 F2400 X-17.5 Y-36.598 E1009.55495
G0 F12000 X-17 Y-36.598
G1 F2400 X-16.999 Y36.598 E1014.11965
G0 F12000 X-16.499 Y36.598
G1 F2400 X-16.5 Y-36.598 E1018.68435
G0 F12000 X-16 Y-36.598
G1 F2400 X-15.999 Y36.598 E1023.24906
G0 F12000 X-15.499 Y36.598
G1 F2400 X-15.5 Y-36.598 E1027.81376
G0 F12000 X-15 Y-36.598
G1 F2400 X-14.999 Y36.598 E1032.37847
G0 F12000 X-14.499 Y36.598
G1 F2400 X-14.5 Y-36.598 E1036.94317
G0 F12000 X-14 Y-36.598
G1 F2400 X-13.999 Y36.598 E1041.50788
G0 F12000 X-13.499 Y36.598
G1 F2400 X-13.5 Y-36.598 E1046.07258
G0 F12000 X-13 Y-36.598
G1 F2400 X-12.999 Y36.598 E1050.63728
G0 F12000 X-12.499 Y36.598
G1 F2400 X-12.5 Y-36.598 E1055.20199
G0 F12000 X-12 Y-36.598
G1 F2400 X-11.999 Y36.598 E1059.76669
G0 F12000 X-11.499 Y36.598
G1 F2400 X-11.5 Y-36.598 E1064.3314
G0 F12000 X-11 Y-36.598
G1 F2400 X-10.999 Y36.598 E1068.8961
G0 F12000 X-10.499 Y36.598
G1 F2400 X-10.5 Y-36.598 E1073.4608
G0 F12000 X-10 Y-36.598
G1 F2400 X-9.999 Y36.598 E1078.02551
G0 F12000 X-9.499 Y36.598
G1 F2400 X-9.5 Y-36.598 E1082.59021
G0 F12000 X-9 Y-36.598
G1 F2400 X-8.999 Y36.598 E1087.15492
G0 F12000 X-8.499 Y36.598
G1 F2400 X-8.5 Y-36.598 E1091.71962
G0 F12000 X-8 Y-36.598
G1 F2400 X-7.999 Y36.598 E1096.28432
G0 F12000 X-7.499 Y36.598
G1 F2400 X-7.5 Y-36.598 E1100.84903
G0 F12000 X-7 Y-36.598
G1 F2400 X-6.999 Y36.598 E1105.41373
G0 F12000 X-6.499 Y36.598
G1 F2400 X-6.5 Y-36.598 E1109.97844
G0 F12000 X-6 Y-36.598
G1 F2400 X-5.999 Y36.598 E1114.54314
G0 F12000 X-5.499 Y36.598
G1 F2400 X-5.5 Y-36.598 E1119.10784
G0 F12000 X-5 Y-36.598
G1 F2400 X-4.999 Y36.598 E1123.67255
G0 F12000 X-4.499 Y36.598
G1 F2400 X-4.5 Y-36.598 E1128.23725
G0 F12000 X-4 Y-36.598
G1 F2400 X-3.999 Y36.598 E1132.80196
G0 F12000 X-3.499 Y36.598
G1 F2400 X-3.5 Y-36.598 E1137.36666
G0 F12000 X-3 Y-36.598
G1 F2400 X-2.999 Y36.598 E1141.93137
G0 F12000 X-2.499 Y36.598
G1 F2400 X-2.5 Y-36.598 E1146.49607
G0 F12000 X-2 Y-36.598
G1 F2400 X-1.999 Y36.598 E1151.06077
G0 F12000 X-1.499 Y36.598
G1 F2400 X-1.5 Y-36.598 E1155.62548
G0 F12000 X-1 Y-36.598
G1 F2400 X-0.999 Y36.598 E1160.19018
G0 F12000 X-0.499 Y36.598
G1 F2400 X-0.5 Y-36.598 E1164.75489
G0 F12000 X0 Y-36.598
G1 F2400 X0 Y36.599 E1169.31965
G0 F12000 X0.5 Y36.599
G1 F2400 X0.499 Y-36.597 E1173.88436
G0 F12000 X0.999 Y-36.597
G1 F2400 X1 Y36.599 E1178.44906
G0 F12000 X1.5 Y36.599
G1 F2400 X1.499 Y-36.597 E1183.01376
G0 F12000 X1.999 Y-36.597
G1 F2400 X2 Y36.599 E1187.57847
G0 F12000 X2.5 Y36.599
G1 F2400 X2.499 Y-36.597 E1192.14317
G0 F12000 X2.999 Y-36.597
G1 F2400 X3 Y36.599 E1196.70788
G0 F12000 X3.5 Y36.599
G1 F2400 X3.499 Y-36.597 E1201.27258
G0 F12000 X3.999 Y-36.597
G1 F2400 X4 Y36.599 E1205.83728
G0 F12000 X4.5 Y36.599
G1 F2400 X4.499 Y-36.597 E1210.40199
G0 F12000 X4.999 Y-36.597
G1 F2400 X5 Y36.599 E1214.96669
G0 F12000 X5.5 Y36.599
G1 F2400 X5.499 Y-36.597 E1219.5314
G0 F12000 X5.999 Y-36.597
G1 F2400 X6 Y36.599 E1224.0961
G0 F12000 X6.5 Y36.599
G1 F2400 X6.499 Y-36.597 E1228.6608
G0 F12000 X6.999 Y-36.597
G1 F2400 X7 Y36.599 E1233.22551
G0 F12000 X7.5 Y36.599
G1 F2400 X7.499 Y-36.597 E1237.79021
G0 F12000 X7.999 Y-36.597
G1 F2400 X8 Y36.599 E1242.35492
G0 F12000 X8.5 Y36.599
G1 F2400 X8.499 Y-36.597 E1246.91962
G0 F12000 X8.999 Y-36.597
G1 F2400 X9 Y36.599 E1251.48433
G0 F12000 X9.5 Y36.599
G1 F2400 X9.499 Y-36.597 E1256.04903
G0 F12000 X9.999 Y-36.597
G1 F2400 X10 Y36.599 E1260.61373
G0 F12000 X10.5 Y36.599
G1 F2400 X10.499 Y-36.597 E1265.17844
G0 F12000 X10.999 Y-36.597
G1 F2400 X11 Y36.599 E1269.74314
G0 F12000 X11.5 Y36.599
G1 F2400 X11.499 Y-36.597 E1274.30785
G0 F12000 X11.999 Y-36.597
G1 F2400 X12 Y36.599 E1278.87255
G0 F12000 X12.5 Y36.599
G1 F2400 X12.499 Y-36.597 E1283.43725
G0 F12000 X12.999 Y-36.597
G1 F2400 X13 Y36.599 E1288.00196
G0 F12000 X13.5 Y36.599
G1 F2400 X13.499 Y-36.597 E1292.56666
G0 F12000 X13.999 Y-36.597
G1 F2400 X14 Y36.599 E1297.13137
G0 F12000 X14.5 Y36.599
G1 F2400 X14.499 Y-36.597 E1301.69607
G0 F12000 X14.999 Y-36.597
G1 F2400 X15 Y36.599 E1306.26077
G0 F12000 X15.5 Y36.599
G1 F2400 X15.499 Y-36.597 E1310.82548
G0 F12000 X15.999 Y-36.597
G1 F2400 X16 Y36.599 E1315.39018
G0 F12000 X16.5 Y36.599
G1 F2400 X16.499 Y-36.597 E1319.95489
G0 F12000 X16.999 Y-36.597
G1 F2400 X17 Y36.599 E1324.51959
G0 F12000 X17.5 Y36.599
G1 F2400 X17.499 Y-36.597 E1329.08429
G0 F12000 X17.999 Y-36.597
G1 F2400 X18 Y36.599 E1333.649
G0 F12000 X18.5 Y36.599
G1 F2400 X18.499 Y-36.597 E1338.2137
G0 F12000 X18.999 Y-36.597
G1 F2400 X19 Y36.599 E1342.77841
G0 F12000 X19.5 Y36.599
G1 F2400 X19.499 Y-36.597 E1347.34311
G0 F12000 X19.999 Y-36.597
G1 F2400 X20 Y36.599 E1351.90782
G0 F12000 X20.5 Y36.599
G1 F2400 X20.499 Y-36.597 E1356.47252
G0 F12000 X20.999 Y-36.597
G1 F2400 X21 Y36.599 E1361.03722
G0 F12000 X21.5 Y36.599
G1 F2400 X21.499 Y-36.597 E1365.60193
G0 F12000 X21.999 Y-36.597
G1 F2400 X22 Y36.599 E1370.16663
G0 F12000 X22.5 Y36.599
G1 F2400 X22.499 Y-36.597 E1374.73134
G0 F12000 X22.999 Y-36.597
G1 F2400 X23 Y36.599 E1379.29604
G0 F12000 X23.5 Y36.599
G1 F2400 X23.499 Y-36.597 E1383.86074
G0 F12000 X23.999 Y-36.597
G1 F2400 X24 Y36.599 E1388.42545
G0 F12000 X24.5 Y36.599
G1 F2400 X24.499 Y-36.597 E1392.99015
G0 F12000 X24.999 Y-36.597
G1 F2400 X25 Y36.599 E1397.55486
G0 F12000 X25.5 Y36.599
G1 F2400 X25.499 Y-36.597 E1402.11956
G0 F12000 X25.999 Y-36.597
G1 F2400 X26 Y36.599 E1406.68426
G0 F12000 X26.5 Y36.599
G1 F2400 X26.499 Y-36.597 E1411.24897
G0 F12000 X26.999 Y-36.597
G1 F2400 X27 Y36.599 E1415.81367
G0 F12000 X27.5 Y36.599
G1 F2400 X27.499 Y-36.597 E1420.37838
G0 F12000 X27.999 Y-36.597
G1 F2400 X28 Y36.599 E1424.94308
G0 F12000 X28.5 Y36.599
G1 F2400 X28.499 Y-36.597 E1429.50778
G0 F12000 X28.999 Y-36.597
G1 F2400 X29 Y36.599 E1434.07249
G0 F12000 X29.5 Y36.599
G1 F2400 X29.499 Y-36.597 E1438.63719
G0 F12000 X29.999 Y-36.597
G1 F2400 X30 Y36.598 E1443.20183
G0 F12000 X30.5 Y36.598
G1 F2400 X30.499 Y-36.597 E1447.76648
G0 F12000 X30.999 Y-36.597
G1 F2400 X31 Y36.598 E1452.33112
G0 F12000 X31.5 Y36.598
G1 F2400 X31.499 Y-36.597 E1456.89576
G0 F12000 X31.999 Y-36.597
G1 F2400 X32 Y36.598 E1461.4604
G0 F12000 X32.5 Y36.598
G1 F2400 X32.499 Y-36.597 E1466.02504
G0 F12000 X32.999 Y-36.597
G1 F2400 X33 Y36.598 E1470.58968
G0 F12000 X33.5 Y36.598
G1 F2400 X33.499 Y-36.597 E1475.15433
G0 F12000 X33.999 Y-36.597
G1 F2400 X34 Y36.598 E1479.71897
G0 F12000 X34.5 Y36.598
G1 F2400 X34.499 Y-36.597 E1484.28361
G0 F12000 X34.999 Y-36.597
G1 F2400 X35 Y36.598 E1488.84825
G0 F12000 X35.5 Y36.598
G1 F2400 X35.499 Y-36.597 E1493.41289
G0 F12000 X35.999 Y-36.597
G1 F2400 X36 Y36.598 E1497.97754
G0 F12000 X36.5 Y36.598
G1 F2400 X36.499 Y-36.597 E1502.54218
; Layer Change GCode
; LAYER:2
M400
M106 S153
G1 F6000 E1500.04218
G0 F2400 X36.499 Y-26.597
G1 Z1.1
G0 F12000 X36.499 Y-36.597 Z1.4
G0 X-37.348 Y37.349
G0 X-37.848 Y37.849
G0 X-37.348 Y37.349
G0 X-36.848 Y36.849
; TYPE:WALL-INNER
G1 Z0.9
G1 F6000 E1502.54218
G1 F2400 X-36.848 Y-36.848 E1507.13812
G1 X36.849 Y-36.848 E1511.73407
G1 X36.849 Y36.849 E1516.33002
G1 X-36.848 Y36.849 E1520.92597
G0 F12000 X-37.348 Y37.349
G1 F2400 X-37.348 Y-37.348 E1525.58428
G1 X37.349 Y-37.348 E1530.24259
G1 X37.349 Y37.349 E1534.9009
G1 X-37.348 Y37.349 E1539.55921
G0 F12000 X-37.848 Y37.849
; TYPE:WALL-OUTER
G1 F1800 X-37.848 Y-37.848 E1544.27988
G1 X37.849 Y-37.848 E1549.00056
G1 X37.849 Y37.849 E1553.72123
G1 X-37.848 Y37.849 E1558.4419
G0 F12000 X-37.348 Y37.349
G0 X-36.598 Y36.5
; TYPE:FILL
G1 F2400 X36.599 Y36.5 E1563.00667
G0 F12000 X36.599 Y36
G1 F2400 X-36.598 Y36 E1567.57144
G0 F12000 X-36.598 Y35.5
G1 F2400 X36.599 Y35.5 E1572.1362
G0 F12000 X36.599 Y35
G1 F2400 X-36.598 Y35 E1576.70097
G0 F12000 X-36.598 Y34.5
G1 F2400 X36.599 Y34.5 E1581.26574
G0 F12000 X36.599 Y34
G1 F2400 X-36.598 Y34 E1585.8305
G0 F12000 X-36.598 Y33.5
G1 F2400 X36.599 Y33.5 E1590.39527
G0 F12000 X36.599 Y33
G1 F2400 X-36.598 Y33 E1594.96004
G0 F12000 X-36.598 Y32.5
G1 F2400 X36.599 Y32.499 E1599.5248
G0 F12000 X36.599 Y31.999
G1 F2400 X-36.598 Y32 E1604.08957
G0 F12000 X-36.598 Y31.5
G1 F2400 X36.599 Y31.499 E1608.65433
G0 F12000 X36.599 Y30.999
G1 F2400 X-36.598 Y31 E1613.2191
G0 F12000 X-36.598 Y30.5
G1 F2400 X36.599 Y30.499 E1617.78387
G0 F12000 X36.599 Y29.999
G1 F2400 X-36.598 Y30 E1622.34863
G0 F12000 X-36.598 Y29.5
G1 F2400 X36.599 Y29.499 E1626.9134
G0 F12000 X36.599 Y28.999
G1 F2400 X-36.598 Y29 E1631.47817
G0 F12000 X-36.598 Y28.5
G1 F2400 X36.599 Y28.499 E1636.04293
G0 F12000 X36.599 Y27.999
G1 F2400 X-36.598 Y28 E1640.6077
G0 F12000 X-36.598 Y27.5
G1 F2400 X36.599 Y27.499 E1645.17247
G0 F12000 X36.599 Y26.999
G1 F2400 X-36.598 Y27 E1649.73723
G0 F12000 X-36.598 Y26.5
G1 F2400 X36.599 Y26.499 E1654.302
G0 F12000 X36.599 Y25.999
G1 F2400 X-36.598 Y26 E1658.86677
G0 F12000 X-36.598 Y25.5
G1 F2400 X36.599 Y25.499 E1663.43153
G0 F12000 X36.599 Y24.999
G1 F2400 X-36.598 Y25 E1667.9963
G0 F12000 X-36.598 Y24.5
G1 F2400 X36.599 Y24.499 E1672.56107
G0 F12000 X36.599 Y23.999
G1 F2400 X-36.598 Y24 E1677.12583
G0 F12000 X-36.598 Y23.5
G1 F2400 X36.599 Y23.499 E1681.6906
G0 F12000 X36.599 Y22.999
G1 F2400 X-36.598 Y23 E1686.25536
G0 F12000 X-36.598 Y22.5
G1 F2400 X36.599 Y22.499 E1690.82013
G0 F12000 X36.599 Y21.999
G1 F2400 X-36.598 Y22 E1695.3849
G0 F12000 X-36.598 Y21.5
G1 F2400 X36.599 Y21.499 E1699.94966
G0 F12000 X36.599 Y20.999
G1 F2400 X-36.598 Y21 E1704.51443
G0 F12000 X-36.598 Y20.5
G1 F2400 X36.599 Y20.499 E1709.0792
G0 F12000 X36.599 Y19.999
G1 F2400 X-36.598 Y20 E1713.64396
G0 F12000 X-36.598 Y19.5
G1 F2400 X36.599 Y19.499 E1718.20873
G0 F12000 X36.599 Y18.999
G1 F2400 X-36.598 Y19 E1722.7735
G0 F12000 X-36.598 Y18.5
G1 F2400 X36.599 Y18.499 E1727.33826
G0 F12000 X36.599 Y17.999
G1 F2400 X-36.598 Y18 E1731.90303
G0 F12000 X-36.598 Y17.5
G1 F2400 X36.599 Y17.499 E1736.4678
G0 F12000 X36.599 Y16.999
G1 F2400 X-36.598 Y17 E1741.03256
G0 F12000 X-36.598 Y16.5
G1 F2400 X36.599 Y16.499 E1745.59733
G0 F12000 X36.599 Y15.999
G1 F2400 X-36.598 Y16 E1750.16209
G0 F12000 X-36.598 Y15.5
G1 F2400 X36.599 Y15.499 E1754.72686
G0 F12000 X36.599 Y14.999
G1 F2400 X-36.598 Y15 E1759.29163
G0 F12000 X-36.598 Y14.5
G1 F2400 X36.599 Y14.499 E1763.85639
G0 F12000 X36.599 Y13.999
G1 F2400 X-36.598 Y14 E1768.42116
G0 F12000 X-36.598 Y13.5
G1 F2400 X36.599 Y13.499 E1772.98593
G0 F12000 X36.599 Y12.999
G1 F2400 X-36.598 Y13 E1777.55069
G0 F12000 X-36.598 Y12.5
G1 F2400 X36.599 Y12.499 E1782.11546
G0 F12000 X36.599 Y11.999
G1 F2400 X-36.598 Y12 E1786.68023
G0 F12000 X-36.598 Y11.5
G1 F2400 X36.599 Y11.499 E1791.24499
G0 F12000 X36.599 Y10.999
G1 F2400 X-36.598 Y11 E1795.80976
G0 F12000 X-36.598 Y10.5
G1 F2400 X36.599 Y10.499 E1800.37453
G0 F12000 X36.599 Y9.999
G1 F2400 X-36.598 Y10 E1804.93929
G0 F12000 X-36.598 Y9.5
G1 F2400 X36.599 Y9.499 E1809.50406
G0 F12000 X36.599 Y8.999
G1 F2400 X-36.598 Y9 E1814.06882
G0 F12000 X-36.598 Y8.5
G1 F2400 X36.599 Y8.499 E1818.63359
G0 F12000 X36.599 Y7.999
G1 F2400 X-36.598 Y8 E1823.19836
G0 F12000 X-36.598 Y7.5
G1 F2400 X36.599 Y7.499 E1827.76312
G0 F12000 X36.599 Y6.999
G1 F2400 X-36.598 Y7 E1832.32789
G0 F12000 X-36.598 Y6.5
G1 F2400 X36.599 Y6.499 E1836.89266
G0 F12000 X36.599 Y5.999
G1 F2400 X-36.598 Y6 E1841.45742
G0 F12000 X-36.598 Y5.5
G1 F2400 X36.599 Y5.499 E1846.02219
G0 F12000 X36.599 Y4.999
G1 F2400 X-36.598 Y5 E1850.58696
G0 F12000 X-36.598 Y4.5
G1 F2400 X36.599 Y4.499 E1855.15172
G0 F12000 X36.599 Y3.999
G1 F2400 X-36.598 Y4 E1859.71649
G0 F12000 X-36.598 Y3.5
G1 F2400 X36.599 Y3.499 E1864.28126
G0 F12000 X36.599 Y2.999
G1 F2400 X-36.598 Y3 E1868.84602
G0 F12000 X-36.598 Y2.5
G1 F2400 X36.599 Y2.499 E1873.41079
G0 F12000 X36.599 Y1.999
G1 F2400 X-36.598 Y2 E1877.97556
G0 F12000 X-36.598 Y1.5
G1 F2400 X36.599 Y1.499 E1882.54032
G0 F12000 X36.599 Y0.999
G1 F2400 X-36.598 Y1 E1887.10509
G0 F12000 X-36.598 Y0.5
G1 F2400 X36.599 Y0.499 E1891.66985
G0 F12000 X36.599 Y0
G1 F2400 X-36.598 Y0 E1896.23462
G0 F12000 X-36.598 Y-0.499
G1 F2400 X36.599 Y-0.5 E1900.79939
G0 F12000 X36.599 Y-1
G1 F2400 X-36.598 Y-0.999 E1905.36415
G0 F12000 X-36.598 Y-1.499
G1 F2400 X36.599 Y-1.5 E1909.92892
G0 F12000 X36.599 Y-2
G1 F2400 X-36.598 Y-1.999 E1914.49369
G0 F12000 X-36.598 Y-2.499
G1 F2400 X36.599 Y-2.5 E1919.05845
G0 F12000 X36.599 Y-3
G1 F2400 X-36.598 Y-2.999 E1923.62322
G0 F12000 X-36.598 Y-3.499
G1 F2400 X36.599 Y-3.5 E1928.18799
G0 F12000 X36.599 Y-4
G1 F2400 X-36.598 Y-3.999 E1932.75275
G0 F12000 X-36.598 Y-4.499
G1 F2400 X36.599 Y-4.5 E1937.31752
G0 F12000 X36.599 Y-5
G1 F2400 X-36.598 Y-4.999 E1941.88229
G0 F12000 X-36.598 Y-5.499
G1 F2400 X36.599 Y-5.5 E1946.44705
G0 F12000 X36.599 Y-6
G1 F2400 X-36.598 Y-5.999 E1951.01182
G0 F12000 X-36.598 Y-6.499
G1 F2400 X36.599 Y-6.5 E1955.57658
G0 F12000 X36.599 Y-7
G1 F2400 X-36.598 Y-6.999 E1960.14135
G0 F12000 X-36.598 Y-7.499
G1 F2400 X36.599 Y-7.5 E1964.70612
G0 F12000 X36.599 Y-8
G1 F2400 X-36.598 Y-7.999 E1969.27088
G0 F12000 X-36.598 Y-8.499
G1 F2400 X36.599 Y-8.5 E1973.83565
G0 F12000 X36.599 Y-9
G1 F2400 X-36.598 Y-8.999 E1978.40042
G0 F12000 X-36.598 Y-9.499
G1 F2400 X36.599 Y-9.5 E1982.96518
G0 F12000 X36.599 Y-10
G1 F2400 X-36.598 Y-9.999 E1987.52995
G0 F12000 X-36.598 Y-10.499
G1 F2400 X36.599 Y-10.5 E1992.09472
G0 F12000 X36.599 Y-11
G1 F2400 X-36.598 Y-10.999 E1996.65948
G0 F12000 X-36.598 Y-11.499
G1 F2400 X36.599 Y-11.5 E2001.22425
G0 F12000 X36.599 Y-12
G1 F2400 X-36.598 Y-11.999 E2005.78902
G0 F12000 X-36.598 Y-12.499
G1 F2400 X36.599 Y-12.5 E2010.35378
G0 F12000 X36.599 Y-13
G1 F2400 X-36.598 Y-12.999 E2014.91855
G0 F12000 X-36.598 Y-13.499
G1 F2400 X36.599 Y-13.5 E2019.48332
G0 F12000 X36.599 Y-14
G1 F2400 X-36.598 Y-13.999 E2024.04808
G0 F12000 X-36.598 Y-14.499
G1 F2400 X36.599 Y-14.5 E2028.61285
G0 F12000 X36.599 Y-15
G1 F2400 X-36.598 Y-14.999 E2033.17761
G0 F12000 X-36.598 Y-15.499
G1 F2400 X36.599 Y-15.5 E2037.74238
G0 F12000 X36.599 Y-16
G1 F2400 X-36.598 Y-15.999 E2042.30715
G0 F12000 X-36.598 Y-16.499
G1 F2400 X36.599 Y-16.5 E2046.87191
G0 F12000 X36.599 Y-17
G1 F2400 X-36.598 Y-16.999 E2051.43668
G0 F12000 X-36.598 Y-17.499
G1 F2400 X36.599 Y-17.5 E2056.00145
G0 F12000 X36.599 Y-18
G1 F2400 X-36.598 Y-17.999 E2060.56621
G0 F12000 X-36.598 Y-18.499
G1 F2400 X36.599 Y-18.5 E2065.13098
G0 F12000 X36.599 Y-19
G1 F2400 X-36.598 Y-18.999 E2069.69575
G0 F12000 X-36.598 Y-19.499
G1 F2400 X36.599 Y-19.5 E2074.26051
G0 F12000 X36.599 Y-20
G1 F2400 X-36.598 Y-19.999 E2078.82528
G0 F12000 X-36.598 Y-20.499
G1 F2400 X36.599 Y-20.5 E2083.39005
G0 F12000 X36.599 Y-21
G1 F2400 X-36.598 Y-20.999 E2087.95481
G0 F12000 X-36.598 Y-21.499
G1 F2400 X36.599 Y-21.5 E2092.51958
G0 F12000 X36.599 Y-22
G1 F2400 X-36.598 Y-21.999 E2097.08434
G0 F12000 X-36.598 Y-22.499
G1 F2400 X36.599 Y-22.5 E2101.64911
G0 F12000 X36.599 Y-23
G1 F2400 X-36.598 Y-22.999 E2106.21388
G0 F12000 X-36.598 Y-23.499
G1 F2400 X36.599 Y-23.5 E2110.77864
G0 F12000 X36.599 Y-24
G1 F2400 X-36.598 Y-23.999 E2115.34341
G0 F12000 X-36.598 Y-24.499
G1 F2400 X36.599 Y-24.5 E2119.90818
G0 F12000 X36.599 Y-25
G1 F2400 X-36.598 Y-24.999 E2124.47294
G0 F12000 X-36.598 Y-25.499
G1 F2400 X36.599 Y-25.5 E2129.03771
G0 F12000 X36.599 Y-26
G1 F2400 X-36.598 Y-25.999 E2133.60248
G0 F12000 X-36.598 Y-26.499
G1 F2400 X36.599 Y-26.5 E2138.16724
G0 F12000 X36.599 Y-27
G1 F2400 X-36.598 Y-26.999 E2142.73201
G0 F12000 X-36.598 Y-27.499
G1 F2400 X36.599 Y-27.5 E2147.29678
G0 F12000 X36.599 Y-28
G1 F2400 X-36.598 Y-27.999 E2151.86154
G0 F12000 X-36.598 Y-28.499
G1 F2400 X36.599 Y-28.5 E2156.42631
G0 F12000 X36.599 Y-29
G1 F2400 X-36.598 Y-28.999 E2160.99107
G0 F12000 X-36.598 Y-29.499
G1 F2400 X36.599 Y-29.5 E2165.55584
G0 F12000 X36.599 Y-30
G1 F2400 X-36.598 Y-29.999 E2170.12061
G0 F12000 X-36.598 Y-30.499
G1 F2400 X36.599 Y-30.5 E2174.68537
G0 F12000 X36.599 Y-31
G1 F2400 X-36.598 Y-30.999 E2179.25014
G0 F12000 X-36.598 Y-31.499
G1 F2400 X36.599 Y-31.5 E2183.81491
G0 F12000 X36.599 Y-32
G1 F2400 X-36.598 Y-31.999 E2188.37967
G0 F12000 X-36.598 Y-32.499
G1 F2400 X36.599 Y-32.5 E2192.94444
G0 F12000 X36.599 Y-33
G1 F2400 X-36.598 Y-33 E2197.50921
G0 F12000 X-36.598 Y-33.5
G1 F2400 X36.599 Y-33.5 E2202.07397
G0 F12000 X36.599 Y-34
G1 F2400 X-36.598 Y-34 E2206.63874
G0 F12000 X-36.598 Y-34.5
G1 F2400 X36.599 Y-34.5 E2211.20351
G0 F12000 X36.599 Y-35
G1 F2400 X-36.598 Y-35 E2215.76827
G0 F12000 X-36.598 Y-35.5
G1 F2400 X36.599 Y-35.5 E2220.33304
G0 F12000 X36.599 Y-36
G1 F2400 X-36.598 Y-36 E2224.89781
G0 F12000 X-36.598 Y-36.5
G1 F2400 X36.599 Y-36.5 E2229.46257
; Layer Change GCode
; LAYER:3
G1 F6000 E2226.96257
G0 F2400 X26.599 Y-36.5
G1 Z1.4
G0 F12000 X36.599 Y-36.5 Z1.7
G0 X-37.348 Y37.349
G0 X-37.848 Y37.849
G0 X-37.348 Y37.349
G0 X-36.848 Y36.849
; TYPE:WALL-INNER
G1 Z1.2
G1 F6000 E2229.46257
G1 F2400 X-36.848 Y-36.848 E2234.05852
G1 X36.849 Y-36.848 E2238.65447
G1 X36.849 Y36.849 E2243.25042
G1 X-36.848 Y36.849 E2247.84636
G0 F12000 X-37.348 Y37.349
G1 F2400 X-37.348 Y-37.348 E2252.50467
G1 X37.349 Y-37.348 E2257.16298
G1 X37.349 Y37.349 E2261.82129
G1 X-37.348 Y37.349 E2266.47961
G0 F12000 X-37.848 Y37.849
; TYPE:WALL-OUTER
G1 F1800 X-37.848 Y-37.848 E2271.20028
G1 X37.849 Y-37.848 E2275.92095
G1 X37.849 Y37.849 E2280.64163
G1 X-37.848 Y37.849 E2285.3623
G0 F12000 X-37.348 Y37.349
G0 X-36.598 Y35
; TYPE:FILL
G1 F2400 X36.599 Y35 E2289.92706
G0 F12000 X36.598 Y33.391
G1 F2400 X-3.809 Y-36.597 E2294.9669
G0 F12000 X-1.964 Y-36.597
G1 F2400 X-36.597 Y23.388 E2299.28646
G0 F12000 X-36.598 Y25
G1 F2400 X36.599 Y24.999 E2303.85123
G0 F12000 X36.598 Y23.39
G1 F2400 X1.964 Y-36.597 E2308.17093
G0 F12000 X3.809 Y-36.597
G1 F2400 X-36.597 Y33.388 E2313.21057
G0 F12000 X-36.598 Y30
G1 F2400 X36.599 Y29.999 E2317.77534
G0 F12000 X36.598 Y26.609
G1 F2400 X30.831 Y36.598 E2318.49464
G0 F12000 X32.677 Y36.598
G1 F2400 X-9.582 Y-36.597 E2323.76543
G0 F12000 X-7.738 Y-36.597
G1 F2400 X-36.597 Y13.388 E2327.36487
G0 F12000 X-36.598 Y15
G1 F2400 X36.599 Y14.999 E2331.92964
G0 F12000 X36.598 Y13.39
G1 F2400 X7.738 Y-36.597 E2335.52922
G0 F12000 X9.582 Y-36.597
G1 F2400 X-32.677 Y36.598 E2340.80001
G0 F12000 X-30.831 Y36.598
G1 F2400 X-36.598 Y26.61 E2341.51926
G1 F6000 E2339.01926
G0 F2400 X-31.598 Y35.27
G1 Z1.7
G0 F12000 X-36.598 Y20
G1 Z1.2
G1 F6000 E2341.51926
G1 F2400 X36.599 Y19.999 E2346.08403
G0 F12000 X36.598 Y16.609
G1 F2400 X25.057 Y36.599 E2347.52351
G0 F12000 X26.903 Y36.598
G1 F2400 X-15.356 Y-36.598 E2352.79435
G0 F12000 X-13.511 Y-36.596
G1 F2400 X-36.597 Y3.389 E2355.6737
G0 F12000 X-36.598 Y5
G1 F2400 X36.599 Y4.999 E2360.23847
G0 F12000 X36.598 Y3.39
G1 F2400 X13.511 Y-36.597 E2363.11796
G0 F12000 X15.356 Y-36.598
G1 F2400 X-26.903 Y36.598 E2368.3888
G0 F12000 X-25.058 Y36.598
G1 F2400 X-36.597 Y16.611 E2369.82806
G1 F6000 E2367.32806
G0 F2400 X-31.597 Y25.271
G1 Z1.7
G0 F12000 X-36.598 Y10
G1 Z1.2
G1 F6000 E2369.82806
G1 F2400 X36.599 Y9.999 E2374.39282
G0 F12000 X36.598 Y6.608
G1 F2400 X19.284 Y36.598 E2376.55239
G0 F12000 X21.13 Y36.599
G1 F2400 X-21.129 Y-36.597 E2381.82323
G0 F12000 X-19.284 Y-36.597
G1 F2400 X-36.597 Y-6.611 E2383.98255
G0 F12000 X-36.598 Y-4.999
G1 F2400 X36.599 Y-5 E2388.54732
G0 F12000 X36.598 Y-6.608
G1 F2400 X19.284 Y-36.597 E2390.70683
G0 F12000 X21.13 Y-36.598
G1 F2400 X-21.13 Y36.598 E2395.97771
G0 F12000 X-19.284 Y36.598
G1 F2400 X-36.597 Y6.611 E2398.13708
G1 F6000 E2395.63708
G0 F2400 X-31.597 Y15.271
G1 Z1.7
G0 F12000 X-36.598 Y0
G1 Z1.2
G1 F6000 E2398.13708
G1 F2400 X36.599 Y0 E2402.70184
G0 F12000 X36.598 Y-3.39
G1 F2400 X13.51 Y36.598 E2405.58142
G0 F12000 X15.356 Y36.598
G1 F2400 X-26.903 Y-36.597 E2410.85221
G0 F12000 X-25.058 Y-36.597
G1 F2400 X-36.597 Y-16.611 E2412.29141
G0 F12000 X-36.598 Y-14.999
G1 F2400 X36.599 Y-15 E2416.85618
G0 F12000 X36.598 Y-16.609
G1 F2400 X25.058 Y-36.597 E2418.29552
G0 F12000 X26.903 Y-36.597
G1 F2400 X-15.356 Y36.598 E2423.56631
G0 F12000 X-13.51 Y36.598
G1 F2400 X-36.597 Y-3.388 E2426.44574
G1 F6000 E2423.94574
G0 F2400 X-31.597 Y5.272
G1 Z1.7
G0 F12000 X-36.598 Y-9.999
G1 Z1.2
G1 F6000 E2426.44574
G1 F2400 X36.599 Y-10 E2431.01051
G0 F12000 X36.598 Y-13.39
G1 F2400 X7.737 Y36.598 E2434.61017
G0 F12000 X9.583 Y36.598
G1 F2400 X-32.676 Y-36.597 E2439.88096
G0 F12000 X-30.832 Y-36.597
G1 F2400 X-36.597 Y-26.611 E2440.60005
G0 F12000 X-36.598 Y-24.999
G1 F2400 X36.599 Y-25 E2445.16481
G0 F12000 X36.598 Y-26.609
G1 F2400 X30.832 Y-36.597 E2445.88403
G0 F12000 X32.676 Y-36.597
G1 F2400 X-9.583 Y36.598 E2451.15482
G0 F12000 X-7.737 Y36.598
G1 F2400 X-36.597 Y-13.388 E2454.75435
G1 F6000 E2452.25435
G0 F2400 X-31.597 Y-4.728
G1 Z1.7
G0 F12000 X-36.598 Y-19.999
G1 Z1.2
G1 F6000 E2454.75435
G1 F2400 X36.599 Y-20 E2459.31911
G0 F12000 X36.598 Y-23.39
G1 F2400 X1.963 Y36.599 E2463.63895
G0 F12000 X3.809 Y36.598
G1 F2400 X-36.596 Y-33.387 E2468.67857
G0 F12000 X-36.598 Y-35
G1 F2400 X36.599 Y-35 E2473.24333
G0 F12000 X36.598 Y-33.39
G1 F2400 X-3.809 Y36.598 E2478.28317
G0 F12000 X-1.964 Y36.598
G1 F2400 X-36.597 Y-23.387 E2482.60273
G1 F6000 E2480.10273
G0 F2400 X-31.597 Y-14.727
G1 Z1.7
G0 F12000 X-36.598 Y-29.999
G1 Z1.2
G1 F6000 E2482.60273
G1 F2400 X36.599 Y-30 E2487.1675
; Layer Change GCode
; LAYER:4
G1 F6000 E2484.6675
G0 F2400 X26.599 Y-30
G1 Z1.7
G0 F12000 X36.599 Y-30 Z2
G0 X-37.348 Y37.349
G0 X-37.848 Y37.849
G0 X-37.348 Y37.349
G0 X-36.848 Y36.849
; TYPE:WALL-INNER
G1 Z1.5
G1 F6000 E2487.1675
G1 F2400 X-36.848 Y-36.848 E2491.76344
G1 X36.849 Y-36.848 E2496.35939
G1 X36.849 Y36.849 E2500.95534
G1 X-36.848 Y36.849 E2505.55129
G0 F12000 X-37.348 Y37.349
G1 F2400 X-37.348 Y-37.348 E2510.2096
G1 X37.349 Y-37.348 E2514.86791
G1 X37.349 Y37.349 E2519.52622
G1 X-37.348 Y37.349 E2524.18453
G0 F12000 X-37.848 Y37.849
; TYPE:WALL-OUTER
G1 F1800 X-37.848 Y-37.848 E2528.9052
G1 X37.849 Y-37.848 E2533.62588
G1 X37.849 Y37.849 E2538.34655
G1 X-37.848 Y37.849 E2543.06722
G0 F12000 X-37.348 Y37.349
G0 X-36.598 Y35
; TYPE:FILL
G1 F2400 X36.599 Y35 E2547.63199
G0 F12000 X36.598 Y33.391
G1 F2400 X-3.809 Y-36.597 E2552.67183
G0 F12000 X-1.964 Y-36.597
G1 F2400 X-36.597 Y23.388 E2556.99139
G0 F12000 X-36.598 Y25
G1 F2400 X36.599 Y24.999 E2561.55615
G0 F12000 X36.598 Y23.39
G1 F2400 X1.964 Y-36.597 E2565.87585
G0 F12000 X3.809 Y-36.597
G1 F2400 X-36.597 Y33.388 E2570.91549
G0 F12000 X-36.598 Y30
G1 F2400 X36.599 Y29.999 E2575.48026
G0 F12000 X36.598 Y26.609
G1 F2400 X30.831 Y36.598 E2576.19957
G0 F12000 X32.677 Y36.598
G1 F2400 X-9.582 Y-36.597 E2581.47036
G0 F12000 X-7.738 Y-36.597
G1 F2400 X-36.597 Y13.388 E2585.0698
G0 F12000 X-36.598 Y15
G1 F2400 X36.599 Y14.999 E2589.63456
G0 F12000 X36.598 Y13.39
G1 F2400 X7.738 Y-36.597 E2593.23414
G0 F12000 X9.582 Y-36.597
G1 F2400 X-32.677 Y36.598 E2598.50493
G0 F12000 X-30.831 Y36.598
G1 F2400 X-36.598 Y26.61 E2599.22418
G1 F6000 E2596.72418
G0 F2400 X-31.598 Y35.27
G1 Z2
G0 F12000 X-36.598 Y20
G1 Z1.5
G1 F6000 E2599.22418
G1 F2400 X36.599 Y19.999 E2603.78895
G0 F12000 X36.598 Y16.609
G1 F2400 X25.057 Y36.599 E2605.22843
G0 F12000 X26.903 Y36.598
G1 F2400 X-15.356 Y-36.598 E2610.49927
G0 F12000 X-13.511 Y-36.596
G1 F2400 X-36.597 Y3.389 E2613.37862
G0 F12000 X-36.598 Y5
G1 F2400 X36.599 Y4.999 E2617.94339
G0 F12000 X36.598 Y3.39
G1 F2400 X13.511 Y-36.597 E2620.82288
G0 F12000 X15.356 Y-36.598
G1 F2400 X-26.903 Y36.598 E2626.09373
G0 F12000 X-25.058 Y36.598
G1 F2400 X-36.597 Y16.611 E2627.53298
G1 F6000 E2625.03298
G0 F2400 X-31.597 Y25.271
G1 Z2
G0 F12000 X-36.598 Y10
G1 Z1.5
G1 F6000 E2627.53298
G1 F2400 X36.599 Y9.999 E2632.09775
G0 F12000 X36.598 Y6.608
G1 F2400 X19.284 Y36.598 E2634.25731
G0 F12000 X21.13 Y36.599
G1 F2400 X-21.129 Y-36.597 E2639.52816
G0 F12000 X-19.284 Y-36.597
G1 F2400 X-36.597 Y-6.611 E2641.68748
G0 F12000 X-36.598 Y-4.999
G1 F2400 X36.599 Y-5 E2646.25224
G0 F12000 X36.598 Y-6.608
G1 F2400 X19.284 Y-36.597 E2648.41175
G0 F12000 X21.13 Y-36.598
G1 F2400 X-21.13 Y36.598 E2653.68263
G0 F12000 X-19.284 Y36.598
G1 F2400 X-36.597 Y6.611 E2655.842
G1 F6000 E2653.342
G0 F2400 X-31.597 Y15.271
G1 Z2
G0 F12000 X-36.598 Y0
G1 Z1.5
G1 F6000 E2655.842
G1 F2400 X36.599 Y0 E2660.40677
G0 F12000 X36.598 Y-3.39
G1 F2400 X13.51 Y36.598 E2663.28634
G0 F12000 X15.356 Y36.598
G1 F2400 X-26.903 Y-36.597 E2668.55713
G0 F12000 X-25.058 Y-36.597
G1 F2400 X-36.597 Y-16.611 E2669.99633
G0 F12000 X-36.598 Y-14.999
G1 F2400 X36.599 Y-15 E2674.5611
G0 F12000 X36.598 Y-16.609
G1 F2400 X25.058 Y-36.597 E2676.00044
G0 F12000 X26.903 Y-36.597
G1 F2400 X-15.356 Y36.598 E2681.27123
G0 F12000 X-13.51 Y36.598
G1 F2400 X-36.597 Y-3.388 E2684.15067
G1 F6000 E2681.65067
G0 F2400 X-31.597 Y5.272
G1 Z2
G0 F12000 X-36.598 Y-9.999
G1 Z1.5
G1 F6000 E2684.15067
G1 F2400 X36.599 Y-10 E2688.71543
G0 F12000 X36.598 Y-13.39
G1 F2400 X7.737 Y36.598 E2692.3151
G0 F12000 X9.583 Y36.598
G1 F2400 X-32.676 Y-36.597 E2697.58589
G0 F12000 X-30.832 Y-36.597
G1 F2400 X-36.597 Y-26.611 E2698.30497
G0 F12000 X-36.598 Y-24.999
G1 F2400 X36.599 Y-25 E2702.86974
G0 F12000 X36.598 Y-26.609
G1 F2400 X30.832 Y-36.597 E2703.58896
G0 F12000 X32.676 Y-36.597
G1 F2400 X-9.583 Y36.598 E2708.85975
G0 F12000 X-7.737 Y36.598
G1 F2400 X-36.597 Y-13.388 E2712.45927
G1 F6000 E2709.95927
G0 F2400 X-31.597 Y-4.728
G1 Z2
G0 F12000 X-36.598 Y-19.999
G1 Z1.5
G1 F6000 E2712.45927
G1 F2400 X36.599 Y-20 E2717.02404
G0 F12000 X36.598 Y-23.39
G1 F2400 X1.963 Y36.599 E2721.34387
G0 F12000 X3.809 Y36.598
G1 F2400 X-36.596 Y-33.387 E2726.38349
G0 F12000 X-36.598 Y-35
G1 F2400 X36.599 Y-35 E2730.94825
G0 F12000 X36.598 Y-33.39
G1 F2400 X-3.809 Y36.598 E2735.98809
G0 F12000 X-1.964 Y36.598
G1 F2400 X-36.597 Y-23.387 E2740.30765
G1 F6000 E2737.80765
G0 F2400 X-31.597 Y-14.727
G1 Z2
G0 F12000 X-36.598 Y-29.999
G1 Z1.5
G1 F6000 E2740.30765
G1 F2400 X36.599 Y-30 E2744.87242
; Layer Change GCode
; LAYER:5
G1 F6000 E2742.37242
G0 F2400 X26.599 Y-30
G1 Z2
G0 F12000 X36.599 Y-30 Z2.3
G0 X-37.348 Y37.349
G0 X-37.848 Y37.849
G0 X-37.348 Y37.349
G0 X-36.848 Y36.849
; TYPE:WALL-INNER
G1 Z1.8
G1 F6000 E2744.87242
G1 F2400 X-36.848 Y-36.848 E2749.46837
G1 X36.849 Y-36.848 E2754.06431
G1 X36.849 Y36.849 E2758.66026
G1 X-36.848 Y36.849 E2763.25621
G0 F12000 X-37.348 Y37.349
G1 F2400 X-37.348 Y-37.348 E2767.91452
G1 X37.349 Y-37.348 E2772.57283
G1 X37.349 Y37.349 E2777.23114
G1 X-37.348 Y37.349 E2781.88945
G0 F12000 X-37.848 Y37.849
; TYPE:WALL-OUTER
G1 F1800 X-37.848 Y-37.848 E2786.61013
G1 X37.849 Y-37.848 E2791.3308
G1 X37.849 Y37.849 E2796.05147
G1 X-37.848 Y37.849 E2800.77215
G0 F12000 X-37.348 Y37.349
G0 X-36.598 Y35
; TYPE:FILL
G1 F2400 X36.599 Y35 E2805.33691
G0 F12000 X36.598 Y33.391
G1 F2400 X-3.809 Y-36.597 E2810.37675
G0 F12000 X-1.964 Y-36.597
G1 F2400 X-36.597 Y23.388 E2814.69631
G0 F12000 X-36.598 Y25
G1 F2400 X36.599 Y24.999 E2819.26108
G0 F12000 X36.598 Y23.39
G1 F2400 X1.964 Y-36.597 E2823.58077
G0 F12000 X3.809 Y-36.597
G1 F2400 X-36.597 Y33.388 E2828.62042
G0 F12000 X-36.598 Y30
G1 F2400 X36.599 Y29.999 E2833.18518
G0 F12000 X36.598 Y26.609
G1 F2400 X30.831 Y36.598 E2833.90449
G0 F12000 X32.677 Y36.598
G1 F2400 X-9.582 Y-36.597 E2839.17528
G0 F12000 X-7.738 Y-36.597
G1 F2400 X-36.597 Y13.388 E2842.77472
G0 F12000 X-36.598 Y15
G1 F2400 X36.599 Y14.999 E2847.33949
G0 F12000 X36.598 Y13.39
G1 F2400 X7.738 Y-36.597 E2850.93907
G0 F12000 X9.582 Y-36.597
G1 F2400 X-32.677 Y36.598 E2856.20985
G0 F12000 X-30.831 Y36.598
G1 F2400 X-36.598 Y26.61 E2856.92911
G1 F6000 E2854.42911
G0 F2400 X-31.598 Y35.27
G1 Z2.3
G0 F12000 X-36.598 Y20
G1 Z1.8
G1 F6000 E2856.92911
G1 F2400 X36.599 Y19.999 E2861.49387
G0 F12000 X36.598 Y16.609
G1 F2400 X25.057 Y36.599 E2862.93335
G0 F12000 X26.903 Y36.598
G1 F2400 X-15.356 Y-36.598 E2868.2042
G0 F12000 X-13.511 Y-36.596
G1 F2400 X-36.597 Y3.389 E2871.08355
G0 F12000 X-36.598 Y5
G1 F2400 X36.599 Y4.999 E2875.64831
G0 F12000 X36.598 Y3.39
G1 F2400 X13.511 Y-36.597 E2878.52781
G0 F12000 X15.356 Y-36.598
G1 F2400 X-26.903 Y36.598 E2883.79865
G0 F12000 X-25.058 Y36.598
G1 F2400 X-36.597 Y16.611 E2885.2379
G1 F6000 E2882.7379
G0 F2400 X-31.597 Y25.271
G1 Z2.3
G0 F12000 X-36.598 Y10
G1 Z1.8
G1 F6000 E2885.2379
G1 F2400 X36.599 Y9.999 E2889.80267
G0 F12000 X36.598 Y6.608
G1 F2400 X19.284 Y36.598 E2891.96224
G0 F12000 X21.13 Y36.599
G1 F2400 X-21.129 Y-36.597 E2897.23308
G0 F12000 X-19.284 Y-36.597
G1 F2400 X-36.597 Y-6.611 E2899.3924
G0 F12000 X-36.598 Y-4.999
G1 F2400 X36.599 Y-5 E2903.95717
G0 F12000 X36.598 Y-6.608
G1 F2400 X19.284 Y-36.597 E2906.11668
G0 F12000 X21.13 Y-36.598
G1 F2400 X-21.13 Y36.598 E2911.38755
G0 F12000 X-19.284 Y36.598
G1 F2400 X-36.597 Y6.611 E2913.54692
G1 F6000 E2911.04692
G0 F2400 X-31.597 Y15.271
G1 Z2.3
G0 F12000 X-36.598 Y0
G1 Z1.8
G1 F6000 E2913.54692
G1 F2400 X36.599 Y0 E2918.11169
G0 F12000 X36.598 Y-3.39
G1 F2400 X13.51 Y36.598 E2920.99127
G0 F12000 X15.356 Y36.598
G1 F2400 X-26.903 Y-36.597 E2926.26206
G0 F12000 X-25.058 Y-36.597
G1 F2400 X-36.597 Y-16.611 E2927.70126
G0 F12000 X-36.598 Y-14.999
G1 F2400 X36.599 Y-15 E2932.26602
G0 F12000 X36.598 Y-16.609
G1 F2400 X25.058 Y-36.597 E2933.70536
G0 F12000 X26.903 Y-36.597
G1 F2400 X-15.356 Y36.598 E2938.97615
G0 F12000 X-13.51 Y36.598
G1 F2400 X-36.597 Y-3.388 E2941.85559
G1 F6000 E2939.35559
G0 F2400 X-31.597 Y5.272
G1 Z2.3
G0 F12000 X-36.598 Y-9.999
G1 Z1.8
G1 F6000 E2941.85559
G1 F2400 X36.599 Y-10 E2946.42036
G0 F12000 X36.598 Y-13.39
G1 F2400 X7.737 Y36.598 E2950.02002
G0 F12000 X9.583 Y36.598
G1 F2400 X-32.676 Y-36.597 E2955.29081
G0 F12000 X-30.832 Y-36.597
G1 F2400 X-36.597 Y-26.611 E2956.00989
G0 F12000 X-36.598 Y-24.999
G1 F2400 X36.599 Y-25 E2960.57466
G0 F12000 X36.598 Y-26.609
G1 F2400 X30.832 Y-36.597 E2961.29388
G0 F12000 X32.676 Y-36.597
G1 F2400 X-9.583 Y36.598 E2966.56467
G0 F12000 X-7.737 Y36.598
G1 F2400 X-36.597 Y-13.388 E2970.16419
G1 F6000 E2967.66419
G0 F2400 X-31.597 Y-4.728
G1 Z2.3
G0 F12000 X-36.598 Y-19.999
G1 Z1.8
G1 F6000 E2970.16419
G1 F2400 X36.599 Y-20 E2974.72896
G0 F12000 X36.598 Y-23.39
G1 F2400 X1.963 Y36.599 E2979.0488
G0 F12000 X3.809 Y36.598
G1 F2400 X-36.596 Y-33.387 E2984.08841
G0 F12000 X-36.598 Y-35
G1 F2400 X36.599 Y-35 E2988.65318
G0 F12000 X36.598 Y-33.39
G1 F2400 X-3.809 Y36.598 E2993.69302
G0 F12000 X-1.964 Y36.598
G1 F2400 X-36.597 Y-23.387 E2998.01258
G1 F6000 E2995.51258
G0 F2400 X-31.597 Y-14.727
G1 Z2.3
G0 F12000 X-36.598 Y-29.999
G1 Z1.8
G1 F6000 E2998.01258
G1 F2400 X36.599 Y-30 E3002.57734
; Layer Change GCode
; LAYER:6
G1 F6000 E3000.07734
G0 F2400 X26.599 Y-30
G1 Z2.3
G0 F12000 X36.599 Y-30 Z2.6
G0 X-37.348 Y37.349
G0 X-37.848 Y37.849
G0 X-37.348 Y37.349
G0 X-36.848 Y36.849
; TYPE:WALL-INNER
G1 Z2.1
G1 F6000 E3002.57734
G1 F2400 X-36.848 Y-36.848 E3007.17329
G1 X36.849 Y-36.848 E3011.76924
G1 X36.849 Y36.849 E3016.36519
G1 X-36.848 Y36.849 E3020.96113
G0 F12000 X-37.348 Y37.349
G1 F2400 X-37.348 Y-37.348 E3025.61944
G1 X37.349 Y-37.348 E3030.27775
G1 X37.349 Y37.349 E3034.93606
G1 X-37.348 Y37.349 E3039.59438
G0 F12000 X-37.848 Y37.849
; TYPE:WALL-OUTER
G1 F1800 X-37.848 Y-37.848 E3044.31505
G1 X37.849 Y-37.848 E3049.03572
G1 X37.849 Y37.849 E3053.7564
G1 X-37.848 Y37.849 E3058.47707
G0 F12000 X-37.348 Y37.349
G0 X-36.598 Y35
; TYPE:FILL
G1 F2400 X36.599 Y35 E3063.04184
G0 F12000 X36.598 Y33.391
G1 F2400 X-3.809 Y-36.597 E3068.08167
G0 F12000 X-1.964 Y-36.597
G1 F2400 X-36.597 Y23.388 E3072.40123
G0 F12000 X-36.598 Y25
G1 F2400 X36.599 Y24.999 E3076.966
G0 F12000 X36.598 Y23.39
G1 F2400 X1.964 Y-36.597 E3081.2857
G0 F12000 X3.809 Y-36.597
G1 F2400 X-36.597 Y33.388 E3086.32534
G0 F12000 X-36.598 Y30
G1 F2400 X36.599 Y29.999 E3090.89011
G0 F12000 X36.598 Y26.609
G1 F2400 X30.831 Y36.598 E3091.60941
G0 F12000 X32.677 Y36.598
G1 F2400 X-9.582 Y-36.597 E3096.8802
G0 F12000 X-7.738 Y-36.597
G1 F2400 X-36.597 Y13.388 E3100.47964
G0 F12000 X-36.598 Y15
G1 F2400 X36.599 Y14.999 E3105.04441
G0 F12000 X36.598 Y13.39
G1 F2400 X7.738 Y-36.597 E3108.64399
G0 F12000 X9.582 Y-36.597
G1 F2400 X-32.677 Y36.598 E3113.91478
G0 F12000 X-30.831 Y36.598
G1 F2400 X-36.598 Y26.61 E3114.63403
G1 F6000 E3112.13403
G0 F2400 X-31.598 Y35.27
G1 Z2.6
G0 F12000 X-36.598 Y20
G1 Z2.1
G1 F6000 E3114.63403
G1 F2400 X36.599 Y19.999 E3119.1988
G0 F12000 X36.598 Y16.609
G1 F2400 X25.057 Y36.599 E3120.63828
G0 F12000 X26.903 Y36.598
G1 F2400 X-15.356 Y-36.598 E3125.90912
G0 F12000 X-13.511 Y-36.596
G1 F2400 X-36.597 Y3.389 E3128.78847
G0 F12000 X-36.598 Y5
G1 F2400 X36.599 Y4.999 E3133.35324
G0 F12000 X36.598 Y3.39
G1 F2400 X13.511 Y-36.597 E3136.23273
G0 F12000 X15.356 Y-36.598
G1 F2400 X-26.903 Y36.598 E3141.50357
G0 F12000 X-25.058 Y36.598
G1 F2400 X-36.597 Y16.611 E3142.94283
G1 F6000 E3140.44283
G0 F2400 X-31.597 Y25.271
G1 Z2.6
G0 F12000 X-36.598 Y10
G1 Z2.1
G1 F6000 E3142.94283
G1 F2400 X36.599 Y9.999 E3147.50759
G0 F12000 X36.598 Y6.608
G1 F2400 X19.284 Y36.598 E3149.66716
G0 F12000 X21.13 Y36.599
G1 F2400 X-21.129 Y-36.597 E3154.938
G0 F12000 X-19.284 Y-36.597
G1 F2400 X-36.597 Y-6.611 E3157.09732
G0 F12000 X-36.598 Y-4.999
G1 F2400 X36.599 Y-5 E3161.66209
G0 F12000 X36.598 Y-6.608
G1 F2400 X19.284 Y-36.597 E3163.8216
G0 F12000 X21.13 Y-36.598
G1 F2400 X-21.13 Y36.598 E3169.09248
G0 F12000 X-19.284 Y36.598
G1 F2400 X-36.597 Y6.611 E3171.25185
G1 F6000 E3168.75185
G0 F2400 X-31.597 Y15.271
G1 Z2.6
G0 F12000 X-36.598 Y0
G1 Z2.1
G1 F6000 E3171.25185
G1 F2400 X36.599 Y0 E3175.81661
G0 F12000 X36.598 Y-3.39
G1 F2400 X13.51 Y36.598 E3178.69619
G0 F12000 X15.356 Y36.598
G1 F2400 X-26.903 Y-36.597 E3183.96698
G0 F12000 X-25.058 Y-36.597
G1 F2400 X-36.597 Y-16.611 E3185.40618
G0 F12000 X-36.598 Y-14.999
G1 F2400 X36.599 Y-15 E3189.97095
G0 F12000 X36.598 Y-16.609
G1 F2400 X25.058 Y-36.597 E3191.41029
G0 F12000 X26.903 Y-36.597
G1 F2400 X-15.356 Y36.598 E3196.68108
G0 F12000 X-13.51 Y36.598
G1 F2400 X-36.597 Y-3.388 E3199.56051
G1 F6000 E3197.06051
G0 F2400 X-31.597 Y5.272
G1 Z2.6
G0 F12000 X-36.598 Y-9.999
G1 Z2.1
G1 F6000 E3199.56051
G1 F2400 X36.599 Y-10 E3204.12528
G0 F12000 X36.598 Y-13.39
G1 F2400 X7.737 Y36.598 E3207.72494
G0 F12000 X9.583 Y36.598
G1 F2400 X-32.676 Y-36.597 E3212.99573
G0 F12000 X-30.832 Y-36.597
G1 F2400 X-36.597 Y-26.611 E3213.71482
G0 F12000 X-36.598 Y-24.999
G1 F2400 X36.599 Y-25 E3218.27958
G0 F12000 X36.598 Y-26.609
G1 F2400 X30.832 Y-36.597 E3218.9988
G0 F12000 X32.676 Y-36.597
G1 F2400 X-9.583 Y36.598 E3224.26959
G0 F12000 X-7.737 Y36.598
G1 F2400 X-36.597 Y-13.388 E3227.86912
G1 F6000 E3225.36912
G0 F2400 X-31.597 Y-4.728
G1 Z2.6
G0 F12000 X-36.598 Y-19.999
G1 Z2.1
G1 F6000 E3227.86912
G1 F2400 X36.599 Y-20 E3232.43388
G0 F12000 X36.598 Y-23.39
G1 F2400 X1.963 Y36.599 E3236.75372
G0 F12000 X3.809 Y36.598
G1 F2400 X-36.596 Y-33.387 E3241.79334
G0 F12000 X-36.598 Y-35
G1 F2400 X36.599 Y-35 E3246.3581
G0 F12000 X36.598 Y-33.39
G1 F2400 X-3.809 Y36.598 E3251.39794
G0 F12000 X-1.964 Y36.598
G1 F2400 X-36.597 Y-23.387 E3255.7175
G1 F6000 E3253.2175
G0 F2400 X-31.597 Y-14.727
G1 Z2.6
G0 F12000 X-36.598 Y-29.999
G1 Z2.1
G1 F6000 E3255.7175
G1 F2400 X36.599 Y-30 E3260.28227
; Layer Change GCode
; LAYER:7
G1 F6000 E3257.78227
G0 F2400 X26.599 Y-30
G1 Z2.6
G0 F12000 X36.599 Y-30 Z2.9
G0 X-37.348 Y37.349
G0 X-37.848 Y37.849
G0 X-37.348 Y37.349
G0 X-36.848 Y36.849
; TYPE:WALL-INNER
G1 Z2.4
G1 F6000 E3260.28227
G1 F2400 X-36.848 Y-36.848 E3264.87821
G1 X36.849 Y-36.848 E3269.47416
G1 X36.849 Y36.849 E3274.07011
G1 X-36.848 Y36.849 E3278.66606
G0 F12000 X-37.348 Y37.349
G1 F2400 X-37.348 Y-37.348 E3283.32437
G1 X37.349 Y-37.348 E3287.98268
G1 X37.349 Y37.349 E3292.64099
G1 X-37.348 Y37.349 E3297.2993
G0 F12000 X-37.848 Y37.849
; TYPE:WALL-OUTER
G1 F1800 X-37.848 Y-37.848 E3302.01997
G1 X37.849 Y-37.848 E3306.74065
G1 X37.849 Y37.849 E3311.46132
G1 X-37.848 Y37.849 E3316.18199
G0 F12000 X-37.348 Y37.349
G0 X-36.598 Y35
; TYPE:FILL
G1 F2400 X36.599 Y35 E3320.74676
G0 F12000 X36.598 Y33.391
G1 F2400 X-3.809 Y-36.597 E3325.7866
G0 F12000 X-1.964 Y-36.597
G1 F2400 X-36.597 Y23.388 E3330.10616
G0 F12000 X-36.598 Y25
G1 F2400 X36.599 Y24.999 E3334.67092
G0 F12000 X36.598 Y23.39
G1 F2400 X1.964 Y-36.597 E3338.99062
G0 F12000 X3.809 Y-36.597
G1 F2400 X-36.597 Y33.388 E3344.03027
G0 F12000 X-36.598 Y30
G1 F2400 X36.599 Y29.999 E3348.59503
G0 F12000 X36.598 Y26.609
G1 F2400 X30.831 Y36.598 E3349.31434
G0 F12000 X32.677 Y36.598
G1 F2400 X-9.582 Y-36.597 E3354.58513
G0 F12000 X-7.738 Y-36.597
G1 F2400 X-36.597 Y13.388 E3358.18457
G0 F12000 X-36.598 Y15
G1 F2400 X36.599 Y14.999 E3362.74933
G0 F12000 X36.598 Y13.39
G1 F2400 X7.738 Y-36.597 E3366.34891
G0 F12000 X9.582 Y-36.597
G1 F2400 X-32.677 Y36.598 E3371.6197
G0 F12000 X-30.831 Y36.598
G1 F2400 X-36.598 Y26.61 E3372.33895
G1 F6000 E3369.83895
G0 F2400 X-31.598 Y35.27
G1 Z2.9
G0 F12000 X-36.598 Y20
G1 Z2.4
G1 F6000 E3372.33895
G1 F2400 X36.599 Y19.999 E3376.90372
G0 F12000 X36.598 Y16.609
G1 F2400 X25.057 Y36.599 E3378.3432
G0 F12000 X26.903 Y36.598
G1 F2400 X-15.356 Y-36.598 E3383.61404
G0 F12000 X-13.511 Y-36.596
G1 F2400 X-36.597 Y3.389 E3386.49339
G0 F12000 X-36.598 Y5
G1 F2400 X36.599 Y4.999 E3391.05816
G0 F12000 X36.598 Y3.39
G1 F2400 X13.511 Y-36.597 E3393.93765
G0 F12000 X15.356 Y-36.598
G1 F2400 X-26.903 Y36.598 E3399.2085
G0 F12000 X-25.058 Y36.598
G1 F2400 X-36.597 Y16.611 E3400.64775
G1 F6000 E3398.14775
G0 F2400 X-31.597 Y25.271
G1 Z2.9
G0 F12000 X-36.598 Y10
G1 Z2.4
G1 F6000 E3400.64775
G1 F2400 X36.599 Y9.999 E3405.21252
G0 F12000 X36.598 Y6.608
G1 F2400 X19.284 Y36.598 E3407.37208
G0 F12000 X21.13 Y36.599
G1 F2400 X-21.129 Y-36.597 E3412.64293
G0 F12000 X-19.284 Y-36.597
G1 F2400 X-36.597 Y-6.611 E3414.80225
G0 F12000 X-36.598 Y-4.999
G1 F2400 X36.599 Y-5 E3419.36701
G0 F12000 X36.598 Y-6.608
G1 F2400 X19.284 Y-36.597 E3421.52652
G0 F12000 X21.13 Y-36.598
G1 F2400 X-21.13 Y36.598 E3426.7974
G0 F12000 X-19.284 Y36.598
G1 F2400 X-36.597 Y6.611 E3428.95677
G1 F6000 E3426.45677
G0 F2400 X-31.597 Y15.271
G1 Z2.9
G0 F12000 X-36.598 Y0
G1 Z2.4
G1 F6000 E3428.95677
G1 F2400 X36.599 Y0 E3433.52154
G0 F12000 X36.598 Y-3.39
G1 F2400 X13.51 Y36.598 E3436.40111
G0 F12000 X15.356 Y36.598
G1 F2400 X-26.903 Y-36.597 E3441.6719
G0 F12000 X-25.058 Y-36.597
G1 F2400 X-36.597 Y-16.611 E3443.1111
G0 F12000 X-36.598 Y-14.999
G1 F2400 X36.599 Y-15 E3447.67587
G0 F12000 X36.598 Y-16.609
G1 F2400 X25.058 Y-36.597 E3449.11521
G0 F12000 X26.903 Y-36.597
G1 F2400 X-15.356 Y36.598 E3454.386
G0 F12000 X-13.51 Y36.598
G1 F2400 X-36.597 Y-3.388 E3457.26544
G1 F6000 E3454.76544
G0 F2400 X-31.597 Y5.272
G1 Z2.9
G0 F12000 X-36.598 Y-9.999
G1 Z2.4
G1 F6000 E3457.26544
G1 F2400 X36.599 Y-10 E3461.8302
G0 F12000 X36.598 Y-13.39
G1 F2400 X7.737 Y36.598 E3465.42987
G0 F12000 X9.583 Y36.598
G1 F2400 X-32.676 Y-36.597 E3470.70066
G0 F12000 X-30.832 Y-36.597
G1 F2400 X-36.597 Y-26.611 E3471.41974
G0 F12000 X-36.598 Y-24.999
G1 F2400 X36.599 Y-25 E3475.98451
G0 F12000 X36.598 Y-26.609
G1 F2400 X30.832 Y-36.597 E3476.70373
G0 F12000 X32.676 Y-36.597
G1 F2400 X-9.583 Y36.598 E3481.97452
G0 F12000 X-7.737 Y36.598
G1 F2400 X-36.597 Y-13.388 E3485.57404
G1 F6000 E3483.07404
G0 F2400 X-31.597 Y-4.728
G1 Z2.9
G0 F12000 X-36.598 Y-19.999
G1 Z2.4
G1 F6000 E3485.57404
G1 F2400 X36.599 Y-20 E3490.13881
G0 F12000 X36.598 Y-23.39
G1 F2400 X1.963 Y36.599 E3494.45864
G0 F12000 X3.809 Y36.598
G1 F2400 X-36.596 Y-33.387 E3499.49826
G0 F12000 X-36.598 Y-35
G1 F2400 X36.599 Y-35 E3504.06303
G0 F12000 X36.598 Y-33.39
G1 F2400 X-3.809 Y36.598 E3509.10286
G0 F12000 X-1.964 Y36.598
G1 F2400 X-36.597 Y-23.387 E3513.42242
G1 F6000 E3510.92242
G0 F2400 X-31.597 Y-14.727
G1 Z2.9
G0 F12000 X-36.598 Y-29.999
G1 Z2.4
G1 F6000 E3513.42242
G1 F2400 X36.599 Y-30 E3517.98719
; Layer Change GCode
; LAYER:8
G1 F6000 E3515.48719
G0 F2400 X26.599 Y-30
G1 Z2.9
G0 F12000 X36.599 Y-30 Z3.2
G0 X-37.348 Y37.349
G0 X-37.848 Y37.849
G0 X-37.348 Y37.349
G0 X-36.848 Y36.849
; TYPE:WALL-INNER
G1 Z2.7
G1 F6000 E3517.98719
G1 F2400 X-36.848 Y-36.848 E3522.58314
G1 X36.849 Y-36.848 E3527.17908
G1 X36.849 Y36.849 E3531.77503
G1 X-36.848 Y36.849 E3536.37098
G0 F12000 X-37.348 Y37.349
G1 F2400 X-37.348 Y-37.348 E3541.02929
G1 X37.349 Y-37.348 E3545.6876
G1 X37.349 Y37.349 E3550.34591
G1 X-37.348 Y37.349 E3555.00422
G0 F12000 X-37.848 Y37.849
; TYPE:WALL-OUTER
G1 F1800 X-37.848 Y-37.848 E3559.7249
G1 X37.849 Y-37.848 E3564.44557
G1 X37.849 Y37.849 E3569.16624
G1 X-37.848 Y37.849 E3573.88692
G0 F12000 X-37.348 Y37.349
G0 X-36.598 Y35
; TYPE:FILL
G1 F2400 X-35.789 Y35 E3573.93737
G1 X35.79 Y35 E3578.40123
G1 X36.599 Y35 E3578.45168
G0 F12000 X35.79 Y35.5
G1 F2400 X-35.789 Y35.5 E3582.91555
G0 F12000 X-35.789 Y34.5
G1 F2400 X35.79 Y34.5 E3587.37941
G0 F12000 X35.79 Y34
G1 F2400 X-35.789 Y34 E3591.84327
G0 F12000 X-35.789 Y33.5
G1 F2400 X35.79 Y33.5 E3596.30714
G0 F12000 X35.79 Y33
G1 F2400 X-35.789 Y33 E3600.771
G0 F12000 X-35.789 Y32.5
G1 F2400 X35.79 Y32.499 E3605.23486
G0 F12000 X35.79 Y31.999
G1 F2400 X-35.789 Y32 E3609.69873
G0 F12000 X-35.788 Y31.987
G1 F2400 X-36.597 Y33.388 E3609.79962
G0 F12000 X-35.789 Y31.5
G1 F2400 X35.79 Y31.499 E3614.26348
G0 F12000 X35.789 Y31.989
G1 F2400 X36.598 Y33.391 E3614.36443
G0 F12000 X35.79 Y30.999
G1 F2400 X-35.789 Y31 E3618.82829
G0 F12000 X-35.789 Y30.5
G1 F2400 X35.79 Y30.499 E3623.29215
G0 F12000 X35.79 Y29.999
G1 F2400 X-35.789 Y30 E3627.75602
G1 X-36.598 Y30 E3627.80647
G0 F12000 X-35.789 Y29.5
G1 F2400 X35.79 Y29.499 E3632.27033
G0 F12000 X35.79 Y28.999
G1 F2400 X-35.789 Y29 E3636.73419
G0 F12000 X-35.789 Y28.5
G1 F2400 X35.79 Y28.499 E3641.19806
G0 F12000 X35.79 Y28.009
G1 F2400 X36.598 Y26.609 E3641.29886
G0 F12000 X35.79 Y26.499
G1 F2400 X-35.789 Y26.5 E3645.76273
G0 F12000 X-35.789 Y26
G1 F2400 X35.79 Y25.999 E3650.22659
G0 F12000 X35.79 Y25.499
G1 F2400 X-35.789 Y25.5 E3654.69045
G0 F12000 X-35.789 Y25
G1 F2400 X-36.598 Y25 E3654.74091
G0 F12000 X-35.789 Y25
G1 F2400 X35.79 Y24.999 E3659.20477
G1 X36.599 Y24.999 E3659.25522
G0 F12000 X35.79 Y24.499
G1 F2400 X-35.789 Y24.5 E3663.71908
G0 F12000 X-35.789 Y24
G1 F2400 X35.79 Y23.999 E3668.18295
G0 F12000 X35.79 Y23.499
G1 F2400 X-35.789 Y23.5 E3672.64681
G0 F12000 X-35.789 Y23
G1 F2400 X35.79 Y22.999 E3677.11067
G0 F12000 X35.79 Y22.499
G1 F2400 X-35.789 Y22.5 E3681.57454
G0 F12000 X-35.789 Y22
G1 F2400 X35.79 Y21.999 E3686.0384
G0 F12000 X35.79 Y21.99
G1 F2400 X36.598 Y23.39 E3686.13921
G0 F12000 X35.79 Y21.499
G1 F2400 X-35.789 Y21.5 E3690.60307
G0 F12000 X-35.788 Y21.987
G1 F2400 X-36.597 Y23.388 E3690.70396
G0 F12000 X-35.789 Y21
G1 F2400 X35.79 Y20.999 E3695.16782
G0 F12000 X35.79 Y20.499
G1 F2400 X-35.789 Y20.5 E3699.63169
G0 F12000 X-35.789 Y20
G1 F2400 X-36.598 Y20 E3699.68214
G0 F12000 X-35.789 Y20
G1 F2400 X35.79 Y19.999 E3704.146
G1 X36.599 Y19.999 E3704.19645
G0 F12000 X35.79 Y19.499
G1 F2400 X-35.789 Y19.5 E3708.66032
G0 F12000 X-35.789 Y19
G1 F2400 X35.79 Y18.999 E3713.12418
G0 F12000 X35.79 Y18.499
G1 F2400 X-35.789 Y18.5 E3717.58804
G0 F12000 X-35.789 Y18.011
G1 F2400 X-36.597 Y16.611 E3717.68885
G0 F12000 X-35.789 Y16.5
G1 F2400 X35.79 Y16.499 E3722.15271
G0 F12000 X35.79 Y16.999
G1 F2400 X-35.789 Y17 E3726.61658
G0 F12000 X-35.789 Y17.5
G1 F2400 X35.79 Y17.499 E3731.08044
G0 F12000 X35.79 Y17.999
G1 F2400 X-35.789 Y18 E3735.5443
G0 F12000 X-35.789 Y16
G1 F2400 X35.79 Y15.999 E3740.00817
G0 F12000 X35.79 Y15.499
G1 F2400 X-35.789 Y15.5 E3744.47203
G0 F12000 X-35.789 Y15
G1 F2400 X-36.598 Y15 E3744.52248
G0 F12000 X-35.789 Y15
G1 F2400 X35.79 Y14.999 E3748.98635
G1 X36.599 Y14.999 E3749.0368
G0 F12000 X35.79 Y14.499
G1 F2400 X-35.789 Y14.5 E3753.50066
G0 F12000 X-35.789 Y14
G1 F2400 X35.79 Y13.999 E3757.96452
G0 F12000 X35.79 Y13.499
G1 F2400 X-35.789 Y13.5 E3762.42839
G0 F12000 X-35.789 Y13
G1 F2400 X35.79 Y12.999 E3766.89225
G0 F12000 X35.79 Y12.499
G1 F2400 X-35.789 Y12.5 E3771.35612
G0 F12000 X-35.789 Y12
G1 F2400 X35.79 Y11.999 E3775.81998
G0 F12000 X35.789 Y11.989
G1 F2400 X36.598 Y13.39 E3775.92087
G0 F12000 X35.79 Y11.499
G1 F2400 X-35.789 Y11.5 E3780.38473
G0 F12000 X-35.788 Y11.987
G1 F2400 X-36.597 Y13.388 E3780.48562
G0 F12000 X-35.789 Y11
G1 F2400 X35.79 Y10.999 E3784.94949
G0 F12000 X35.79 Y10.499
G1 F2400 X-35.789 Y10.5 E3789.41335
G0 F12000 X-35.789 Y10
G1 F2400 X-36.598 Y10 E3789.4638
G0 F12000 X-35.789 Y10
G1 F2400 X35.79 Y9.999 E3793.92767
G1 X36.599 Y9.999 E3793.97812
G0 F12000 X35.79 Y9.499
G1 F2400 X-35.789 Y9.5 E3798.44198
G0 F12000 X-35.789 Y9
G1 F2400 X35.79 Y8.999 E3802.90584
G0 F12000 X35.79 Y8.499
G1 F2400 X-35.789 Y8.5 E3807.36971
G0 F12000 X-35.788 Y8.011
G1 F2400 X-36.597 Y6.611 E3807.47054
G0 F12000 X-35.789 Y6.5
G1 F2400 X35.79 Y6.499 E3811.93441
G0 F12000 X35.79 Y6.999
G1 F2400 X-35.789 Y7 E3816.39827
G0 F12000 X-35.789 Y7.5
G1 F2400 X35.79 Y7.499 E3820.86213
G0 F12000 X35.79 Y7.999
G1 F2400 X-35.789 Y8 E3825.326
G0 F12000 X-35.789 Y6
G1 F2400 X35.79 Y5.999 E3829.78986
G0 F12000 X35.79 Y5.499
G1 F2400 X-35.789 Y5.5 E3834.25372
G0 F12000 X-35.789 Y5
G1 F2400 X-36.598 Y5 E3834.30418
G0 F12000 X-35.789 Y5
G1 F2400 X35.79 Y4.999 E3838.76804
G1 X36.599 Y4.999 E3838.81849
G0 F12000 X35.79 Y4.499
G1 F2400 X-35.789 Y4.5 E3843.28235
G0 F12000 X-35.789 Y4
G1 F2400 X35.79 Y3.999 E3847.74622
G0 F12000 X35.79 Y3.499
G1 F2400 X-35.789 Y3.5 E3852.21008
G0 F12000 X-35.789 Y3
G1 F2400 X35.79 Y2.999 E3856.67395
G0 F12000 X35.79 Y2.499
G1 F2400 X-35.789 Y2.5 E3861.13781
G0 F12000 X-35.789 Y2
G1 F2400 X35.79 Y1.999 E3865.60167
G0 F12000 X35.789 Y1.989
G1 F2400 X36.598 Y3.39 E3865.70256
G0 F12000 X35.79 Y1.499
G1 F2400 X-35.789 Y1.5 E3870.16643
G0 F12000 X-35.788 Y1.987
G1 F2400 X-36.597 Y3.389 E3870.26737
G0 F12000 X-35.789 Y1
G1 F2400 X35.79 Y0.999 E3874.73123
G0 F12000 X35.79 Y0.499
G1 F2400 X-35.789 Y0.5 E3879.1951
G0 F12000 X-35.789 Y0
G1 F2400 X-36.598 Y0 E3879.24555
G0 F12000 X-35.789 Y0
G1 F2400 X35.79 Y0 E3883.70941
G1 X36.599 Y0 E3883.75986
G0 F12000 X35.79 Y-0.5
G1 F2400 X-35.789 Y-0.499 E3888.22373
G0 F12000 X-35.789 Y-0.999
G1 F2400 X35.79 Y-1 E3892.68759
G0 F12000 X35.79 Y-1.5
G1 F2400 X-35.789 Y-1.499 E3897.15146
G0 F12000 X-35.788 Y-1.987
G1 F2400 X-36.597 Y-3.388 E3897.25235
G0 F12000 X-35.789 Y-3.499
G1 F2400 X35.79 Y-3.5 E3901.71621
G0 F12000 X35.79 Y-3
G1 F2400 X-35.789 Y-2.999 E3906.18007
G0 F12000 X-35.789 Y-2.499
G1 F2400 X35.79 Y-2.5 E3910.64394
G0 F12000 X35.79 Y-2
G1 F2400 X-35.789 Y-1.999 E3915.1078
G0 F12000 X-35.789 Y-3.999
G1 F2400 X35.79 Y-4 E3919.57166
G0 F12000 X35.79 Y-4.5
G1 F2400 X-35.789 Y-4.499 E3924.03553
G0 F12000 X-35.789 Y-4.999
G1 F2400 X-36.598 Y-4.999 E3924.08598
G0 F12000 X-35.789 Y-4.999
G1 F2400 X35.79 Y-5 E3928.54984
G1 X36.599 Y-5 E3928.60029
G0 F12000 X35.79 Y-5.5
G1 F2400 X-35.789 Y-5.499 E3933.06416
G0 F12000 X-35.789 Y-5.999
G1 F2400 X35.79 Y-6 E3937.52802
G0 F12000 X35.79 Y-6.5
G1 F2400 X-35.789 Y-6.499 E3941.99188
G0 F12000 X-35.789 Y-6.999
G1 F2400 X35.79 Y-7 E3946.45575
G0 F12000 X35.79 Y-7.5
G1 F2400 X-35.789 Y-7.499 E3950.91961
G0 F12000 X-35.789 Y-7.999
G1 F2400 X35.79 Y-8 E3955.38347
G0 F12000 X35.789 Y-8.01
G1 F2400 X36.598 Y-6.608 E3955.48442
G0 F12000 X35.79 Y-8.5
G1 F2400 X-35.789 Y-8.499 E3959.94828
G0 F12000 X-35.788 Y-8.011
G1 F2400 X-36.597 Y-6.611 E3960.04912
G0 F12000 X-35.789 Y-8.999
G1 F2400 X35.79 Y-9 E3964.51298
G0 F12000 X35.79 Y-9.5
G1 F2400 X-35.789 Y-9.499 E3968.97685
G0 F12000 X-35.789 Y-9.999
G1 F2400 X-36.598 Y-9.999 E3969.0273
G0 F12000 X-35.789 Y-9.999
G1 F2400 X35.79 Y-10 E3973.49116
G1 X36.599 Y-10 E3973.54161
G0 F12000 X35.79 Y-10.5
G1 F2400 X-35.789 Y-10.499 E3978.00548
G0 F12000 X-35.789 Y-10.999
G1 F2400 X35.79 Y-11 E3982.46934
G0 F12000 X35.79 Y-11.5
G1 F2400 X-35.789 Y-11.499 E3986.9332
G0 F12000 X-35.788 Y-11.987
G1 F2400 X-36.597 Y-13.388 E3987.03409
G0 F12000 X-35.789 Y-13.499
G1 F2400 X35.79 Y-13.5 E3991.49796
G0 F12000 X35.79 Y-13
G1 F2400 X-35.789 Y-12.999 E3995.96182
G0 F12000 X-35.789 Y-12.499
G1 F2400 X35.79 Y-12.5 E4000.42568
G0 F12000 X35.79 Y-12
G1 F2400 X-35.789 Y-11.999 E4004.88955
G0 F12000 X-35.789 Y-13.999
G1 F2400 X35.79 Y-14 E4009.35341
G0 F12000 X35.79 Y-14.5
G1 F2400 X-35.789 Y-14.499 E4013.81727
G0 F12000 X-35.789 Y-14.999
G1 F2400 X-36.598 Y-14.999 E4013.86773
G0 F12000 X-35.789 Y-14.999
G1 F2400 X35.79 Y-15 E4018.33159
G1 X36.599 Y-15 E4018.38204
G0 F12000 X35.79 Y-15.5
G1 F2400 X-35.789 Y-15.499 E4022.8459
G0 F12000 X-35.789 Y-15.999
G1 F2400 X35.79 Y-16 E4027.30977
G0 F12000 X35.79 Y-16.5
G1 F2400 X-35.789 Y-16.499 E4031.77363
G0 F12000 X-35.789 Y-16.999
G1 F2400 X35.79 Y-17 E4036.2375
G0 F12000 X35.79 Y-17.5
G1 F2400 X-35.789 Y-17.499 E4040.70136
G0 F12000 X-35.789 Y-17.999
G1 F2400 X35.79 Y-18 E4045.16522
G0 F12000 X35.789 Y-18.01
G1 F2400 X36.598 Y-16.609 E4045.26611
G0 F12000 X35.79 Y-18.5
G1 F2400 X-35.789 Y-18.499 E4049.72998
G0 F12000 X-35.788 Y-18.012
G1 F2400 X-36.597 Y-16.611 E4049.83087
G0 F12000 X-35.789 Y-18.999
G1 F2400 X35.79 Y-19 E4054.29473
G0 F12000 X35.79 Y-19.5
G1 F2400 X-35.789 Y-19.499 E4058.75859
G0 F12000 X-35.789 Y-19.999
G1 F2400 X-36.598 Y-19.999 E4058.80905
G0 F12000 X-35.789 Y-19.999
G1 F2400 X35.79 Y-20 E4063.27291
G1 X36.599 Y-20 E4063.32336
G0 F12000 X35.79 Y-20.5
G1 F2400 X-35.789 Y-20.499 E4067.78722
G0 F12000 X-35.789 Y-20.999
G1 F2400 X35.79 Y-21 E4072.25109
G0 F12000 X35.79 Y-21.5
G1 F2400 X-35.789 Y-21.499 E4076.71495
G0 F12000 X-35.788 Y-21.987
G1 F2400 X-36.597 Y-23.387 E4076.81579
G0 F12000 X-35.789 Y-23.499
G1 F2400 X35.79 Y-23.5 E4081.27965
G0 F12000 X35.79 Y-23
G1 F2400 X-35.789 Y-22.999 E4085.74351
G0 F12000 X-35.789 Y-22.499
G1 F2400 X35.79 Y-22.5 E4090.20738
G0 F12000 X35.79 Y-22
G1 F2400 X-35.789 Y-21.999 E4094.67124
G0 F12000 X-35.789 Y-23.999
G1 F2400 X35.79 Y-24 E4099.1351
G0 F12000 X35.79 Y-24.5
G1 F2400 X-35.789 Y-24.499 E4103.59897
G0 F12000 X-35.789 Y-24.999
G1 F2400 X-36.598 Y-24.999 E4103.64942
G0 F12000 X-35.789 Y-24.999
G1 F2400 X35.79 Y-25 E4108.11328
G1 X36.599 Y-25 E4108.16373
G0 F12000 X35.79 Y-25.5
G1 F2400 X-35.789 Y-25.499 E4112.6276
G0 F12000 X-35.789 Y-25.999
G1 F2400 X35.79 Y-26 E4117.09146
G0 F12000 X35.79 Y-26.5
G1 F2400 X-35.789 Y-26.499 E4121.55533
G0 F12000 X-35.789 Y-26.999
G1 F2400 X35.79 Y-27 E4126.01919
G0 F12000 X35.79 Y-27.5
G1 F2400 X-35.789 Y-27.499 E4130.48305
G0 F12000 X-35.789 Y-27.999
G1 F2400 X35.79 Y-28 E4134.94692
G0 F12000 X35.789 Y-28.01
G1 F2400 X36.598 Y-26.609 E4135.04781
G0 F12000 X35.79 Y-28.5
G1 F2400 X-35.789 Y-28.499 E4139.51167
G0 F12000 X-35.788 Y-28.012
G1 F2400 X-36.597 Y-26.611 E4139.61256
G0 F12000 X-35.789 Y-28.999
G1 F2400 X35.79 Y-29 E4144.07642
G0 F12000 X35.79 Y-29.5
G1 F2400 X-35.789 Y-29.499 E4148.54029
G0 F12000 X-35.789 Y-29.999
G1 F2400 X-36.598 Y-29.999 E4148.59074
G0 F12000 X-35.789 Y-29.999
G1 F2400 X35.79 Y-30 E4153.0546
G1 X36.599 Y-30 E4153.10505
G0 F12000 X35.79 Y-30.5
G1 F2400 X-35.789 Y-30.499 E4157.56892
G0 F12000 X-35.789 Y-30.999
G1 F2400 X35.79 Y-31 E4162.03278
G0 F12000 X35.79 Y-31.5
G1 F2400 X-35.789 Y-31.499 E4166.49664
G0 F12000 X-35.787 Y-31.986
G1 F2400 X-36.596 Y-33.387 E4166.59754
G0 F12000 X-35.789 Y-33.5
G1 F2400 X35.79 Y-33.5 E4171.0614
G0 F12000 X35.79 Y-33
G1 F2400 X-35.789 Y-33 E4175.52526
G0 F12000 X-35.789 Y-32.499
G1 F2400 X35.79 Y-32.5 E4179.98913
G0 F12000 X35.79 Y-32
G1 F2400 X-35.789 Y-31.999 E4184.45299
G0 F12000 X-35.789 Y-34
G1 F2400 X35.79 Y-34 E4188.91685
G0 F12000 X35.79 Y-34.5
G1 F2400 X-35.789 Y-34.5 E4193.38072
G0 F12000 X-35.789 Y-35
G1 F2400 X-36.598 Y-35 E4193.43117
G0 F12000 X-35.789 Y-35
G1 F2400 X35.79 Y-35 E4197.89503
G1 X36.599 Y-35 E4197.94548
G0 F12000 X35.79 Y-35.5
G1 F2400 X-35.789 Y-35.5 E4202.40935
G0 F12000 X-32.676 Y-36.597
G1 F2400 X-32.209 Y-35.788 E4202.4676
G0 F12000 X-31.299 Y-35.788
G1 F2400 X-30.832 Y-36.597 E4202.52585
G0 F12000 X-26.903 Y-36.597
G1 F2400 X-26.436 Y-35.788 E4202.58411
G0 F12000 X-25.525 Y-35.788
G1 F2400 X-25.058 Y-36.597 E4202.64236
G0 F12000 X-21.129 Y-36.597
G1 F2400 X-20.662 Y-35.788 E4202.70062
G0 F12000 X-19.751 Y-35.788
G1 F2400 X-19.284 Y-36.597 E4202.75887
G0 F12000 X-15.356 Y-36.598
G1 F2400 X-14.888 Y-35.788 E4202.81721
G0 F12000 X-13.978 Y-35.788
G1 F2400 X-13.511 Y-36.596 E4202.87541
G0 F12000 X-9.582 Y-36.597
G1 F2400 X-9.115 Y-35.788 E4202.93366
G0 F12000 X-8.205 Y-35.788
G1 F2400 X-7.738 Y-36.597 E4202.99192
G0 F12000 X-3.809 Y-36.597
G1 F2400 X-3.342 Y-35.788 E4203.05017
G0 F12000 X-2.431 Y-35.788
G1 F2400 X-1.964 Y-36.597 E4203.10842
G0 F12000 X1.964 Y-36.597
G1 F2400 X2.431 Y-35.788 E4203.16668
G0 F12000 X3.342 Y-35.788
G1 F2400 X3.809 Y-36.597 E4203.22493
G0 F12000 X7.738 Y-36.597
G1 F2400 X8.205 Y-35.788 E4203.28319
G0 F12000 X9.115 Y-35.788
G1 F2400 X9.582 Y-36.597 E4203.34144
G0 F12000 X13.511 Y-36.597
G1 F2400 X13.978 Y-35.788 E4203.39969
G0 F12000 X14.889 Y-35.789
G1 F2400 X15.356 Y-36.598 E4203.45795
G0 F12000 X19.284 Y-36.597
G1 F2400 X19.751 Y-35.788 E4203.5162
G0 F12000 X20.662 Y-35.788
G1 F2400 X21.13 Y-36.598 E4203.57454
G0 F12000 X25.058 Y-36.597
G1 F2400 X25.525 Y-35.788 E4203.6328
G0 F12000 X26.436 Y-35.788
G1 F2400 X26.903 Y-36.597 E4203.69105
G0 F12000 X30.832 Y-36.597
G1 F2400 X31.299 Y-35.788 E4203.7493
G0 F12000 X32.209 Y-35.788
G1 F2400 X32.676 Y-36.597 E4203.80756
G1 F6000 E4201.30756
G0 F2400 X32.209 Y-35.788
G0 X31.299 Y-35.788
G0 X30.832 Y-36.597
G0 X26.903 Y-36.597
G0 X26.436 Y-35.788
G0 X25.525 Y-35.788
G0 X25.058 Y-36.597
G0 X24.544 Y-36.597
G1 Z3.2
G0 F12000 X36.598 Y-33.39
G1 Z2.7
G1 F6000 E4203.80756
G1 F2400 X35.789 Y-31.989 E4203.90845
G0 F12000 X36.598 Y-23.39
G1 F2400 X35.789 Y-21.989 E4204.00934
G0 F12000 X36.598 Y-13.39
G1 F2400 X35.789 Y-11.989 E4204.11023
G0 F12000 X36.598 Y-3.39
G1 F2400 X35.789 Y-1.989 E4204.21112
G0 F12000 X36.598 Y6.608
G1 F2400 X35.789 Y8.01 E4204.31206
G1 F6000 E4201.81206
G0 F2400 X36.598 Y6.608
G0 X35.813 Y-1.738
G1 Z3.2
G0 F12000 X36.598 Y16.609
G1 Z2.7
G1 F6000 E4204.31206
G1 F2400 X35.79 Y18.009 E4204.41287
G0 F12000 X35.79 Y26.999
G1 F2400 X-35.789 Y27 E4208.87673
G0 F12000 X-35.789 Y27.5
G1 F2400 X35.79 Y27.499 E4213.3406
G0 F12000 X35.79 Y27.999
G1 F2400 X-35.789 Y28 E4217.80446
G0 F12000 X-35.789 Y28.011
G1 F2400 X-36.598 Y26.61 E4217.90535
G1 F6000 E4215.40535
G0 F2400 X-35.789 Y28.011
G0 X-35.789 Y28
G0 X-27.417 Y28
G1 Z3.2
G0 F12000 X-32.21 Y35.789
G1 Z2.7
G1 F6000 E4217.90535
G1 F2400 X-32.677 Y36.598 E4217.9636
G0 F12000 X-31.298 Y35.789
G1 F2400 X-30.831 Y36.598 E4218.02186
G0 F12000 X-26.903 Y36.598
G1 F2400 X-26.436 Y35.789 E4218.08011
G0 F12000 X-25.525 Y35.789
G1 F2400 X-25.058 Y36.598 E4218.13837
G0 F12000 X-21.13 Y36.598
G1 F2400 X-20.663 Y35.789 E4218.19662
G0 F12000 X-19.751 Y35.789
G1 F2400 X-19.284 Y36.598 E4218.25487
G0 F12000 X-15.356 Y36.598
G1 F2400 X-14.889 Y35.79 E4218.31307
G0 F12000 X-13.977 Y35.789
G1 F2400 X-13.51 Y36.598 E4218.37133
G0 F12000 X-9.583 Y36.598
G1 F2400 X-9.116 Y35.789 E4218.42958
G0 F12000 X-8.204 Y35.79
G1 F2400 X-7.737 Y36.598 E4218.48778
G0 F12000 X-3.809 Y36.598
G1 F2400 X-3.342 Y35.789 E4218.54604
G0 F12000 X-2.431 Y35.789
G1 F2400 X-1.964 Y36.598 E4218.60429
G0 F12000 X1.963 Y36.599
G1 F2400 X2.431 Y35.789 E4218.66263
G0 F12000 X3.342 Y35.789
G1 F2400 X3.809 Y36.598 E4218.72088
G0 F12000 X7.737 Y36.598
G1 F2400 X8.204 Y35.79 E4218.77908
G0 F12000 X9.116 Y35.789
G1 F2400 X9.583 Y36.598 E4218.83734
G0 F12000 X13.51 Y36.598
G1 F2400 X13.977 Y35.789 E4218.89559
G0 F12000 X14.889 Y35.79
G1 F2400 X15.356 Y36.598 E4218.95379
G0 F12000 X19.284 Y36.598
G1 F2400 X19.751 Y35.789 E4219.01205
G0 F12000 X20.663 Y35.79
G1 F2400 X21.13 Y36.599 E4219.0703
G0 F12000 X25.057 Y36.599
G1 F2400 X25.524 Y35.79 E4219.12855
G0 F12000 X26.436 Y35.789
G1 F2400 X26.903 Y36.598 E4219.18681
G0 F12000 X30.831 Y36.598
G1 F2400 X31.298 Y35.79 E4219.24501
G0 F12000 X32.21 Y35.789
G1 F2400 X32.677 Y36.598 E4219.30326
G1 F6000 E4216.80326
G0 F2400 X32.21 Y35.789
G0 X31.298 Y35.79
G0 X30.831 Y36.598
G0 X26.903 Y36.598
G0 X26.436 Y35.789
G0 X25.524 Y35.79
G0 X25.057 Y36.599
G0 X24.544 Y36.599
G1 Z3.2
G0 F12000 X35.79 Y29.999
G1 Z2.7
G1 F6000 E4219.30326
G1 F2400 X36.599 Y29.999 E4219.35371
; Layer Change GCode
; LAYER:9
G0 F12000 X36.599 Y29.999 Z3
G0 X-37.348 Y37.349
G0 X-37.848 Y37.849
G0 X-37.348 Y37.349
G0 X-36.848 Y36.849
; TYPE:WALL-INNER
G1 F2400 X-36.848 Y-36.848 E4223.94966
G1 X36.849 Y-36.848 E4228.54561
G1 X36.849 Y36.849 E4233.14156
G1 X-36.848 Y36.849 E4237.7375
G0 F12000 X-37.348 Y37.349
G1 F2400 X-37.348 Y-37.348 E4242.39581
G1 X37.349 Y-37.348 E4247.05412
G1 X37.349 Y37.349 E4251.71244
G1 X-37.348 Y37.349 E4256.37075
G0 F12000 X-37.848 Y37.849
; TYPE:WALL-OUTER
G1 F1800 X-37.848 Y-37.848 E4261.09142
G1 X37.849 Y-37.848 E4265.81209
G1 X37.849 Y37.849 E4270.53277
G1 X-37.848 Y37.849 E4275.25344
G0 F12000 X-37.348 Y37.349
G0 X-36.598 Y35
; TYPE:FILL
G1 F2400 X-35.789 Y35 E4275.30389
G0 F12000 X-35.499 Y35.789
G1 F2400 X-35.5 Y-35.788 E4279.76763
G0 F12000 X-35 Y-35.788
G1 F2400 X-34.999 Y35.789 E4284.23137
G0 F12000 X-34.499 Y35.789
G1 F2400 X-34.5 Y-35.788 E4288.69511
G0 F12000 X-34 Y-35.788
G1 F2400 X-33.999 Y35.789 E4293.15885
G0 F12000 X-33.499 Y35.789
G1 F2400 X-33.5 Y-35.788 E4297.62258
G0 F12000 X-33 Y-35.788
G1 F2400 X-32.999 Y35.789 E4302.08632
G0 F12000 X-32.499 Y35.789
G1 F2400 X-32.5 Y-35.788 E4306.55006
G0 F12000 X-32.209 Y-35.788
G1 F2400 X-32.676 Y-36.597 E4306.60832
G0 F12000 X-32 Y-35.788
G1 F2400 X-31.999 Y35.789 E4311.07205
G0 F12000 X-32.21 Y35.789
G1 F2400 X-32.677 Y36.598 E4311.13031
G0 F12000 X-31.499 Y35.789
G1 F2400 X-31.5 Y-35.788 E4315.59405
G0 F12000 X-31.299 Y-35.788
G1 F2400 X-30.832 Y-36.597 E4315.6523
G0 F12000 X-31 Y-35.788
G1 F2400 X-30.999 Y35.789 E4320.11604
G0 F12000 X-31.298 Y35.789
G1 F2400 X-30.831 Y36.598 E4320.17429
G0 F12000 X-30.499 Y35.789
G1 F2400 X-30.5 Y-35.788 E4324.63803
G0 F12000 X-30 Y-35.788
G1 F2400 X-29.999 Y35.789 E4329.10177
G0 F12000 X-29.499 Y35.789
G1 F2400 X-29.5 Y-35.789 E4333.56557
G0 F12000 X-29 Y-35.789
G1 F2400 X-28.999 Y35.789 E4338.02937
G0 F12000 X-28.499 Y35.789
G1 F2400 X-28.5 Y-35.789 E4342.49318
G0 F12000 X-28 Y-35.789
G1 F2400 X-27.999 Y35.789 E4346.95698
G0 F12000 X-27.499 Y35.789
G1 F2400 X-27.5 Y-35.789 E4351.42078
G0 F12000 X-27 Y-35.789
G1 F2400 X-26.999 Y35.789 E4355.88458
G0 F12000 X-26.499 Y35.789
G1 F2400 X-26.5 Y-35.789 E4360.34838
G0 F12000 X-26.436 Y-35.788
G1 F2400 X-26.903 Y-36.597 E4360.40663
G0 F12000 X-26 Y-35.789
G1 F2400 X-25.999 Y35.789 E4364.87044
G0 F12000 X-26.436 Y35.789
G1 F2400 X-26.903 Y36.598 E4364.92869
G0 F12000 X-25.525 Y35.789
G1 F2400 X-25.058 Y36.598 E4364.98694
G0 F12000 X-24.999 Y35.789
G1 F2400 X-25 Y-35.789 E4369.45074
G0 F12000 X-25.5 Y-35.789
G1 F2400 X-25.499 Y35.789 E4373.91455
G0 F12000 X-24.499 Y35.789
G1 F2400 X-24.5 Y-35.789 E4378.37835
G0 F12000 X-24 Y-35.789
G1 F2400 X-23.999 Y35.789 E4382.84215
G0 F12000 X-23.499 Y35.789
G1 F2400 X-23.5 Y-35.789 E4387.30595
G0 F12000 X-23 Y-35.789
G1 F2400 X-22.999 Y35.789 E4391.76975
G0 F12000 X-22.499 Y35.789
G1 F2400 X-22.5 Y-35.789 E4396.23355
G0 F12000 X-22 Y-35.789
G1 F2400 X-21.999 Y35.789 E4400.69735
G0 F12000 X-21.499 Y35.789
G1 F2400 X-21.5 Y-35.789 E4405.16115
G0 F12000 X-21 Y-35.789
G1 F2400 X-20.999 Y35.789 E4409.62495
G0 F12000 X-20.663 Y35.789
G1 F2400 X-21.13 Y36.598 E4409.68321
G0 F12000 X-20.499 Y35.789
G1 F2400 X-20.5 Y-35.789 E4414.14701
G0 F12000 X-20.662 Y-35.788
G1 F2400 X-21.129 Y-36.597 E4414.20526
G0 F12000 X-20 Y-35.789
G1 F2400 X-19.999 Y35.789 E4418.66906
G0 F12000 X-19.751 Y35.789
G1 F2400 X-19.284 Y36.598 E4418.72732
G0 F12000 X-19.499 Y35.789
G1 F2400 X-19.5 Y-35.789 E4423.19112
G0 F12000 X-19.751 Y-35.788
G1 F2400 X-19.284 Y-36.597 E4423.24937
G0 F12000 X-19 Y-35.789
G1 F2400 X-18.999 Y35.789 E4427.71317
G0 F12000 X-18.499 Y35.789
G1 F2400 X-18.5 Y-35.789 E4432.17698
G0 F12000 X-18 Y-35.789
G1 F2400 X-17.999 Y35.789 E4436.64078
G0 F12000 X-17.499 Y35.789
G1 F2400 X-17.5 Y-35.789 E4441.10458
G0 F12000 X-17 Y-35.789
G1 F2400 X-16.999 Y35.789 E4445.56838
G0 F12000 X-16.499 Y35.789
G1 F2400 X-16.5 Y-35.789 E4450.03218
G0 F12000 X-16 Y-35.789
G1 F2400 X-15.999 Y35.789 E4454.49598
G0 F12000 X-15.499 Y35.789
G1 F2400 X-15.5 Y-35.789 E4458.95978
G0 F12000 X-15 Y-35.789
G1 F2400 X-14.999 Y35.789 E4463.42358
G0 F12000 X-14.889 Y35.79
G1 F2400 X-15.356 Y36.598 E4463.48178
G0 F12000 X-14.499 Y35.789
G1 F2400 X-14.5 Y-35.789 E4467.94559
G0 F12000 X-14.888 Y-35.788
G1 F2400 X-15.356 Y-36.598 E4468.00392
G0 F12000 X-14 Y-35.789
G1 F2400 X-13.999 Y35.789 E4472.46773
G0 F12000 X-13.977 Y35.789
G1 F2400 X-13.51 Y36.598 E4472.52598
G0 F12000 X-13.499 Y35.789
G1 F2400 X-13.5 Y-35.789 E4476.98978
G0 F12000 X-13.978 Y-35.788
G1 F2400 X-13.511 Y-36.596 E4477.04798
G0 F12000 X-13 Y-35.789
G1 F2400 X-12.999 Y35.789 E4481.51178
G0 F12000 X-12.499 Y35.789
G1 F2400 X-12.5 Y-35.789 E4485.97558
G0 F12000 X-12 Y-35.789
G1 F2400 X-11.999 Y35.789 E4490.43938
G0 F12000 X-11.499 Y35.789
G1 F2400 X-11.5 Y-35.789 E4494.90319
G0 F12000 X-11 Y-35.789
G1 F2400 X-10.999 Y35.789 E4499.36699
G0 F12000 X-10.499 Y35.789
G1 F2400 X-10.5 Y-35.789 E4503.83079
G0 F12000 X-10 Y-35.789
G1 F2400 X-9.999 Y35.789 E4508.29459
G0 F12000 X-9.499 Y35.789
G1 F2400 X-9.5 Y-35.789 E4512.75839
G0 F12000 X-9.115 Y-35.788
G1 F2400 X-9.582 Y-36.597 E4512.81664
G0 F12000 X-9 Y-35.789
G1 F2400 X-8.999 Y35.789 E4517.28044
G0 F12000 X-9.116 Y35.789
G1 F2400 X-9.583 Y36.598 E4517.3387
G0 F12000 X-8.499 Y35.789
G1 F2400 X-8.5 Y-35.789 E4521.8025
G0 F12000 X-8.205 Y-35.788
G1 F2400 X-7.738 Y-36.597 E4521.86075
G0 F12000 X-7.5 Y-35.789
G1 F2400 X-7.499 Y35.789 E4526.32456
G0 F12000 X-6.999 Y35.789
G1 F2400 X-7 Y-35.789 E4530.78836
G0 F12000 X-6.5 Y-35.789
G1 F2400 X-6.499 Y35.789 E4535.25216
G0 F12000 X-5.999 Y35.789
G1 F2400 X-6 Y-35.789 E4539.71596
G0 F12000 X-5.5 Y-35.789
G1 F2400 X-5.499 Y35.789 E4544.17976
G0 F12000 X-4.999 Y35.789
G1 F2400 X-5 Y-35.789 E4548.64356
G0 F12000 X-4.5 Y-35.789
G1 F2400 X-4.499 Y35.789 E4553.10736
G0 F12000 X-3.999 Y35.789
G1 F2400 X-4 Y-35.789 E4557.57116
G0 F12000 X-3.5 Y-35.789
G1 F2400 X-3.499 Y35.789 E4562.03496
G0 F12000 X-3.342 Y35.789
G1 F2400 X-3.809 Y36.598 E4562.09322
G0 F12000 X-2.999 Y35.789
G1 F2400 X-3 Y-35.789 E4566.55702
G0 F12000 X-3.342 Y-35.788
G1 F2400 X-3.809 Y-36.597 E4566.61527
G0 F12000 X-2.5 Y-35.789
G1 F2400 X-2.499 Y35.789 E4571.07907
G0 F12000 X-2.431 Y35.789
G1 F2400 X-1.964 Y36.598 E4571.13733
G0 F12000 X-1.999 Y35.789
G1 F2400 X-2 Y-35.789 E4575.60113
G0 F12000 X-2.431 Y-35.788
G1 F2400 X-1.964 Y-36.597 E4575.65938
G0 F12000 X-1.5 Y-35.789
G1 F2400 X-1.499 Y35.789 E4580.12318
G0 F12000 X-0.999 Y35.789
G1 F2400 X-1 Y-35.789 E4584.58699
G0 F12000 X-0.5 Y-35.789
G1 F2400 X-0.499 Y35.789 E4589.05079
G0 F12000 X0 Y35.79
G1 F2400 X0 Y-35.789 E4593.51465
G0 F12000 X0.499 Y-35.788
G1 F2400 X0.5 Y35.79 E4597.97845
G0 F12000 X1 Y35.79
G1 F2400 X0.999 Y-35.788 E4602.44225
G0 F12000 X1.499 Y-35.788
G1 F2400 X1.5 Y35.79 E4606.90605
G0 F12000 X2 Y35.79
G1 F2400 X1.999 Y-35.788 E4611.36986
G0 F12000 X2.431 Y-35.788
G1 F2400 X1.964 Y-36.597 E4611.42811
G0 F12000 X2.499 Y-35.788
G1 F2400 X2.5 Y35.79 E4615.89191
G0 F12000 X2.431 Y35.789
G1 F2400 X1.963 Y36.599 E4615.95025
G0 F12000 X3 Y35.79
G1 F2400 X2.999 Y-35.788 E4620.41405
G0 F12000 X3.342 Y-35.788
G1 F2400 X3.809 Y-36.597 E4620.4723
G0 F12000 X3.999 Y-35.788
G1 F2400 X4 Y35.79 E4624.93611
G0 F12000 X4.5 Y35.79
G1 F2400 X4.499 Y-35.788 E4629.39991
G0 F12000 X4.999 Y-35.788
G1 F2400 X5 Y35.79 E4633.86371
G0 F12000 X5.5 Y35.79
G1 F2400 X5.499 Y-35.788 E4638.32751
G0 F12000 X5.999 Y-35.788
G1 F2400 X6 Y35.79 E4642.79131
G0 F12000 X6.5 Y35.79
G1 F2400 X6.499 Y-35.788 E4647.25511
G0 F12000 X6.999 Y-35.788
G1 F2400 X7 Y35.79 E4651.71891
G0 F12000 X7.5 Y35.79
G1 F2400 X7.499 Y-35.788 E4656.18271
G0 F12000 X7.999 Y-35.788
G1 F2400 X8 Y35.79 E4660.64651
G0 F12000 X8.204 Y35.79
G1 F2400 X7.737 Y36.598 E4660.70471
G0 F12000 X8.5 Y35.79
G1 F2400 X8.499 Y-35.788 E4665.16852
G0 F12000 X8.205 Y-35.788
G1 F2400 X7.738 Y-36.597 E4665.22677
G0 F12000 X8.999 Y-35.788
G1 F2400 X9 Y35.79 E4669.69057
G0 F12000 X9.116 Y35.789
G1 F2400 X9.583 Y36.598 E4669.74882
G0 F12000 X9.5 Y35.79
G1 F2400 X9.499 Y-35.788 E4674.21263
G0 F12000 X9.115 Y-35.788
G1 F2400 X9.582 Y-36.597 E4674.27088
G0 F12000 X9.999 Y-35.788
G1 F2400 X10 Y35.79 E4678.73468
G0 F12000 X10.5 Y35.79
G1 F2400 X10.499 Y-35.788 E4683.19848
G0 F12000 X10.999 Y-35.788
G1 F2400 X11 Y35.79 E4687.66228
G0 F12000 X11.5 Y35.79
G1 F2400 X11.499 Y-35.788 E4692.12608
G0 F12000 X11.999 Y-35.788
G1 F2400 X12 Y35.79 E4696.58989
G0 F12000 X12.5 Y35.79
G1 F2400 X12.499 Y-35.788 E4701.05369
G0 F12000 X12.999 Y-35.788
G1 F2400 X13 Y35.79 E4705.51749
G0 F12000 X13.5 Y35.79
G1 F2400 X13.499 Y-35.788 E4709.98129
G0 F12000 X13.978 Y-35.788
G1 F2400 X13.511 Y-36.597 E4710.03954
G0 F12000 X13.999 Y-35.788
G1 F2400 X14 Y35.79 E4714.50334
G0 F12000 X13.977 Y35.789
G1 F2400 X13.51 Y36.598 E4714.5616
G0 F12000 X14.5 Y35.79
G1 F2400 X14.499 Y-35.788 E4719.0254
G0 F12000 X14.889 Y-35.789
G1 F2400 X15.356 Y-36.598 E4719.08365
G0 F12000 X15.499 Y-35.788
G1 F2400 X15.5 Y35.79 E4723.54745
G0 F12000 X16 Y35.79
G1 F2400 X15.999 Y-35.788 E4728.01126
G0 F12000 X16.499 Y-35.788
G1 F2400 X16.5 Y35.79 E4732.47506
G0 F12000 X17 Y35.79
G1 F2400 X16.999 Y-35.788 E4736.93886
G0 F12000 X17.499 Y-35.788
G1 F2400 X17.5 Y35.79 E4741.40266
G0 F12000 X18 Y35.79
G1 F2400 X17.999 Y-35.788 E4745.86646
G0 F12000 X18.499 Y-35.788
G1 F2400 X18.5 Y35.79 E4750.33026
G0 F12000 X19 Y35.79
G1 F2400 X18.999 Y-35.788 E4754.79406
G0 F12000 X19.499 Y-35.788
G1 F2400 X19.5 Y35.79 E4759.25786
G0 F12000 X19.751 Y35.789
G1 F2400 X19.284 Y36.598 E4759.31612
G0 F12000 X20 Y35.79
G1 F2400 X19.999 Y-35.788 E4763.77992
G0 F12000 X19.751 Y-35.788
G1 F2400 X19.284 Y-36.597 E4763.83817
G0 F12000 X20.499 Y-35.788
G1 F2400 X20.5 Y35.79 E4768.30197
G0 F12000 X20.663 Y35.79
G1 F2400 X21.13 Y36.599 E4768.36023
G0 F12000 X21 Y35.79
G1 F2400 X20.999 Y-35.788 E4772.82403
G0 F12000 X20.662 Y-35.788
G1 F2400 X21.13 Y-36.598 E4772.88237
G0 F12000 X21.499 Y-35.788
G1 F2400 X21.5 Y35.79 E4777.34617
G0 F12000 X22 Y35.79
G1 F2400 X21.999 Y-35.788 E4781.80997
G0 F12000 X22.499 Y-35.788
G1 F2400 X22.5 Y35.79 E4786.27377
G0 F12000 X23 Y35.79
G1 F2400 X22.999 Y-35.788 E4790.73757
G0 F12000 X23.499 Y-35.788
G1 F2400 X23.5 Y35.79 E4795.20137
G0 F12000 X24 Y35.79
G1 F2400 X23.999 Y-35.788 E4799.66518
G0 F12000 X24.499 Y-35.788
G1 F2400 X24.5 Y35.79 E4804.12898
G0 F12000 X25 Y35.79
G1 F2400 X24.999 Y-35.788 E4808.59278
G0 F12000 X25.499 Y-35.788
G1 F2400 X25.5 Y35.79 E4813.05658
G0 F12000 X25.524 Y35.79
G1 F2400 X25.057 Y36.599 E4813.11483
G0 F12000 X26 Y35.79
G1 F2400 X25.999 Y-35.788 E4817.57863
G0 F12000 X26.436 Y-35.788
G1 F2400 X26.903 Y-36.597 E4817.63689
G0 F12000 X26.999 Y-35.788
G1 F2400 X27 Y35.79 E4822.10069
G0 F12000 X27.5 Y35.79
G1 F2400 X27.499 Y-35.788 E4826.56449
G0 F12000 X27.999 Y-35.788
G1 F2400 X28 Y35.79 E4831.02829
G0 F12000 X28.5 Y35.79
G1 F2400 X28.499 Y-35.788 E4835.49209
G0 F12000 X28.999 Y-35.788
G1 F2400 X29 Y35.79 E4839.95589
G0 F12000 X29.5 Y35.79
G1 F2400 X29.499 Y-35.788 E4844.41969
G0 F12000 X29.999 Y-35.788
G1 F2400 X30 Y35.789 E4848.88343
G0 F12000 X30.5 Y35.789
G1 F2400 X30.499 Y-35.788 E4853.34717
G0 F12000 X30.999 Y-35.788
G1 F2400 X31 Y35.789 E4857.81091
G0 F12000 X31.298 Y35.79
G1 F2400 X30.831 Y36.598 E4857.86911
G0 F12000 X31.5 Y35.789
G1 F2400 X31.499 Y-35.788 E4862.33285
G0 F12000 X31.299 Y-35.788
G1 F2400 X30.832 Y-36.597 E4862.3911
G0 F12000 X31.999 Y-35.788
G1 F2400 X32 Y35.789 E4866.85484
G0 F12000 X32.21 Y35.789
G1 F2400 X32.677 Y36.598 E4866.9131
G0 F12000 X32.5 Y35.789
G1 F2400 X32.499 Y-35.788 E4871.37684
G0 F12000 X32.209 Y-35.788
G1 F2400 X32.676 Y-36.597 E4871.43509
G0 F12000 X32.999 Y-35.788
G1 F2400 X33 Y35.789 E4875.89883
G0 F12000 X33.5 Y35.789
G1 F2400 X33.499 Y-35.788 E4880.36257
G0 F12000 X33.999 Y-35.788
G1 F2400 X34 Y35.789 E4884.82631
G0 F12000 X34.5 Y35.789
G1 F2400 X34.499 Y-35.788 E4889.29004
G0 F12000 X34.999 Y-35.788
G1 F2400 X35 Y35.789 E4893.75378
G0 F12000 X35.5 Y35.789
G1 F2400 X35.499 Y-35.788 E4898.21752
G0 F12000 X35.79 Y-35
G1 F2400 X36.599 Y-35 E4898.26797
G0 F12000 X36.598 Y-33.39
G1 F2400 X35.789 Y-31.989 E4898.36886
G0 F12000 X35.79 Y-30
G1 F2400 X36.599 Y-30 E4898.41932
G0 F12000 X35.789 Y-28.01
G1 F2400 X36.598 Y-26.609 E4898.52021
G0 F12000 X36.599 Y-25
G1 F2400 X35.79 Y-25 E4898.57066
G0 F12000 X36.598 Y-23.39
G1 F2400 X35.789 Y-21.989 E4898.67155
G0 F12000 X35.79 Y-20
G1 F2400 X36.599 Y-20 E4898.722
G0 F12000 X35.789 Y-18.01
G1 F2400 X36.598 Y-16.609 E4898.82289
G0 F12000 X36.599 Y-15
G1 F2400 X35.79 Y-15 E4898.87334
G0 F12000 X36.598 Y-13.39
G1 F2400 X35.789 Y-11.989 E4898.97423
G0 F12000 X35.79 Y-10
G1 F2400 X36.599 Y-10 E4899.02468
G0 F12000 X35.789 Y-8.01
G1 F2400 X36.598 Y-6.608 E4899.12563
G0 F12000 X36.599 Y-5
G1 F2400 X35.79 Y-5 E4899.17608
G0 F12000 X36.598 Y-3.39
G1 F2400 X35.789 Y-1.989 E4899.27697
G0 F12000 X35.79 Y0
G1 F2400 X36.599 Y0 E4899.32742
G0 F12000 X35.789 Y1.989
G1 F2400 X36.598 Y3.39 E4899.42831
G0 F12000 X36.599 Y4.999
G1 F2400 X35.79 Y4.999 E4899.47876
G0 F12000 X36.598 Y6.608
G1 F2400 X35.789 Y8.01 E4899.57971
G0 F12000 X35.79 Y9.999
G1 F2400 X36.599 Y9.999 E4899.63016
G0 F12000 X35.789 Y11.989
G1 F2400 X36.598 Y13.39 E4899.73105
G0 F12000 X36.599 Y14.999
G1 F2400 X35.79 Y14.999 E4899.7815
G0 F12000 X36.598 Y16.609
G1 F2400 X35.79 Y18.009 E4899.88231
G0 F12000 X35.79 Y19.999
G1 F2400 X36.599 Y19.999 E4899.93276
G0 F12000 X35.79 Y21.99
G1 F2400 X36.598 Y23.39 E4900.03356
G0 F12000 X36.599 Y24.999
G1 F2400 X35.79 Y24.999 E4900.08402
G0 F12000 X36.598 Y26.609
G1 F2400 X35.79 Y28.009 E4900.18482
G0 F12000 X35.79 Y29.999
G1 F2400 X36.599 Y29.999 E4900.23527
G0 F12000 X35.789 Y31.989
G1 F2400 X36.598 Y33.391 E4900.33622
G0 F12000 X36.599 Y35
G1 F2400 X35.79 Y35 E4900.38667
G1 F6000 E4897.88667
G0 F2400 X36.599 Y35
G0 X36.598 Y33.391
G0 X35.789 Y31.989
G0 X36.599 Y29.999
G0 X35.79 Y29.999
G0 X35.79 Y28.009
G0 X36.298 Y27.128
G1 Z3.5
G0 F12000 X26.903 Y36.598
G1 Z3
G1 F6000 E4900.38667
G1 F2400 X26.436 Y35.789 E4900.44492
G0 F12000 X26.5 Y35.79
G1 F2400 X26.499 Y-35.788 E4904.90872
G0 F12000 X25.525 Y-35.788
G1 F2400 X25.058 Y-36.597 E4904.96698
G1 F6000 E4902.46698
G0 F2400 X25.525 Y-35.788
G0 X26.499 Y-35.788
G0 X26.499 Y-27.696
G1 Z3.5
G0 F12000 X14.999 Y-35.788
G1 Z3
G1 F6000 E4904.96698
G1 F2400 X15 Y35.79 E4909.43078
G0 F12000 X14.889 Y35.79
G1 F2400 X15.356 Y36.598 E4909.48898
G1 F6000 E4906.98898
G0 F2400 X14.889 Y35.79
G0 X15 Y35.79
G0 X15 Y26.834
G1 Z3.5
G0 F12000 X3.809 Y36.598
G1 Z3
G1 F6000 E4909.48898
G1 F2400 X3.342 Y35.789 E4909.54723
G0 F12000 X3.5 Y35.79
G1 F2400 X3.499 Y-35.788 E4914.01103
G1 F6000 E4911.51103
G0 F2400 X3.499 Y-25.788
G1 Z3.5
G0 F12000 X-8 Y-35.789
G1 Z3
G1 F6000 E4914.01103
G1 F2400 X-7.999 Y35.789 E4918.47483
G0 F12000 X-8.204 Y35.79
G1 F2400 X-7.737 Y36.598 E4918.53303
G1 F6000 E4916.03303
G0 F2400 X-8.204 Y35.79
G0 X-7.999 Y35.789
G0 X-7.999 Y26.927
G1 Z3.5
G0 F12000 X-35.788 Y31.987
G1 Z3
G1 F6000 E4918.53303
G1 F2400 X-36.597 Y33.388 E4918.63393
G0 F12000 X-36.598 Y30
G1 F2400 X-35.789 Y30 E4918.68438
G0 F12000 X-35.789 Y28.011
G1 F2400 X-36.598 Y26.61 E4918.78527
G0 F12000 X-36.598 Y25
G1 F2400 X-35.789 Y25 E4918.83572
G0 F12000 X-36.597 Y23.388
G1 F2400 X-35.788 Y21.987 E4918.93661
G0 F12000 X-35.789 Y20
G1 F2400 X-36.598 Y20 E4918.98706
G0 F12000 X-35.789 Y18.011
G1 F2400 X-36.597 Y16.611 E4919.08787
G0 F12000 X-36.598 Y15
G1 F2400 X-35.789 Y15 E4919.13832
G0 F12000 X-36.597 Y13.388
G1 F2400 X-35.788 Y11.987 E4919.23921
G0 F12000 X-35.789 Y10
G1 F2400 X-36.598 Y10 E4919.28966
G0 F12000 X-35.788 Y8.011
G1 F2400 X-36.597 Y6.611 E4919.3905
G0 F12000 X-36.598 Y5
G1 F2400 X-35.789 Y5 E4919.44095
G0 F12000 X-36.597 Y3.389
G1 F2400 X-35.788 Y1.987 E4919.54189
G0 F12000 X-35.789 Y0
G1 F2400 X-36.598 Y0 E4919.59234
G0 F12000 X-35.788 Y-1.987
G1 F2400 X-36.597 Y-3.388 E4919.69323
G0 F12000 X-36.598 Y-4.999
G1 F2400 X-35.789 Y-4.999 E4919.74369
G0 F12000 X-36.597 Y-6.611
G1 F2400 X-35.788 Y-8.011 E4919.84452
G0 F12000 X-35.789 Y-9.999
G1 F2400 X-36.598 Y-9.999 E4919.89497
G0 F12000 X-35.788 Y-11.987
G1 F2400 X-36.597 Y-13.388 E4919.99586
G0 F12000 X-36.598 Y-14.999
G1 F2400 X-35.789 Y-14.999 E4920.04632
G0 F12000 X-36.597 Y-16.611
G1 F2400 X-35.788 Y-18.012 E4920.14721
G0 F12000 X-35.789 Y-19.999
G1 F2400 X-36.598 Y-19.999 E4920.19766
G0 F12000 X-35.788 Y-21.987
G1 F2400 X-36.597 Y-23.387 E4920.29849
G0 F12000 X-36.598 Y-24.999
G1 F2400 X-35.789 Y-24.999 E4920.34895
G0 F12000 X-36.597 Y-26.611
G1 F2400 X-35.788 Y-28.012 E4920.44984
G0 F12000 X-35.789 Y-29.999
G1 F2400 X-36.598 Y-29.999 E4920.50029
G0 F12000 X-35.787 Y-31.986
G1 F2400 X-36.596 Y-33.387 E4920.60118
G0 F12000 X-36.598 Y-35
G1 F2400 X-35.789 Y-35 E4920.65163
G1 F6000 E4918.15163
G0 F2400 X-36.598 Y-35
G0 X-36.596 Y-33.387
G0 X-35.787 Y-31.986
G0 X-36.598 Y-29.999
G0 X-35.789 Y-29.999
G0 X-35.788 Y-28.012
G0 X-36.297 Y-27.13
G1 Z3.5
G0 F12000 X-25.525 Y-35.788
G1 Z3
G1 F6000 E4920.65163
G1 F2400 X-25.058 Y-36.597 E4920.70988
; Layer Change GCode
; LAYER:10
G0 F12000 X-25.058 Y-36.597 Z3.3
G0 X-37.348 Y37.349
G0 X-37.848 Y37.849
G0 X-37.348 Y37.349
G0 X-36.848 Y36.849
; TYPE:WALL-INNER
G1 F2400 X-36.848 Y-36.848 E4925.30583
G1 X36.849 Y-36.848 E4929.90178
G1 X36.849 Y36.849 E4934.49773
G1 X-36.848 Y36.849 E4939.09368
G0 F12000 X-37.348 Y37.349
G1 F2400 X-37.348 Y-37.348 E4943.75199
G1 X37.349 Y-37.348 E4948.4103
G1 X37.349 Y37.349 E4953.06861
G1 X-37.348 Y37.349 E4957.72692
G0 F12000 X-37.848 Y37.849
; TYPE:WALL-OUTER
G1 F1800 X-37.848 Y-37.848 E4962.44759
G1 X37.849 Y-37.848 E4967.16826
G1 X37.849 Y37.849 E4971.88894
G1 X-37.848 Y37.849 E4976.60961
G0 F12000 X-37.348 Y37.349
G0 X-36.598 Y35
; TYPE:FILL
G1 F2400 X-35.789 Y35 E4976.66006
G1 X35.79 Y35 E4981.12393
G1 X36.599 Y35 E4981.17438
G0 F12000 X35.79 Y35.5
G1 F2400 X-35.789 Y35.5 E4985.63824
G0 F12000 X-35.789 Y34.5
G1 F2400 X35.79 Y34.5 E4990.1021
G0 F12000 X35.79 Y34
G1 F2400 X-35.789 Y34 E4994.56597
G0 F12000 X-35.789 Y33.5
G1 F2400 X35.79 Y33.5 E4999.02983
G0 F12000 X35.79 Y33
G1 F2400 X-35.789 Y33 E5003.49369
G0 F12000 X-35.789 Y32.5
G1 F2400 X35.79 Y32.499 E5007.95756
G0 F12000 X35.79 Y31.999
G1 F2400 X-35.789 Y32 E5012.42142
G0 F12000 X-35.788 Y31.987
G1 F2400 X-36.597 Y33.388 E5012.52231
G0 F12000 X-35.789 Y31.5
G1 F2400 X35.79 Y31.499 E5016.98618
G0 F12000 X35.789 Y31.989
G1 F2400 X36.598 Y33.391 E5017.08712
G0 F12000 X35.79 Y30.999
G1 F2400 X-35.789 Y31 E5021.55098
G0 F12000 X-35.789 Y30.5
G1 F2400 X35.79 Y30.499 E5026.01485
G0 F12000 X35.79 Y29.999
G1 F2400 X-35.789 Y30 E5030.47871
G1 X-36.598 Y30 E5030.52916
G0 F12000 X-35.789 Y29.5
G1 F2400 X35.79 Y29.499 E5034.99303
G0 F12000 X35.79 Y28.999
G1 F2400 X-35.789 Y29 E5039.45689
G0 F12000 X-35.789 Y28.5
G1 F2400 X35.79 Y28.499 E5043.92075
G0 F12000 X35.79 Y28.009
G1 F2400 X36.598 Y26.609 E5044.02156
G0 F12000 X35.79 Y26.499
G1 F2400 X-35.789 Y26.5 E5048.48542
G0 F12000 X-35.789 Y26
G1 F2400 X35.79 Y25.999 E5052.94929
G0 F12000 X35.79 Y25.499
G1 F2400 X-35.789 Y25.5 E5057.41315
G0 F12000 X-35.789 Y25
G1 F2400 X-36.598 Y25 E5057.4636
G0 F12000 X-35.789 Y25
G1 F2400 X35.79 Y24.999 E5061.92746
G1 X36.599 Y24.999 E5061.97792
G0 F12000 X35.79 Y24.499
G1 F2400 X-35.789 Y24.5 E5066.44178
G0 F12000 X-35.789 Y24
G1 F2400 X35.79 Y23.999 E5070.90564
G0 F12000 X35.79 Y23.499
G1 F2400 X-35.789 Y23.5 E5075.36951
G0 F12000 X-35.789 Y23
G1 F2400 X35.79 Y22.999 E5079.83337
G0 F12000 X35.79 Y22.499
G1 F2400 X-35.789 Y22.5 E5084.29723
G0 F12000 X-35.789 Y22
G1 F2400 X35.79 Y21.999 E5088.7611
G0 F12000 X35.79 Y21.99
G1 F2400 X36.598 Y23.39 E5088.8619
G0 F12000 X35.79 Y21.499
G1 F2400 X-35.789 Y21.5 E5093.32577
G0 F12000 X-35.788 Y21.987
G1 F2400 X-36.597 Y23.388 E5093.42666
G0 F12000 X-35.789 Y21
G1 F2400 X35.79 Y20.999 E5097.89052
G0 F12000 X35.79 Y20.499
G1 F2400 X-35.789 Y20.5 E5102.35438
G0 F12000 X-35.789 Y20
G1 F2400 X-36.598 Y20 E5102.40483
G0 F12000 X-35.789 Y20
G1 F2400 X35.79 Y19.999 E5106.8687
G1 X36.599 Y19.999 E5106.91915
G0 F12000 X35.79 Y19.499
G1 F2400 X-35.789 Y19.5 E5111.38301
G0 F12000 X-35.789 Y19
G1 F2400 X35.79 Y18.999 E5115.84688
G0 F12000 X35.79 Y18.499
G1 F2400 X-35.789 Y18.5 E5120.31074
G0 F12000 X-35.789 Y18.011
G1 F2400 X-36.597 Y16.611 E5120.41155
G0 F12000 X-35.789 Y16.5
G1 F2400 X35.79 Y16.499 E5124.87541
G0 F12000 X35.79 Y16.999
G1 F2400 X-35.789 Y17 E5129.33927
G0 F12000 X-35.789 Y17.5
G1 F2400 X35.79 Y17.499 E5133.80314
G0 F12000 X35.79 Y17.999
G1 F2400 X-35.789 Y18 E5138.267
G0 F12000 X-35.789 Y16
G1 F2400 X35.79 Y15.999 E5142.73086
G0 F12000 X35.79 Y15.499
G1 F2400 X-35.789 Y15.5 E5147.19473
G0 F12000 X-35.789 Y15
G1 F2400 X-36.598 Y15 E5147.24518
G0 F12000 X-35.789 Y15
G1 F2400 X35.79 Y14.999 E5151.70904
G1 X36.599 Y14.999 E5151.75949
G0 F12000 X35.79 Y14.499
G1 F2400 X-35.789 Y14.5 E5156.22336
G0 F12000 X-35.789 Y14
G1 F2400 X35.79 Y13.999 E5160.68722
G0 F12000 X35.79 Y13.499
G1 F2400 X-35.789 Y13.5 E5165.15108
G0 F12000 X-35.789 Y13
G1 F2400 X35.79 Y12.999 E5169.61495
G0 F12000 X35.79 Y12.499
G1 F2400 X-35.789 Y12.5 E5174.07881
G0 F12000 X-35.789 Y12
G1 F2400 X35.79 Y11.999 E5178.54267
G0 F12000 X35.789 Y11.989
G1 F2400 X36.598 Y13.39 E5178.64356
G0 F12000 X35.79 Y11.499
G1 F2400 X-35.789 Y11.5 E5183.10743
G0 F12000 X-35.788 Y11.987
G1 F2400 X-36.597 Y13.388 E5183.20832
G0 F12000 X-35.789 Y11
G1 F2400 X35.79 Y10.999 E5187.67218
G0 F12000 X35.79 Y10.499
G1 F2400 X-35.789 Y10.5 E5192.13605
G0 F12000 X-35.789 Y10
G1 F2400 X-36.598 Y10 E5192.1865
G0 F12000 X-35.789 Y10
G1 F2400 X35.79 Y9.999 E5196.65036
G1 X36.599 Y9.999 E5196.70081
G0 F12000 X35.79 Y9.499
G1 F2400 X-35.789 Y9.5 E5201.16468
G0 F12000 X-35.789 Y9
G1 F2400 X35.79 Y8.999 E5205.62854
G0 F12000 X35.79 Y8.499
G1 F2400 X-35.789 Y8.5 E5210.0924
G0 F12000 X-35.788 Y8.011
G1 F2400 X-36.597 Y6.611 E5210.19324
G0 F12000 X-35.789 Y6.5
G1 F2400 X35.79 Y6.499 E5214.6571
G0 F12000 X35.79 Y6.999
G1 F2400 X-35.789 Y7 E5219.12097
G0 F12000 X-35.789 Y7.5
G1 F2400 X35.79 Y7.499 E5223.58483
G0 F12000 X35.79 Y7.999
G1 F2400 X-35.789 Y8 E5228.04869
G0 F12000 X-35.789 Y6
G1 F2400 X35.79 Y5.999 E5232.51256
G0 F12000 X35.79 Y5.499
G1 F2400 X-35.789 Y5.5 E5236.97642
G0 F12000 X-35.789 Y5
G1 F2400 X-36.598 Y5 E5237.02687
G0 F12000 X-35.789 Y5
G1 F2400 X35.79 Y4.999 E5241.49073
G1 X36.599 Y4.999 E5241.54119
G0 F12000 X35.79 Y4.499
G1 F2400 X-35.789 Y4.5 E5246.00505
G0 F12000 X-35.789 Y4
G1 F2400 X35.79 Y3.999 E5250.46891
G0 F12000 X35.79 Y3.499
G1 F2400 X-35.789 Y3.5 E5254.93278
G0 F12000 X-35.789 Y3
G1 F2400 X35.79 Y2.999 E5259.39664
G0 F12000 X35.79 Y2.499
G1 F2400 X-35.789 Y2.5 E5263.8605
G0 F12000 X-35.789 Y2
G1 F2400 X35.79 Y1.999 E5268.32437
G0 F12000 X35.789 Y1.989
G1 F2400 X36.598 Y3.39 E5268.42526
G0 F12000 X35.79 Y1.499
G1 F2400 X-35.789 Y1.5 E5272.88912
G0 F12000 X-35.788 Y1.987
G1 F2400 X-36.597 Y3.389 E5272.99007
G0 F12000 X-35.789 Y1
G1 F2400 X35.79 Y0.999 E5277.45393
G0 F12000 X35.79 Y0.499
G1 F2400 X-35.789 Y0.5 E5281.91779
G0 F12000 X-35.789 Y0
G1 F2400 X-36.598 Y0 E5281.96824
G0 F12000 X-35.789 Y0
G1 F2400 X35.79 Y0 E5286.43211
G1 X36.599 Y0 E5286.48256
G0 F12000 X35.79 Y-0.5
G1 F2400 X-35.789 Y-0.499 E5290.94642
G0 F12000 X-35.789 Y-0.999
G1 F2400 X35.79 Y-1 E5295.41029
G0 F12000 X35.79 Y-1.5
G1 F2400 X-35.789 Y-1.499 E5299.87415
G0 F12000 X-35.788 Y-1.987
G1 F2400 X-36.597 Y-3.388 E5299.97504
G0 F12000 X-35.789 Y-3.499
G1 F2400 X35.79 Y-3.5 E5304.4389
G0 F12000 X35.79 Y-3
G1 F2400 X-35.789 Y-2.999 E5308.90277
G0 F12000 X-35.789 Y-2.499
G1 F2400 X35.79 Y-2.5 E5313.36663
G0 F12000 X35.79 Y-2
G1 F2400 X-35.789 Y-1.999 E5317.83049
G0 F12000 X-35.789 Y-3.999
G1 F2400 X35.79 Y-4 E5322.29436
G0 F12000 X35.79 Y-4.5
G1 F2400 X-35.789 Y-4.499 E5326.75822
G0 F12000 X-35.789 Y-4.999
G1 F2400 X-36.598 Y-4.999 E5326.80867
G0 F12000 X-35.789 Y-4.999
G1 F2400 X35.79 Y-5 E5331.27254
G1 X36.599 Y-5 E5331.32299
G0 F12000 X35.79 Y-5.5
G1 F2400 X-35.789 Y-5.499 E5335.78685
G0 F12000 X-35.789 Y-5.999
G1 F2400 X35.79 Y-6 E5340.25072
G0 F12000 X35.79 Y-6.5
G1 F2400 X-35.789 Y-6.499 E5344.71458
G0 F12000 X-35.789 Y-6.999
G1 F2400 X35.79 Y-7 E5349.17844
G0 F12000 X35.79 Y-7.5
G1 F2400 X-35.789 Y-7.499 E5353.64231
G0 F12000 X-35.789 Y-7.999
G1 F2400 X35.79 Y-8 E5358.10617
G0 F12000 X35.789 Y-8.01
G1 F2400 X36.598 Y-6.608 E5358.20711
G0 F12000 X35.79 Y-8.5
G1 F2400 X-35.789 Y-8.499 E5362.67098
G0 F12000 X-35.788 Y-8.011
G1 F2400 X-36.597 Y-6.611 E5362.77181
G0 F12000 X-35.789 Y-8.999
G1 F2400 X35.79 Y-9 E5367.23568
G0 F12000 X35.79 Y-9.5
G1 F2400 X-35.789 Y-9.499 E5371.69954
G0 F12000 X-35.789 Y-9.999
G1 F2400 X-36.598 Y-9.999 E5371.74999
G0 F12000 X-35.789 Y-9.999
G1 F2400 X35.79 Y-10 E5376.21386
G1 X36.599 Y-10 E5376.26431
G0 F12000 X35.79 Y-10.5
G1 F2400 X-35.789 Y-10.499 E5380.72817
G0 F12000 X-35.789 Y-10.999
G1 F2400 X35.79 Y-11 E5385.19203
G0 F12000 X35.79 Y-11.5
G1 F2400 X-35.789 Y-11.499 E5389.6559
G0 F12000 X-35.788 Y-11.987
G1 F2400 X-36.597 Y-13.388 E5389.75679
G0 F12000 X-35.789 Y-13.499
G1 F2400 X35.79 Y-13.5 E5394.22065
G0 F12000 X35.79 Y-13
G1 F2400 X-35.789 Y-12.999 E5398.68452
G0 F12000 X-35.789 Y-12.499
G1 F2400 X35.79 Y-12.5 E5403.14838
G0 F12000 X35.79 Y-12
G1 F2400 X-35.789 Y-11.999 E5407.61224
G0 F12000 X-35.789 Y-13.999
G1 F2400 X35.79 Y-14 E5412.07611
G0 F12000 X35.79 Y-14.5
G1 F2400 X-35.789 Y-14.499 E5416.53997
G0 F12000 X-35.789 Y-14.999
G1 F2400 X-36.598 Y-14.999 E5416.59042
G0 F12000 X-35.789 Y-14.999
G1 F2400 X35.79 Y-15 E5421.05428
G1 X36.599 Y-15 E5421.10474
G0 F12000 X35.79 Y-15.5
G1 F2400 X-35.789 Y-15.499 E5425.5686
G0 F12000 X-35.789 Y-15.999
G1 F2400 X35.79 Y-16 E5430.03246
G0 F12000 X35.79 Y-16.5
G1 F2400 X-35.789 Y-16.499 E5434.49633
G0 F12000 X-35.789 Y-16.999
G1 F2400 X35.79 Y-17 E5438.96019
G0 F12000 X35.79 Y-17.5
G1 F2400 X-35.789 Y-17.499 E5443.42405
G0 F12000 X-35.789 Y-17.999
G1 F2400 X35.79 Y-18 E5447.88792
G0 F12000 X35.789 Y-18.01
G1 F2400 X36.598 Y-16.609 E5447.98881
G0 F12000 X35.79 Y-18.5
G1 F2400 X-35.789 Y-18.499 E5452.45267
G0 F12000 X-35.788 Y-18.012
G1 F2400 X-36.597 Y-16.611 E5452.55356
G0 F12000 X-35.789 Y-18.999
G1 F2400 X35.79 Y-19 E5457.01743
G0 F12000 X35.79 Y-19.5
G1 F2400 X-35.789 Y-19.499 E5461.48129
G0 F12000 X-35.789 Y-19.999
G1 F2400 X-36.598 Y-19.999 E5461.53174
G0 F12000 X-35.789 Y-19.999
G1 F2400 X35.79 Y-20 E5465.9956
G1 X36.599 Y-20 E5466.04606
G0 F12000 X35.79 Y-20.5
G1 F2400 X-35.789 Y-20.499 E5470.50992
G0 F12000 X-35.789 Y-20.999
G1 F2400 X35.79 Y-21 E5474.97378
G0 F12000 X35.79 Y-21.5
G1 F2400 X-35.789 Y-21.499 E5479.43765
G0 F12000 X-35.788 Y-21.987
G1 F2400 X-36.597 Y-23.387 E5479.53848
G0 F12000 X-35.789 Y-23.499
G1 F2400 X35.79 Y-23.5 E5484.00235
G0 F12000 X35.79 Y-23
G1 F2400 X-35.789 Y-22.999 E5488.46621
G0 F12000 X-35.789 Y-22.499
G1 F2400 X35.79 Y-22.5 E5492.93007
G0 F12000 X35.79 Y-22
G1 F2400 X-35.789 Y-21.999 E5497.39394
G0 F12000 X-35.789 Y-23.999
G1 F2400 X35.79 Y-24 E5501.8578
G0 F12000 X35.79 Y-24.5
G1 F2400 X-35.789 Y-24.499 E5506.32166
G0 F12000 X-35.789 Y-24.999
G1 F2400 X-36.598 Y-24.999 E5506.37211
G0 F12000 X-35.789 Y-24.999
G1 F2400 X35.79 Y-25 E5510.83598
G1 X36.599 Y-25 E5510.88643
G0 F12000 X35.79 Y-25.5
G1 F2400 X-35.789 Y-25.499 E5515.35029
G0 F12000 X-35.789 Y-25.999
G1 F2400 X35.79 Y-26 E5519.81416
G0 F12000 X35.79 Y-26.5
G1 F2400 X-35.789 Y-26.499 E5524.27802
G0 F12000 X-35.789 Y-26.999
G1 F2400 X35.79 Y-27 E5528.74188
G0 F12000 X35.79 Y-27.5
G1 F2400 X-35.789 Y-27.499 E5533.20575
G0 F12000 X-35.789 Y-27.999
G1 F2400 X35.79 Y-28 E5537.66961
G0 F12000 X35.789 Y-28.01
G1 F2400 X36.598 Y-26.609 E5537.7705
G0 F12000 X35.79 Y-28.5
G1 F2400 X-35.789 Y-28.499 E5542.23437
G0 F12000 X-35.788 Y-28.012
G1 F2400 X-36.597 Y-26.611 E5542.33526
G0 F12000 X-35.789 Y-28.999
G1 F2400 X35.79 Y-29 E5546.79912
G0 F12000 X35.79 Y-29.5
G1 F2400 X-35.789 Y-29.499 E5551.26298
G0 F12000 X-35.789 Y-29.999
G1 F2400 X-36.598 Y-29.999 E5551.31343
G0 F12000 X-35.789 Y-29.999
G1 F2400 X35.79 Y-30 E5555.7773
G1 X36.599 Y-30 E5555.82775
G0 F12000 X35.79 Y-30.5
G1 F2400 X-35.789 Y-30.499 E5560.29161
G0 F12000 X-35.789 Y-30.999
G1 F2400 X35.79 Y-31 E5564.75548
G0 F12000 X35.79 Y-31.5
G1 F2400 X-35.789 Y-31.499 E5569.21934
G0 F12000 X-35.787 Y-31.986
G1 F2400 X-36.596 Y-33.387 E5569.32023
G0 F12000 X-35.789 Y-33.5
G1 F2400 X35.79 Y-33.5 E5573.78409
G0 F12000 X35.79 Y-33
G1 F2400 X-35.789 Y-33 E5578.24796
G0 F12000 X-35.789 Y-32.499
G1 F2400 X35.79 Y-32.5 E5582.71182
G0 F12000 X35.79 Y-32
G1 F2400 X-35.789 Y-31.999 E5587.17568
G0 F12000 X-35.789 Y-34
G1 F2400 X35.79 Y-34 E5591.63955
G0 F12000 X35.79 Y-34.5
G1 F2400 X-35.789 Y-34.5 E5596.10341
G0 F12000 X-35.789 Y-35
G1 F2400 X-36.598 Y-35 E5596.15386
G0 F12000 X-35.789 Y-35
G1 F2400 X35.79 Y-35 E5600.61773
G1 X36.599 Y-35 E5600.66818
G0 F12000 X35.79 Y-35.5
G1 F2400 X-35.789 Y-35.5 E5605.13204
G0 F12000 X-32.676 Y-36.597
G1 F2400 X-32.209 Y-35.788 E5605.1903
G0 F12000 X-31.299 Y-35.788
G1 F2400 X-30.832 Y-36.597 E5605.24855
G0 F12000 X-26.903 Y-36.597
G1 F2400 X-26.436 Y-35.788 E5605.3068
G0 F12000 X-25.525 Y-35.788
G1 F2400 X-25.058 Y-36.597 E5605.36506
G0 F12000 X-21.129 Y-36.597
G1 F2400 X-20.662 Y-35.788 E5605.42331
G0 F12000 X-19.751 Y-35.788
G1 F2400 X-19.284 Y-36.597 E5605.48156
G0 F12000 X-15.356 Y-36.598
G1 F2400 X-14.888 Y-35.788 E5605.5399
G0 F12000 X-13.978 Y-35.788
G1 F2400 X-13.511 Y-36.596 E5605.5981
G0 F12000 X-9.582 Y-36.597
G1 F2400 X-9.115 Y-35.788 E5605.65636
G0 F12000 X-8.205 Y-35.788
G1 F2400 X-7.738 Y-36.597 E5605.71461
G0 F12000 X-3.809 Y-36.597
G1 F2400 X-3.342 Y-35.788 E5605.77287
G0 F12000 X-2.431 Y-35.788
G1 F2400 X-1.964 Y-36.597 E5605.83112
G0 F12000 X1.964 Y-36.597
G1 F2400 X2.431 Y-35.788 E5605.88937
G0 F12000 X3.342 Y-35.788
G1 F2400 X3.809 Y-36.597 E5605.94763
G0 F12000 X7.738 Y-36.597
G1 F2400 X8.205 Y-35.788 E5606.00588
G0 F12000 X9.115 Y-35.788
G1 F2400 X9.582 Y-36.597 E5606.06414
G0 F12000 X13.511 Y-36.597
G1 F2400 X13.978 Y-35.788 E5606.12239
G0 F12000 X14.889 Y-35.789
G1 F2400 X15.356 Y-36.598 E5606.18064
G0 F12000 X19.284 Y-36.597
G1 F2400 X19.751 Y-35.788 E5606.2389
G0 F12000 X20.662 Y-35.788
G1 F2400 X21.13 Y-36.598 E5606.29724
G0 F12000 X25.058 Y-36.597
G1 F2400 X25.525 Y-35.788 E5606.35549
G0 F12000 X26.436 Y-35.788
G1 F2400 X26.903 Y-36.597 E5606.41374
G0 F12000 X30.832 Y-36.597
G1 F2400 X31.299 Y-35.788 E5606.472
G0 F12000 X32.209 Y-35.788
G1 F2400 X32.676 Y-36.597 E5606.53025
G1 F6000 E5604.03025
G0 F2400 X32.209 Y-35.788
G0 X31.299 Y-35.788
G0 X30.832 Y-36.597
G0 X26.903 Y-36.597
G0 X26.436 Y-35.788
G0 X25.525 Y-35.788
G0 X25.058 Y-36.597
G0 X24.544 Y-36.597
G1 Z3.8
G0 F12000 X36.598 Y-33.39
G1 Z3.3
G1 F6000 E5606.53025
G1 F2400 X35.789 Y-31.989 E5606.63114
G0 F12000 X36.598 Y-23.39
G1 F2400 X35.789 Y-21.989 E5606.73203
G0 F12000 X36.598 Y-13.39
G1 F2400 X35.789 Y-11.989 E5606.83292
G0 F12000 X36.598 Y-3.39
G1 F2400 X35.789 Y-1.989 E5606.93381
G0 F12000 X36.598 Y6.608
G1 F2400 X35.789 Y8.01 E5607.03476
G1 F6000 E5604.53476
G0 F2400 X36.598 Y6.608
G0 X35.813 Y-1.738
G1 Z3.8
G0 F12000 X36.598 Y16.609
G1 Z3.3
G1 F6000 E5607.03476
G1 F2400 X35.79 Y18.009 E5607.13556
G0 F12000 X35.79 Y26.999
G1 F2400 X-35.789 Y27 E5611.59943
G0 F12000 X-35.789 Y27.5
G1 F2400 X35.79 Y27.499 E5616.06329
G0 F12000 X35.79 Y27.999
G1 F2400 X-35.789 Y28 E5620.52716
G0 F12000 X-35.789 Y28.011
G1 F2400 X-36.598 Y26.61 E5620.62805
G1 F6000 E5618.12805
G0 F2400 X-35.789 Y28.011
G0 X-35.789 Y28
G0 X-27.417 Y28
G1 Z3.8
G0 F12000 X-32.21 Y35.789
G1 Z3.3
G1 F6000 E5620.62805
G1 F2400 X-32.677 Y36.598 E5620.6863
G0 F12000 X-31.298 Y35.789
G1 F2400 X-30.831 Y36.598 E5620.74455
G0 F12000 X-26.903 Y36.598
G1 F2400 X-26.436 Y35.789 E5620.80281
G0 F12000 X-25.525 Y35.789
G1 F2400 X-25.058 Y36.598 E5620.86106
G0 F12000 X-21.13 Y36.598
G1 F2400 X-20.663 Y35.789 E5620.91932
G0 F12000 X-19.751 Y35.789
G1 F2400 X-19.284 Y36.598 E5620.97757
G0 F12000 X-15.356 Y36.598
G1 F2400 X-14.889 Y35.79 E5621.03577
G0 F12000 X-13.977 Y35.789
G1 F2400 X-13.51 Y36.598 E5621.09402
G0 F12000 X-9.583 Y36.598
G1 F2400 X-9.116 Y35.789 E5621.15228
G0 F12000 X-8.204 Y35.79
G1 F2400 X-7.737 Y36.598 E5621.21048
G0 F12000 X-3.809 Y36.598
G1 F2400 X-3.342 Y35.789 E5621.26873
G0 F12000 X-2.431 Y35.789
G1 F2400 X-1.964 Y36.598 E5621.32699
G0 F12000 X1.963 Y36.599
G1 F2400 X2.431 Y35.789 E5621.38532
G0 F12000 X3.342 Y35.789
G1 F2400 X3.809 Y36.598 E5621.44358
G0 F12000 X7.737 Y36.598
G1 F2400 X8.204 Y35.79 E5621.50178
G0 F12000 X9.116 Y35.789
G1 F2400 X9.583 Y36.598 E5621.56003
G0 F12000 X13.51 Y36.598
G1 F2400 X13.977 Y35.789 E5621.61829
G0 F12000 X14.889 Y35.79
G1 F2400 X15.356 Y36.598 E5621.67649
G0 F12000 X19.284 Y36.598
G1 F2400 X19.751 Y35.789 E5621.73474
G0 F12000 X20.663 Y35.79
G1 F2400 X21.13 Y36.599 E5621.79299
G0 F12000 X25.057 Y36.599
G1 F2400 X25.524 Y35.79 E5621.85125
G0 F12000 X26.436 Y35.789
G1 F2400 X26.903 Y36.598 E5621.9095
G0 F12000 X30.831 Y36.598
G1 F2400 X31.298 Y35.79 E5621.9677
G0 F12000 X32.21 Y35.789
G1 F2400 X32.677 Y36.598 E5622.02596
G1 F6000 E5619.52596
G0 F2400 X32.21 Y35.789
G0 X31.298 Y35.79
G0 X30.831 Y36.598
G0 X26.903 Y36.598
G0 X26.436 Y35.789
G0 X25.524 Y35.79
G0 X25.057 Y36.599
G0 X24.544 Y36.599
G1 Z3.8
G0 F12000 X35.79 Y29.999
G1 Z3.3
G1 F6000 E5622.02596
G1 F2400 X36.599 Y29.999 E5622.07641
; Layer Change GCode
; LAYER:11
G0 F12000 X36.599 Y29.999 Z3.6
G0 X-37.348 Y37.349
G0 X-37.848 Y37.849
G0 X-37.348 Y37.349
G0 X-36.848 Y36.849
; TYPE:WALL-INNER
G1 F2400 X-36.848 Y-36.848 E5626.67236
G1 X36.849 Y-36.848 E5631.2683
G1 X36.849 Y36.849 E5635.86425
