; generated by Slic3r 1.2.9 on 2017-11-09 at 17:47:40
; external perimeters extrusion width = 0.10mm
; perimeters extrusion width = 0.60mm
; infill extrusion width = 0.60mm
; solid infill extrusion width = 0.60mm
; top infill extrusion width = 0.60mm
M107
M190 S60 ; set bed temperature
M104 S200 ; set temperature
G28
M109 S200 ; wait for temperature to be reached
G21 ; set units to millimeters
G90 ; use absolute coordinates
M82 ; use absolute distances for extrusion
G92 E0
G1 Z0.300 F12000.000
; LAYER:0
G1 E-2.50000 F6000.00000
G92 E0
G1 Z0.800 F12000.000
G1 X17.240 Y0.000 F12000.000
G1 Z0.300 F12000.000
G1 E2.50000 F6000.00000
G1 X17.240 Y13.589 E3.05189 F900.000
G1 X16.846 Y15.240 E3.12083
G1 X15.747 Y16.534 E3.18976
G1 X13.589 Y17.240 E3.28199
G1 X-13.589 Y17.240 E4.38577
G1 X-15.240 Y16.846 E4.45471
G1 X-16.534 Y15.747 E4.52364
G1 X-17.240 Y13.589 E4.61588
G1 X-17.240 Y-13.589 E5.71966
G1 X-16.846 Y-15.240 E5.78859
G1 X-15.747 Y-16.534 E5.85753
G1 X-13.589 Y-17.240 E5.94976
G1 X13.589 Y-17.240 E7.05354
G1 X15.240 Y-16.846 E7.12248
G1 X16.534 Y-15.747 E7.19141 F900.000
G1 X17.240 Y-13.589 E7.28364
G1 X17.240 Y-0.075 E7.83249
G1 X16.915 Y0.000 F12000.000
G1 X16.915 Y13.589 E8.38438 F900.000
G1 X16.521 Y15.159 E8.45012
G1 X15.432 Y16.357 E8.51587
G1 X13.589 Y16.915 E8.59407
G1 X-13.589 Y16.915 E9.69785
G1 X-15.159 Y16.521 E9.76359
G1 X-16.357 Y15.432 E9.82934
G1 X-16.915 Y13.589 E9.90754
G1 X-16.915 Y-13.589 E11.01132
G1 X-16.521 Y-15.159 E11.07706
G1 X-15.432 Y-16.357 E11.14281
G1 X-13.589 Y-16.915 E11.22101
G1 X13.589 Y-16.915 E12.32479
G1 X15.159 Y-16.521 E12.39053
G1 X16.357 Y-15.432 E12.45628 F900.000
G1 X16.915 Y-13.589 E12.53448
G1 X16.915 Y-0.075 E13.08332
G1 F9600
G1 X16.915 Y3.925 E10.70832
G1 E10.58332 F6000.00000
G92 E0
G1 Z0.800 F12000.000
G1 X12.743 Y-12.743 F12000.000
G1 Z0.300 F12000.000
G1 E2.50000 F6000.00000
G1 X12.743 Y12.743 E3.53505 F900.000
G1 X-12.743 Y12.743 E4.57009
G1 X-12.743 Y-12.743 E5.60514
G1 X12.668 Y-12.743 E6.63713
G1 X13.068 Y-13.068 F12000.000
G1 X13.068 Y13.068 E7.69863 F900.000
G1 X-13.068 Y13.068 E8.76012
G1 X-13.068 Y-13.068 E9.82162
G1 X12.993 Y-13.068 E10.88006
G1 X13.394 Y-13.394 F12000.000
G1 X13.394 Y13.394 E11.96801 F900.000
G1 X-13.394 Y13.394 E13.05595
G1 X-13.394 Y-13.394 E14.14389
G1 X13.319 Y-13.394 E15.22879
G1 X13.144 Y-12.961 F12000.000
G1 X12.564 Y-12.466 F12000.000
G1 X-12.564 Y-12.466 E16.25691 F900.000
G1 X-12.564 Y-12.138 E16.27034
G1 X12.564 Y-12.138 E17.29846
G1 X12.564 Y-11.810 E17.31189
G1 X-12.564 Y-11.810 E18.34001
G1 X-12.564 Y-11.482 E18.35344
G1 X12.564 Y-11.482 E19.38157
G1 X12.564 Y-11.154 E19.39499
G1 X-12.564 Y-11.154 E20.42312
G1 X-12.564 Y-10.826 E20.43654
G1 X12.564 Y-10.826 E21.46467
G1 X12.564 Y-10.498 E21.47809
G1 X-12.564 Y-10.498 E22.50622
G1 X-12.564 Y-10.170 E22.51964
G1 X12.564 Y-10.170 E23.54777
G1 X12.564 Y-9.842 E23.56119
G1 X-12.564 Y-9.842 E24.58932
G1 X-12.564 Y-9.514 E24.60274
G1 X12.564 Y-9.514 E25.63087
G1 X12.564 Y-9.185 E25.64429
G1 X-12.564 Y-9.185 E26.67242
G1 X-12.564 Y-8.857 E26.68584
G1 X12.564 Y-8.857 E27.71397
G1 X12.564 Y-8.529 E27.72739
G1 X-12.564 Y-8.529 E28.75552
G1 X-12.564 Y-8.201 E28.76894
G1 X12.564 Y-8.201 E29.79707
G1 X12.564 Y-7.873 E29.81049
G1 X-12.564 Y-7.873 E30.83862
G1 X-12.564 Y-7.545 E30.85204
G1 X12.564 Y-7.545 E31.88017
G1 X12.564 Y-7.217 E31.89359
G1 X-12.564 Y-7.217 E32.92172
G1 X-12.564 Y-6.889 E32.93514
G1 X12.564 Y-6.889 E33.96327
G1 X12.564 Y-6.561 E33.97669
G1 X-12.564 Y-6.561 E35.00482
G1 X-12.564 Y-6.233 E35.01824
G1 X12.564 Y-6.233 E36.04637
G1 X12.564 Y-5.905 E36.05979
G1 X-12.564 Y-5.905 E37.08792
G1 X-12.564 Y-5.577 E37.10134
G1 X12.564 Y-5.577 E38.12947
G1 X12.564 Y-5.249 E38.14289
G1 X-12.564 Y-5.249 E39.17102
G1 X-12.564 Y-4.921 E39.18444
G1 X12.564 Y-4.921 E40.21257
G1 X12.564 Y-4.593 E40.22599
G1 X-12.564 Y-4.593 E41.25412
G1 X-12.564 Y-4.265 E41.26754
G1 X12.564 Y-4.265 E42.29567
G1 X12.564 Y-3.937 E42.30909
G1 X-12.564 Y-3.937 E43.33722
G1 X-12.564 Y-3.609 E43.35064
G1 X12.564 Y-3.609 E44.37877
G1 X12.564 Y-3.281 E44.39219
G1 X-12.564 Y-3.281 E45.42032
G1 X-12.564 Y-2.952 E45.43374
G1 X12.564 Y-2.952 E46.46187
G1 X12.564 Y-2.624 E46.47529
G1 X-12.564 Y-2.624 E47.50342
G1 X-12.564 Y-2.296 E47.51684
G1 X12.564 Y-2.296 E48.54497
G1 X12.564 Y-1.968 E48.55839
G1 X-12.564 Y-1.968 E49.58652
G1 X-12.564 Y-1.640 E49.59995
G1 X12.564 Y-1.640 E50.62807
G1 X12.564 Y-1.312 E50.64150
G1 X-12.564 Y-1.312 E51.66962
G1 X-12.564 Y-0.984 E51.68305
G1 X12.564 Y-0.984 E52.71117
G1 X12.564 Y-0.656 E52.72460
G1 X-12.564 Y-0.656 E53.75272
G1 X-12.564 Y-0.328 E53.76615
G1 X12.564 Y-0.328 E54.79427
G1 X12.564 Y0.000 E54.80770
G1 X-12.564 Y0.000 E55.83582
G1 X-12.564 Y0.328 E55.84925
G1 X12.564 Y0.328 E56.87737
G1 X12.564 Y0.656 E56.89080
G1 X-12.564 Y0.656 E57.91892
G1 X-12.564 Y0.984 E57.93235
G1 X12.564 Y0.984 E58.96047
G1 X12.564 Y1.312 E58.97390
G1 X-12.564 Y1.312 E60.00202
G1 X-12.564 Y1.640 E60.01545
G1 X12.564 Y1.640 E61.04357
G1 X12.564 Y1.968 E61.05700
G1 X-12.564 Y1.968 E62.08513
G1 X-12.564 Y2.296 E62.09855
G1 X12.564 Y2.296 E63.12668
G1 X12.564 Y2.624 E63.14010
G1 X-12.564 Y2.624 E64.16823
G1 X-12.564 Y2.952 E64.18165
G1 X12.564 Y2.952 E65.20978
G1 X12.564 Y3.281 E65.22320
G1 X-12.564 Y3.281 E66.25133
G1 X-12.564 Y3.609 E66.26475
G1 X12.564 Y3.609 E67.29288
G1 X12.564 Y3.937 E67.30630
G1 X-12.564 Y3.937 E68.33443
G1 X-12.564 Y4.265 E68.34785
G1 X12.564 Y4.265 E69.37598
G1 X12.564 Y4.593 E69.38940
G1 X-12.564 Y4.593 E70.41753
G1 X-12.564 Y4.921 E70.43095
G1 X12.564 Y4.921 E71.45908
G1 X12.564 Y5.249 E71.47250
G1 X-12.564 Y5.249 E72.50063
G1 X-12.564 Y5.577 E72.51405
G1 X12.564 Y5.577 E73.54218
G1 X12.564 Y5.905 E73.55560
G1 X-12.564 Y5.905 E74.58373
G1 X-12.564 Y6.233 E74.59715
G1 X12.564 Y6.233 E75.62528
G1 X12.564 Y6.561 E75.63870
G1 X-12.564 Y6.561 E76.66683
G1 X-12.564 Y6.889 E76.68025
G1 X12.564 Y6.889 E77.70838
G1 X12.564 Y7.217 E77.72180
G1 X-12.564 Y7.217 E78.74993
G1 X-12.564 Y7.545 E78.76335
G1 X12.564 Y7.545 E79.79148
G1 X12.564 Y7.873 E79.80490
G1 X-12.564 Y7.873 E80.83303
G1 X-12.564 Y8.201 E80.84645
G1 X12.564 Y8.201 E81.87458
G1 X12.564 Y8.529 E81.88800
G1 X-12.564 Y8.529 E82.91613
G1 X-12.564 Y8.857 E82.92955
G1 X12.564 Y8.857 E83.95768
G1 X12.564 Y9.186 E83.97110
G1 X-12.564 Y9.186 E84.99923
G1 X-12.564 Y9.514 E85.01265
G1 X12.564 Y9.514 E86.04078
G1 X12.564 Y9.842 E86.05420
G1 X-12.564 Y9.842 E87.08233
G1 X-12.564 Y10.170 E87.09575
G1 X12.564 Y10.170 E88.12388
G1 X12.564 Y10.498 E88.13730
G1 X-12.564 Y10.498 E89.16543
G1 X-12.564 Y10.826 E89.17885
G1 X12.564 Y10.826 E90.20698
G1 X12.564 Y11.154 E90.22040
G1 X-12.564 Y11.154 E91.24853
G1 X-12.564 Y11.482 E91.26195
G1 X12.564 Y11.482 E92.29008
G1 X12.564 Y11.810 E92.30350
G1 X-12.564 Y11.810 E93.33163
G1 X-12.564 Y12.138 E93.34506
G1 X12.564 Y12.138 E94.37318
G1 X12.564 Y12.466 E94.38661
G1 X-12.564 Y12.466 E95.41473
M104 S210 ; set temperature
G1 Z0.400 F12000.000
; LAYER:1
G1 X12.632 Y-12.632 F12000.000
G1 X12.632 Y12.632 E96.02240 F2400.000
G1 X-12.632 Y12.632 E96.63007
G1 X-12.632 Y-12.632 E97.23774
G1 X12.557 Y-12.632 E97.84360
G1 X13.210 Y-13.210 F12000.000
G1 X13.210 Y13.210 E98.47910 F2400.000
G1 X-13.210 Y13.210 E99.11460
G1 X-13.210 Y-13.210 E99.75010
G1 X13.135 Y-13.210 E100.38380
G1 X13.539 Y-13.539 F12000.000
G1 X13.539 Y13.539 E100.47222 F1800.000
G1 X-13.539 Y13.539 E100.56063
G1 X-13.539 Y-13.539 E100.64905
G1 X13.464 Y-13.539 E100.73722
G1 X13.289 Y-13.106 F12000.000
G1 X12.140 Y12.314 F12000.000
G1 X12.140 Y-12.314 E101.34358 F1800.000
G1 X11.548 Y-12.314 E101.35816
G1 X11.548 Y12.314 E101.96451
G1 X10.956 Y12.314 E101.97909
G1 X10.956 Y-12.314 E102.58545
G1 X10.364 Y-12.314 E102.60003
G1 X10.364 Y12.314 E103.20638
G1 X9.771 Y12.314 E103.22096
G1 X9.771 Y-12.314 E103.82732
G1 X9.179 Y-12.314 E103.84190
G1 X9.179 Y12.314 E104.44825
G1 X8.587 Y12.314 E104.46283
G1 X8.587 Y-12.314 E105.06919
G1 X7.995 Y-12.314 E105.08377
G1 X7.995 Y12.314 E105.69012
G1 X7.403 Y12.314 E105.70470
G1 X7.403 Y-12.314 E106.31106
G1 X6.810 Y-12.314 E106.32564
G1 X6.810 Y12.314 E106.93199
G1 X6.218 Y12.314 E106.94657
G1 X6.218 Y-12.314 E107.55293
G1 X5.626 Y-12.314 E107.56751
G1 X5.626 Y12.314 E108.17386
G1 X5.034 Y12.314 E108.18844
G1 X5.034 Y-12.314 E108.79480
G1 X4.442 Y-12.314 E108.80938
G1 X4.442 Y12.314 E109.41573
G1 X3.849 Y12.314 E109.43031
G1 X3.849 Y-12.314 E110.03667
G1 X3.257 Y-12.314 E110.05125
G1 X3.257 Y12.314 E110.65760
G1 X2.665 Y12.314 E110.67218
G1 X2.665 Y-12.314 E111.27853
G1 X2.073 Y-12.314 E111.29312
G1 X2.073 Y12.314 E111.89947
G1 X1.480 Y12.314 E111.91405
G1 X1.480 Y-12.314 E112.52040
G1 X0.888 Y-12.314 E112.53498
G1 X0.888 Y12.314 E113.14134
G1 X0.296 Y12.314 E113.15592
G1 X0.296 Y-12.314 E113.76227
G1 X-0.296 Y-12.314 E113.77685
G1 X-0.296 Y12.314 E114.38321
G1 X-0.888 Y12.314 E114.39779
G1 X-0.888 Y-12.314 E115.00414
G1 X-1.481 Y-12.314 E115.01872
G1 X-1.481 Y12.314 E115.62508
G1 X-2.073 Y12.314 E115.63966
G1 X-2.073 Y-12.314 E116.24601
G1 X-2.665 Y-12.314 E116.26059
G1 X-2.665 Y12.314 E116.86695
G1 X-3.257 Y12.314 E116.88153
G1 X-3.257 Y-12.314 E117.48788
G1 X-3.849 Y-12.314 E117.50246
G1 X-3.849 Y12.314 E118.10882
G1 X-4.442 Y12.314 E118.12340
G1 X-4.442 Y-12.314 E118.72975
G1 X-5.034 Y-12.314 E118.74433
G1 X-5.034 Y12.314 E119.35069
G1 X-5.626 Y12.314 E119.36527
G1 X-5.626 Y-12.314 E119.97162
G1 X-6.218 Y-12.314 E119.98620
G1 X-6.218 Y12.314 E120.59256
G1 X-6.810 Y12.314 E120.60714
G1 X-6.810 Y-12.314 E121.21349
G1 X-7.403 Y-12.314 E121.22807
G1 X-7.403 Y12.314 E121.83443
G1 X-7.995 Y12.314 E121.84901
G1 X-7.995 Y-12.314 E122.45536
G1 X-8.587 Y-12.314 E122.46994
G1 X-8.587 Y12.314 E123.07629
G1 X-9.179 Y12.314 E123.09088
G1 X-9.179 Y-12.314 E123.69723
G1 X-9.771 Y-12.314 E123.71181
G1 X-9.771 Y12.314 E124.31816
G1 X-10.364 Y12.314 E124.33274
G1 X-10.364 Y-12.314 E124.93910
G1 X-10.956 Y-12.314 E124.95368
G1 X-10.956 Y12.314 E125.56003
G1 X-11.548 Y12.314 E125.57461
G1 X-11.548 Y-12.314 E126.18097
G1 X-12.140 Y-12.314 E126.19555
G1 X-12.140 Y12.314 E126.80190
M106 S206.55
G1 Z0.500 F12000.000
; LAYER:2
G1 X12.632 Y-12.632 F12000.000
G1 X12.632 Y12.632 E127.40957 F2400.000
G1 X-12.632 Y12.632 E128.01724
G1 X-12.632 Y-12.632 E128.62491
G1 X12.557 Y-12.632 E129.23077
G1 X13.210 Y-13.210 F12000.000
G1 X13.210 Y13.210 E129.86627 F2400.000
G1 X-13.210 Y13.210 E130.50177
G1 X-13.210 Y-13.210 E131.13727
G1 X13.135 Y-13.210 E131.77097
G1 X13.539 Y-13.539 F12000.000
G1 X13.539 Y13.539 E131.85939 F1800.000
G1 X-13.539 Y13.539 E131.94780
G1 X-13.539 Y-13.539 E132.03622
G1 X13.464 Y-13.539 E132.12439
G1 X13.289 Y-13.106 F12000.000
G1 X12.314 Y-12.140 F12000.000
G1 X-12.314 Y-12.140 E132.73075 F1800.000
G1 X-12.314 Y-11.548 E132.74533
G1 X12.314 Y-11.548 E133.35168
G1 X12.314 Y-10.956 E133.36626
G1 X-12.314 Y-10.956 E133.97262
G1 X-12.314 Y-10.364 E133.98720
G1 X12.314 Y-10.364 E134.59355
G1 X12.314 Y-9.771 E134.60813
G1 X-12.314 Y-9.771 E135.21449
G1 X-12.314 Y-9.179 E135.22907
G1 X12.314 Y-9.179 E135.83542
G1 X12.314 Y-8.587 E135.85000
G1 X-12.314 Y-8.587 E136.45636
G1 X-12.314 Y-7.995 E136.47094
G1 X12.314 Y-7.995 E137.07729
G1 X12.314 Y-7.403 E137.09187
G1 X-12.314 Y-7.403 E137.69823
G1 X-12.314 Y-6.810 E137.71281
G1 X12.314 Y-6.810 E138.31916
G1 X12.314 Y-6.218 E138.33374
G1 X-12.314 Y-6.218 E138.94010
G1 X-12.314 Y-5.626 E138.95468
G1 X12.314 Y-5.626 E139.56103
G1 X12.314 Y-5.034 E139.57561
G1 X-12.314 Y-5.034 E140.18197
G1 X-12.314 Y-4.442 E140.19655
G1 X12.314 Y-4.442 E140.80290
G1 X12.314 Y-3.849 E140.81748
G1 X-12.314 Y-3.849 E141.42384
G1 X-12.314 Y-3.257 E141.43842
G1 X12.314 Y-3.257 E142.04477
G1 X12.314 Y-2.665 E142.05935
G1 X-12.314 Y-2.665 E142.66570
G1 X-12.314 Y-2.073 E142.68029
G1 X12.314 Y-2.073 E143.28664
G1 X12.314 Y-1.480 E143.30122
G1 X-12.314 Y-1.480 E143.90757
G1 X-12.314 Y-0.888 E143.92216
G1 X12.314 Y-0.888 E144.52851
G1 X12.314 Y-0.296 E144.54309
G1 X-12.314 Y-0.296 E145.14944
G1 X-12.314 Y0.296 E145.16402
G1 X12.314 Y0.296 E145.77038
G1 X12.314 Y0.888 E145.78496
G1 X-12.314 Y0.888 E146.39131
G1 X-12.314 Y1.481 E146.40589
G1 X12.314 Y1.481 E147.01225
G1 X12.314 Y2.073 E147.02683
G1 X-12.314 Y2.073 E147.63318
G1 X-12.314 Y2.665 E147.64776
G1 X12.314 Y2.665 E148.25412
G1 X12.314 Y3.257 E148.26870
G1 X-12.314 Y3.257 E148.87505
G1 X-12.314 Y3.849 E148.88963
G1 X12.314 Y3.849 E149.49599
G1 X12.314 Y4.442 E149.51057
G1 X-12.314 Y4.442 E150.11692
G1 X-12.314 Y5.034 E150.13150
G1 X12.314 Y5.034 E150.73786
G1 X12.314 Y5.626 E150.75244
G1 X-12.314 Y5.626 E151.35879
G1 X-12.314 Y6.218 E151.37337
G1 X12.314 Y6.218 E151.97973
G1 X12.314 Y6.810 E151.99431
G1 X-12.314 Y6.810 E152.60066
G1 X-12.314 Y7.403 E152.61524
G1 X12.314 Y7.403 E153.22160
G1 X12.314 Y7.995 E153.23618
G1 X-12.314 Y7.995 E153.84253
G1 X-12.314 Y8.587 E153.85711
G1 X12.314 Y8.587 E154.46347
G1 X12.314 Y9.179 E154.47805
G1 X-12.314 Y9.179 E155.08440
G1 X-12.314 Y9.771 E155.09898
G1 X12.314 Y9.771 E155.70533
G1 X12.314 Y10.364 E155.71992
G1 X-12.314 Y10.364 E156.32627
G1 X-12.314 Y10.956 E156.34085
G1 X12.314 Y10.956 E156.94720
G1 X12.314 Y11.548 E156.96178
G1 X-12.314 Y11.548 E157.56814
G1 X-12.314 Y12.140 E157.58272
G1 X12.314 Y12.140 E158.18907
M106 S255
G1 Z0.600 F12000.000
; LAYER:3
G1 X12.632 Y-12.632 F12000.000
G1 X12.632 Y12.632 E158.79674 F933.702
G1 X-12.632 Y12.632 E159.40441
G1 X-12.632 Y-12.632 E160.01208
G1 X12.557 Y-12.632 E160.61794
G1 X13.210 Y-13.210 F12000.000
G1 X13.210 Y13.210 E161.25344 F933.702
G1 X-13.210 Y13.210 E161.88894
G1 X-13.210 Y-13.210 E162.52444
G1 X13.135 Y-13.210 E163.15814
G1 X13.539 Y-13.539 F12000.000
G1 X13.539 Y13.539 E163.24656 F700.277
G1 X-13.539 Y13.539 E163.33497
G1 X-13.539 Y-13.539 E163.42339
G1 X13.464 Y-13.539 E163.51157
G1 X13.289 Y-13.106 F12000.000
G1 X9.822 Y12.334 F12000.000
G1 X9.822 Y-12.314 E164.10441 F933.702
G1 X4.036 Y-12.314 E164.24356
G1 X4.036 Y12.334 E164.83641
G1 X-1.749 Y12.334 E164.97556
G1 X-1.749 Y-12.314 E165.56841
G1 X-7.534 Y-12.314 E165.70756
G1 X-7.534 Y12.334 E166.30040
G1 Z0.700 F12000.000
; LAYER:4
G1 X12.632 Y-12.632 F12000.000
G1 X12.632 Y12.632 E166.90807 F933.702
G1 X-12.632 Y12.632 E167.51574
G1 X-12.632 Y-12.632 E168.12341
G1 X12.557 Y-12.632 E168.72927
G1 X13.210 Y-13.210 F12000.000
G1 X13.210 Y13.210 E169.36477 F933.702
G1 X-13.210 Y13.210 E170.00027
G1 X-13.210 Y-13.210 E170.63577
G1 X13.135 Y-13.210 E171.26947
G1 X13.539 Y-13.539 F12000.000
G1 X13.539 Y13.539 E171.35789 F700.277
G1 X-13.539 Y13.539 E171.44630
G1 X-13.539 Y-13.539 E171.53472
G1 X13.464 Y-13.539 E171.62290
G1 X13.289 Y-13.106 F12000.000
G1 X12.334 Y-9.822 F12000.000
G1 X-12.314 Y-9.822 E172.21574 F933.702
G1 X-12.314 Y-4.036 E172.35489
G1 X12.334 Y-4.036 E172.94774
G1 X12.334 Y1.749 E173.08689
G1 X-12.314 Y1.749 E173.67974
G1 X-12.314 Y7.534 E173.81889
G1 X12.334 Y7.534 E174.41173
G1 Z0.800 F12000.000
; LAYER:5
G1 X12.632 Y-12.632 F12000.000
G1 X12.632 Y12.632 E175.01940 F933.702
G1 X-12.632 Y12.632 E175.62707
G1 X-12.632 Y-12.632 E176.23474
G1 X12.557 Y-12.632 E176.84060
G1 X13.210 Y-13.210 F12000.000
G1 X13.210 Y13.210 E177.47610 F933.702
G1 X-13.210 Y13.210 E178.11160
G1 X-13.210 Y-13.210 E178.74710
G1 X13.135 Y-13.210 E179.38080
G1 X13.539 Y-13.539 F12000.000
G1 X13.539 Y13.539 E179.46922 F700.277
G1 X-13.539 Y13.539 E179.55764
G1 X-13.539 Y-13.539 E179.64605
G1 X13.464 Y-13.539 E179.73423
G1 X13.289 Y-13.106 F12000.000
G1 X9.822 Y12.334 F12000.000
G1 X9.822 Y-12.314 E180.32707 F933.702
G1 X4.036 Y-12.314 E180.46622
G1 X4.036 Y12.334 E181.05907
G1 X-1.749 Y12.334 E181.19822
G1 X-1.749 Y-12.314 E181.79107
G1 X-7.534 Y-12.314 E181.93022
G1 X-7.534 Y12.334 E182.52306
G1 Z0.900 F12000.000
; LAYER:6
G1 X12.632 Y-12.632 F12000.000
G1 X12.632 Y12.632 E183.13073 F933.702
G1 X-12.632 Y12.632 E183.73840
G1 X-12.632 Y-12.632 E184.34607
G1 X12.557 Y-12.632 E184.95194
G1 X13.210 Y-13.210 F12000.000
G1 X13.210 Y13.210 E185.58743 F933.702
G1 X-13.210 Y13.210 E186.22293
G1 X-13.210 Y-13.210 E186.85843
G1 X13.135 Y-13.210 E187.49213
G1 X13.539 Y-13.539 F12000.000
G1 X13.539 Y13.539 E187.58055 F700.277
G1 X-13.539 Y13.539 E187.66897
G1 X-13.539 Y-13.539 E187.75738
