; generated by Slic3r 1.2.9 on 2017-11-09 at 17:48:49
; external perimeters extrusion width = 0.10mm
; perimeters extrusion width = 0.60mm
; infill extrusion width = 0.60mm
; solid infill extrusion width = 0.60mm
; top infill extrusion width = 0.60mm
M107
M190 S60 ; set bed temperature
M104 S200 ; set temperature
G28
M109 S200 ; wait for temperature to be reached
G21 ; set units to millimeters
G90 ; use absolute coordinates
M82 ; use absolute distances for extrusion
G92 E0
G1 Z0.300 F12000.000
; LAYER:0
G1 E-2.50000 F6000.00000
G92 E0
G1 Z0.800 F12000.000
G1 X15.462 Y0.000 F12000.000
G1 Z0.300 F12000.000
G1 E2.50000 F6000.00000
G1 X15.462 Y12.700 E3.01579 F900.000
G1 X15.068 Y14.351 E3.08472
G1 X13.969 Y15.645 E3.15365
G1 X11.811 Y16.351 E3.24589
G1 X-11.811 Y16.351 E4.20525
G1 X-13.462 Y15.957 E4.27418
G1 X-14.756 Y14.858 E4.34312
G1 X-15.462 Y12.700 E4.43535
G1 X-15.462 Y-12.700 E5.46692
G1 X-15.068 Y-14.351 E5.53586
G1 X-13.969 Y-15.645 E5.60479
G1 X-11.811 Y-16.351 E5.69703
G1 X11.811 Y-16.351 E6.65639
G1 X13.462 Y-15.957 E6.72532
G1 X14.756 Y-14.858 E6.79426 F900.000
G1 X15.462 Y-12.700 E6.88649
G1 X15.462 Y-0.075 E7.39923
G1 X15.137 Y0.000 F12000.000
G1 X15.137 Y12.700 E7.91501 F900.000
G1 X14.743 Y14.270 E7.98076
G1 X13.654 Y15.468 E8.04650
G1 X11.811 Y16.026 E8.12470
G1 X-11.811 Y16.026 E9.08406
G1 X-13.381 Y15.632 E9.14981
G1 X-14.579 Y14.543 E9.21555
G1 X-15.137 Y12.700 E9.29375
G1 X-15.137 Y-12.700 E10.32532
G1 X-14.743 Y-14.270 E10.39107
G1 X-13.654 Y-15.468 E10.45681
G1 X-11.811 Y-16.026 E10.53501
G1 X11.811 Y-16.026 E11.49437
G1 X13.381 Y-15.632 E11.56012
G1 X14.579 Y-14.543 E11.62586 F900.000
G1 X15.137 Y-12.700 E11.70406
G1 X15.137 Y-0.075 E12.21680
G1 F9600
G1 X15.137 Y3.925 E9.84180
G1 E9.71680 F6000.00000
G92 E0
G1 Z0.800 F12000.000
G1 X10.965 Y-11.854 F12000.000
G1 Z0.300 F12000.000
G1 E2.50000 F6000.00000
G1 X10.965 Y11.854 E3.46283 F900.000
G1 X-10.965 Y11.854 E4.35346
G1 X-10.965 Y-11.854 E5.31629
G1 X10.890 Y-11.854 E6.20387
G1 X11.290 Y-12.179 F12000.000
G1 X11.290 Y12.179 E7.19316 F900.000
G1 X-11.290 Y12.179 E8.11023
G1 X-11.290 Y-12.179 E9.09951
G1 X11.215 Y-12.179 E10.01354
G1 X11.616 Y-12.505 F12000.000
G1 X11.616 Y12.505 E11.02927 F900.000
G1 X-11.616 Y12.505 E11.97280
G1 X-11.616 Y-12.505 E12.98853
G1 X11.541 Y-12.505 E13.92901
G1 X11.366 Y-12.072 F12000.000
G1 X10.786 Y-11.577 F12000.000
G1 X-10.786 Y-11.577 E14.80641 F900.000
G1 X-10.786 Y-11.251 E14.81968
G1 X10.786 Y-11.251 E15.69709
G1 X10.786 Y-10.925 E15.71035
G1 X-10.786 Y-10.925 E16.58776
G1 X-10.786 Y-10.599 E16.60102
G1 X10.786 Y-10.599 E17.47843
G1 X10.786 Y-10.273 E17.49170
G1 X-10.786 Y-10.273 E18.36911
G1 X-10.786 Y-9.946 E18.38237
G1 X10.786 Y-9.946 E19.25978
G1 X10.786 Y-9.620 E19.27304
G1 X-10.786 Y-9.620 E20.15045
G1 X-10.786 Y-9.294 E20.16372
G1 X10.786 Y-9.294 E21.04112
G1 X10.786 Y-8.968 E21.05439
G1 X-10.786 Y-8.968 E21.93180
G1 X-10.786 Y-8.642 E21.94506
G1 X10.786 Y-8.642 E22.82247
G1 X10.786 Y-8.316 E22.83573
G1 X-10.786 Y-8.316 E23.71314
G1 X-10.786 Y-7.990 E23.72641
G1 X10.786 Y-7.990 E24.60382
G1 X10.786 Y-7.664 E24.61708
G1 X-10.786 Y-7.664 E25.49449
G1 X-10.786 Y-7.338 E25.50775
G1 X10.786 Y-7.338 E26.38516
G1 X10.786 Y-7.011 E26.39843
G1 X-10.786 Y-7.011 E27.27583
G1 X-10.786 Y-6.685 E27.28910
G1 X10.786 Y-6.685 E28.16651
G1 X10.786 Y-6.359 E28.17977
G1 X-10.786 Y-6.359 E29.05718
G1 X-10.786 Y-6.033 E29.07044
G1 X10.786 Y-6.033 E29.94785
G1 X10.786 Y-5.707 E29.96112
G1 X-10.786 Y-5.707 E30.83853
G1 X-10.786 Y-5.381 E30.85179
G1 X10.786 Y-5.381 E31.72920
G1 X10.786 Y-5.055 E31.74246
G1 X-10.786 Y-5.055 E32.61987
G1 X-10.786 Y-4.729 E32.63314
G1 X10.786 Y-4.729 E33.51054
G1 X10.786 Y-4.403 E33.52381
G1 X-10.786 Y-4.403 E34.40122
G1 X-10.786 Y-4.076 E34.41448
G1 X10.786 Y-4.076 E35.29189
G1 X10.786 Y-3.750 E35.30516
G1 X-10.786 Y-3.750 E36.18256
G1 X-10.786 Y-3.424 E36.19583
G1 X10.786 Y-3.424 E37.07324
G1 X10.786 Y-3.098 E37.08650
G1 X-10.786 Y-3.098 E37.96391
G1 X-10.786 Y-2.772 E37.97717
G1 X10.786 Y-2.772 E38.85458
G1 X10.786 Y-2.446 E38.86785
G1 X-10.786 Y-2.446 E39.74525
G1 X-10.786 Y-2.120 E39.75852
G1 X10.786 Y-2.120 E40.63593
G1 X10.786 Y-1.794 E40.64919
G1 X-10.786 Y-1.794 E41.52660
G1 X-10.786 Y-1.467 E41.53987
G1 X10.786 Y-1.467 E42.41727
G1 X10.786 Y-1.141 E42.43054
G1 X-10.786 Y-1.141 E43.30795
G1 X-10.786 Y-0.815 E43.32121
G1 X10.786 Y-0.815 E44.19862
G1 X10.786 Y-0.489 E44.21188
G1 X-10.786 Y-0.489 E45.08929
G1 X-10.786 Y-0.163 E45.10256
G1 X10.786 Y-0.163 E45.97996
G1 X10.786 Y0.163 E45.99323
G1 X-10.786 Y0.163 E46.87064
G1 X-10.786 Y0.489 E46.88390
G1 X10.786 Y0.489 E47.76131
G1 X10.786 Y0.815 E47.77458
G1 X-10.786 Y0.815 E48.65198
G1 X-10.786 Y1.141 E48.66525
G1 X10.786 Y1.141 E49.54266
G1 X10.786 Y1.468 E49.55592
G1 X-10.786 Y1.468 E50.43333
G1 X-10.786 Y1.794 E50.44659
G1 X10.786 Y1.794 E51.32400
G1 X10.786 Y2.120 E51.33727
G1 X-10.786 Y2.120 E52.21468
G1 X-10.786 Y2.446 E52.22794
G1 X10.786 Y2.446 E53.10535
G1 X10.786 Y2.772 E53.11861
G1 X-10.786 Y2.772 E53.99602
G1 X-10.786 Y3.098 E54.00929
G1 X10.786 Y3.098 E54.88669
G1 X10.786 Y3.424 E54.89996
G1 X-10.786 Y3.424 E55.77737
G1 X-10.786 Y3.750 E55.79063
G1 X10.786 Y3.750 E56.66804
G1 X10.786 Y4.076 E56.68130
G1 X-10.786 Y4.076 E57.55871
G1 X-10.786 Y4.403 E57.57198
G1 X10.786 Y4.403 E58.44939
G1 X10.786 Y4.729 E58.46265
G1 X-10.786 Y4.729 E59.34006
G1 X-10.786 Y5.055 E59.35332
G1 X10.786 Y5.055 E60.23073
G1 X10.786 Y5.381 E60.24400
G1 X-10.786 Y5.381 E61.12140
G1 X-10.786 Y5.707 E61.13467
G1 X10.786 Y5.707 E62.01208
G1 X10.786 Y6.033 E62.02534
G1 X-10.786 Y6.033 E62.90275
G1 X-10.786 Y6.359 E62.91601
G1 X10.786 Y6.359 E63.79342
G1 X10.786 Y6.685 E63.80669
G1 X-10.786 Y6.685 E64.68410
G1 X-10.786 Y7.011 E64.69736
G1 X10.786 Y7.011 E65.57477
G1 X10.786 Y7.338 E65.58803
G1 X-10.786 Y7.338 E66.46544
G1 X-10.786 Y7.664 E66.47871
G1 X10.786 Y7.664 E67.35611
G1 X10.786 Y7.990 E67.36938
G1 X-10.786 Y7.990 E68.24679
G1 X-10.786 Y8.316 E68.26005
G1 X10.786 Y8.316 E69.13746
G1 X10.786 Y8.642 E69.15072
G1 X-10.786 Y8.642 E70.02813
G1 X-10.786 Y8.968 E70.04140
G1 X10.786 Y8.968 E70.91881
G1 X10.786 Y9.294 E70.93207
G1 X-10.786 Y9.294 E71.80948
G1 X-10.786 Y9.620 E71.82274
G1 X10.786 Y9.620 E72.70015
G1 X10.786 Y9.946 E72.71342
G1 X-10.786 Y9.946 E73.59082
G1 X-10.786 Y10.273 E73.60409
G1 X10.786 Y10.273 E74.48150
G1 X10.786 Y10.599 E74.49476
G1 X-10.786 Y10.599 E75.37217
G1 X-10.786 Y10.925 E75.38543
G1 X10.786 Y10.925 E76.26284
G1 X10.786 Y11.251 E76.27611
G1 X-10.786 Y11.251 E77.15352
G1 X-10.786 Y11.577 E77.16678
G1 X10.786 Y11.577 E78.04419
M104 S210 ; set temperature
G1 Z0.400 F12000.000
; LAYER:1
G1 X10.854 Y-11.743 F12000.000
G1 X10.854 Y11.743 E78.60909 F2400.000
G1 X-10.854 Y11.743 E79.13123
G1 X-10.854 Y-11.743 E79.69613
G1 X10.779 Y-11.743 E80.21646
G1 X11.432 Y-12.321 F12000.000
G1 X11.432 Y12.321 E80.80920 F2400.000
G1 X-11.432 Y12.321 E81.35916
G1 X-11.432 Y-12.321 E81.95190
G1 X11.357 Y-12.321 E82.50006
G1 X11.761 Y-12.650 F12000.000
G1 X11.761 Y12.650 E82.58267 F1800.000
G1 X-11.761 Y12.650 E82.65948
G1 X-11.761 Y-12.650 E82.74209
G1 X11.686 Y-12.650 E82.81865
G1 X11.511 Y-12.217 F12000.000
G1 X10.362 Y11.425 F12000.000
G1 X10.362 Y-11.425 E83.38116 F1800.000
G1 X9.770 Y-11.425 E83.39573
G1 X9.770 Y11.425 E83.95823
G1 X9.178 Y11.425 E83.97281
G1 X9.178 Y-11.425 E84.53531
G1 X8.586 Y-11.425 E84.54989
G1 X8.586 Y11.425 E85.11239
G1 X7.994 Y11.425 E85.12697
G1 X7.994 Y-11.425 E85.68947
G1 X7.402 Y-11.425 E85.70405
G1 X7.402 Y11.425 E86.26655
G1 X6.809 Y11.425 E86.28113
G1 X6.809 Y-11.425 E86.84363
G1 X6.217 Y-11.425 E86.85821
G1 X6.217 Y11.425 E87.42071
G1 X5.625 Y11.425 E87.43529
G1 X5.625 Y-11.425 E87.99779
G1 X5.033 Y-11.425 E88.01237
G1 X5.033 Y11.425 E88.57487
G1 X4.441 Y11.425 E88.58945
G1 X4.441 Y-11.425 E89.15195
G1 X3.849 Y-11.425 E89.16652
G1 X3.849 Y11.425 E89.72903
G1 X3.257 Y11.425 E89.74360
G1 X3.257 Y-11.425 E90.30611
G1 X2.665 Y-11.425 E90.32068
G1 X2.665 Y11.425 E90.88319
G1 X2.072 Y11.425 E90.89776
G1 X2.072 Y-11.425 E91.46027
G1 X1.480 Y-11.425 E91.47484
G1 X1.480 Y11.425 E92.03734
G1 X0.888 Y11.425 E92.05192
G1 X0.888 Y-11.425 E92.61442
G1 X0.296 Y-11.425 E92.62900
G1 X0.296 Y11.425 E93.19150
G1 X-0.296 Y11.425 E93.20608
G1 X-0.296 Y-11.425 E93.76858
G1 X-0.888 Y-11.425 E93.78316
G1 X-0.888 Y11.425 E94.34566
G1 X-1.480 Y11.425 E94.36024
G1 X-1.480 Y-11.425 E94.92274
G1 X-2.072 Y-11.425 E94.93732
G1 X-2.072 Y11.425 E95.49982
G1 X-2.665 Y11.425 E95.51440
G1 X-2.665 Y-11.425 E96.07690
G1 X-3.257 Y-11.425 E96.09148
G1 X-3.257 Y11.425 E96.65398
G1 X-3.849 Y11.425 E96.66856
G1 X-3.849 Y-11.425 E97.23106
G1 X-4.441 Y-11.425 E97.24563
G1 X-4.441 Y11.425 E97.80814
G1 X-5.033 Y11.425 E97.82271
G1 X-5.033 Y-11.425 E98.38522
G1 X-5.625 Y-11.425 E98.39979
G1 X-5.625 Y11.425 E98.96230
G1 X-6.217 Y11.425 E98.97687
G1 X-6.217 Y-11.425 E99.53937
G1 X-6.809 Y-11.425 E99.55395
G1 X-6.809 Y11.425 E100.11645
G1 X-7.402 Y11.425 E100.13103
G1 X-7.402 Y-11.425 E100.69353
G1 X-7.994 Y-11.425 E100.70811
G1 X-7.994 Y11.425 E101.27061
G1 X-8.586 Y11.425 E101.28519
G1 X-8.586 Y-11.425 E101.84769
G1 X-9.178 Y-11.425 E101.86227
G1 X-9.178 Y11.425 E102.42477
G1 X-9.770 Y11.425 E102.43935
G1 X-9.770 Y-11.425 E103.00185
G1 X-10.362 Y-11.425 E103.01643
G1 X-10.362 Y11.425 E103.57893
M106 S232.05
G1 Z0.500 F12000.000
; LAYER:2
G1 X10.854 Y-11.743 F12000.000
G1 X10.854 Y11.743 E104.14383 F2400.000
G1 X-10.854 Y11.743 E104.66597
G1 X-10.854 Y-11.743 E105.23087
G1 X10.779 Y-11.743 E105.75120
G1 X11.432 Y-12.321 F12000.000
G1 X11.432 Y12.321 E106.34394 F2400.000
G1 X-11.432 Y12.321 E106.89390
G1 X-11.432 Y-12.321 E107.48664
G1 X11.357 Y-12.321 E108.03480
G1 X11.761 Y-12.650 F12000.000
G1 X11.761 Y12.650 E108.11741 F1800.000
G1 X-11.761 Y12.650 E108.19422
G1 X-11.761 Y-12.650 E108.27683
G1 X11.686 Y-12.650 E108.35339
G1 X11.511 Y-12.217 F12000.000
G1 X10.536 Y-11.251 F12000.000
G1 X-10.536 Y-11.251 E108.87216 F1800.000
G1 X-10.536 Y-10.659 E108.88674
G1 X10.536 Y-10.659 E109.40551
G1 X10.536 Y-10.067 E109.42009
G1 X-10.536 Y-10.067 E109.93886
G1 X-10.536 Y-9.475 E109.95344
G1 X10.536 Y-9.475 E110.47221
G1 X10.536 Y-8.883 E110.48679
G1 X-10.536 Y-8.883 E111.00556
G1 X-10.536 Y-8.290 E111.02014
G1 X10.536 Y-8.290 E111.53891
G1 X10.536 Y-7.698 E111.55349
G1 X-10.536 Y-7.698 E112.07225
G1 X-10.536 Y-7.106 E112.08683
G1 X10.536 Y-7.106 E112.60560
G1 X10.536 Y-6.514 E112.62018
G1 X-10.536 Y-6.514 E113.13895
G1 X-10.536 Y-5.922 E113.15353
G1 X10.536 Y-5.922 E113.67230
G1 X10.536 Y-5.330 E113.68688
G1 X-10.536 Y-5.330 E114.20565
G1 X-10.536 Y-4.737 E114.22023
G1 X10.536 Y-4.737 E114.73900
G1 X10.536 Y-4.145 E114.75358
G1 X-10.536 Y-4.145 E115.27235
G1 X-10.536 Y-3.553 E115.28692
G1 X10.536 Y-3.553 E115.80569
G1 X10.536 Y-2.961 E115.82027
G1 X-10.536 Y-2.961 E116.33904
G1 X-10.536 Y-2.369 E116.35362
G1 X10.536 Y-2.369 E116.87239
G1 X10.536 Y-1.776 E116.88697
G1 X-10.536 Y-1.776 E117.40574
G1 X-10.536 Y-1.184 E117.42032
G1 X10.536 Y-1.184 E117.93909
G1 X10.536 Y-0.592 E117.95367
G1 X-10.536 Y-0.592 E118.47244
G1 X-10.536 Y0.000 E118.48702
G1 X10.536 Y0.000 E119.00579
G1 X10.536 Y0.592 E119.02036
G1 X-10.536 Y0.592 E119.53913
G1 X-10.536 Y1.184 E119.55371
G1 X10.536 Y1.184 E120.07248
G1 X10.536 Y1.777 E120.08706
G1 X-10.536 Y1.777 E120.60583
G1 X-10.536 Y2.369 E120.62041
G1 X10.536 Y2.369 E121.13918
G1 X10.536 Y2.961 E121.15376
G1 X-10.536 Y2.961 E121.67253
G1 X-10.536 Y3.553 E121.68711
G1 X10.536 Y3.553 E122.20588
G1 X10.536 Y4.145 E122.22046
G1 X-10.536 Y4.145 E122.73923
G1 X-10.536 Y4.737 E122.75380
G1 X10.536 Y4.737 E123.27257
G1 X10.536 Y5.330 E123.28715
G1 X-10.536 Y5.330 E123.80592
G1 X-10.536 Y5.922 E123.82050
G1 X10.536 Y5.922 E124.33927
G1 X10.536 Y6.514 E124.35385
G1 X-10.536 Y6.514 E124.87262
G1 X-10.536 Y7.106 E124.88720
G1 X10.536 Y7.106 E125.40597
G1 X10.536 Y7.698 E125.42055
G1 X-10.536 Y7.698 E125.93932
G1 X-10.536 Y8.290 E125.95390
G1 X10.536 Y8.290 E126.47267
G1 X10.536 Y8.883 E126.48724
G1 X-10.536 Y8.883 E127.00601
G1 X-10.536 Y9.475 E127.02059
G1 X10.536 Y9.475 E127.53936
G1 X10.536 Y10.067 E127.55394
G1 X-10.536 Y10.067 E128.07271
G1 X-10.536 Y10.659 E128.08729
G1 X10.536 Y10.659 E128.60606
G1 X10.536 Y11.251 E128.62064
G1 X-10.536 Y11.251 E129.13941
M106 S255
G1 Z0.600 F12000.000
; LAYER:3
G1 X10.854 Y-11.743 F12000.000
G1 X10.854 Y11.743 E129.70431 F791.049
G1 X-10.854 Y11.743 E130.22645
G1 X-10.854 Y-11.743 E130.79135
G1 X10.779 Y-11.743 E131.31168
G1 X11.432 Y-12.321 F12000.000
G1 X11.432 Y12.321 E131.90442 F791.049
G1 X-11.432 Y12.321 E132.45438
G1 X-11.432 Y-12.321 E133.04712
G1 X11.357 Y-12.321 E133.59528
G1 X11.761 Y-12.650 F12000.000
G1 X11.761 Y12.650 E133.67789 F593.286
G1 X-11.761 Y12.650 E133.75470
G1 X-11.761 Y-12.650 E133.83731
G1 X11.686 Y-12.650 E133.91387
G1 X11.511 Y-12.217 F12000.000
G1 X-5.305 Y-11.425 F12000.000
G1 X-5.305 Y11.445 E134.46395 F791.049
G1 X0.480 Y11.445 E134.60310
G1 X0.480 Y-11.425 E135.15318
G1 X6.266 Y-11.425 E135.29234
G1 X6.266 Y11.445 E135.84241
G1 Z0.700 F12000.000
; LAYER:4
G1 X10.854 Y-11.743 F12000.000
G1 X10.854 Y11.743 E136.40732 F834.134
G1 X-10.854 Y11.743 E136.92945
G1 X-10.854 Y-11.743 E137.49436
G1 X10.779 Y-11.743 E138.01469
G1 X11.432 Y-12.321 F12000.000
G1 X11.432 Y12.321 E138.60742 F834.134
G1 X-11.432 Y12.321 E139.15739
G1 X-11.432 Y-12.321 E139.75012
G1 X11.357 Y-12.321 E140.29829
G1 X11.761 Y-12.650 F12000.000
G1 X11.761 Y12.650 E140.38090 F625.601
G1 X-11.761 Y12.650 E140.45770
G1 X-11.761 Y-12.650 E140.54032
G1 X11.686 Y-12.650 E140.61688
G1 X11.511 Y-12.217 F12000.000
G1 X10.556 Y-6.266 F12000.000
G1 X-10.536 Y-6.266 E141.12419 F834.134
G1 X-10.536 Y-0.480 E141.26335
G1 X10.556 Y-0.480 E141.77066
G1 X10.556 Y5.305 E141.90981
G1 X-10.536 Y5.305 E142.41712
G1 X-10.536 Y11.090 E142.55628
G1 X10.556 Y11.090 E143.06359
G1 Z0.800 F12000.000
; LAYER:5
G1 X10.854 Y-11.743 F12000.000
G1 X10.854 Y11.743 E143.62849 F791.049
G1 X-10.854 Y11.743 E144.15063
G1 X-10.854 Y-11.743 E144.71553
G1 X10.779 Y-11.743 E145.23586
G1 X11.432 Y-12.321 F12000.000
G1 X11.432 Y12.321 E145.82860 F791.049
G1 X-11.432 Y12.321 E146.37856
G1 X-11.432 Y-12.321 E146.97130
G1 X11.357 Y-12.321 E147.51946
G1 X11.761 Y-12.650 F12000.000
G1 X11.761 Y12.650 E147.60207 F593.286
G1 X-11.761 Y12.650 E147.67888
G1 X-11.761 Y-12.650 E147.76149
G1 X11.686 Y-12.650 E147.83805
G1 X11.511 Y-12.217 F12000.000
G1 X-5.305 Y-11.425 F12000.000
G1 X-5.305 Y11.445 E148.38813 F791.049
G1 X0.480 Y11.445 E148.52729
G1 X0.480 Y-11.425 E149.07736
G1 X6.266 Y-11.425 E149.21652
G1 X6.266 Y11.445 E149.76660
G1 Z0.900 F12000.000
; LAYER:6
G1 X10.854 Y-11.743 F12000.000
G1 X10.854 Y11.743 E150.33150 F834.134
G1 X-10.854 Y11.743 E150.85363
G1 X-10.854 Y-11.743 E151.41854
G1 X10.779 Y-11.743 E151.93887
G1 X11.432 Y-12.321 F12000.000
G1 X11.432 Y12.321 E152.53160 F834.134
G1 X-11.432 Y12.321 E153.08157
G1 X-11.432 Y-12.321 E153.67430
G1 X11.357 Y-12.321 E154.22247
G1 X11.761 Y-12.650 F12000.000
G1 X11.761 Y12.650 E154.30508 F625.601
G1 X-11.761 Y12.650 E154.38189
G1 X-11.761 Y-12.650 E154.46450
G1 X11.686 Y-12.650 E154.54106
G1 X11.511 Y-12.217 F12000.000
G1 X10.556 Y-6.266 F12000.000
G1 X-10.536 Y-6.266 E155.04837 F834.134
G1 X-10.536 Y-0.480 E155.18753
G1 X10.556 Y-0.480 E155.69484
G1 X10.556 Y5.305 E155.83399
G1 X-10.536 Y5.305 E156.34130
G1 X-10.536 Y11.090 E156.48046
G1 X10.556 Y11.090 E156.98777
G1 Z1.000 F12000.000
; LAYER:7
G1 X10.854 Y-11.743 F12000.000
G1 X10.854 Y11.743 E157.55267 F791.049
G1 X-10.854 Y11.743 E158.07481
G1 X-10.854 Y-11.743 E158.63971
G1 X10.779 Y-11.743 E159.16004
G1 X11.432 Y-12.321 F12000.000
G1 X11.432 Y12.321 E159.75278 F791.049
G1 X-11.432 Y12.321 E160.30274
G1 X-11.432 Y-12.321 E160.89548
G1 X11.357 Y-12.321 E161.44364
G1 X11.761 Y-12.650 F12000.000
G1 X11.761 Y12.650 E161.52625 F593.286
G1 X-11.761 Y12.650 E161.60306
G1 X-11.761 Y-12.650 E161.68567
G1 X11.686 Y-12.650 E161.76223
G1 X11.511 Y-12.217 F12000.000
G1 X-5.305 Y-11.425 F12000.000
G1 X-5.305 Y11.445 E162.31231 F791.049
G1 X0.480 Y11.445 E162.45147
G1 X0.480 Y-11.425 E163.00154
G1 X6.266 Y-11.425 E163.14070
